P6
241 479
255
|wsÑ{É~zÖÄ|Ä{wÄ{wÉ~zâÑÄàÉÖÄ|Ñ|y}urskhphetliyqn~yuÉ~zÖÄ|É~zÄ{w~yu}xtÄ{wÑ{Ç}yÄ{wzvzvÄ{wzv}xtzuq|ws|wszuqwrovqnxspzurÄ|yÅ}zÇ~{Å}z}yvzvs|xuÄ|yÅ|yÖÄ}áÇÜÅ~É~{~yvytqtoltolupmvqmvqmwrnvqmvqmupluplvqmytp|ws{vrytpzuq}xtÄ{wÉ~zÜÅ}âÑÄäÖÅäÖÅáÇ~ÖÄ|~yvÑ|Ñ|Ä{x}xu}xu~yvÄ{xÅ|yÇ}z}xuvqntolytqytqupmtokuplwrnzuq}xt~yu|wsytptokuplupltokuplytpzvÑ{ÖÄ}Ç}zzvÄ{wÅ|v}xrvriqmdqmdxtk|wqytnvqmwrnzurzurytpvqmtokvqm{vrzvÄ{wÄ{wxsozuq{vrwrntoktokuplwrnytqwrowro{vszwÄ{x~yv}xuxsowrnytp}xtzv|wsytpxsoytqzur|wt~yvzvzvzvzv~ys}xrxsmtoixsm|wq~zq{rÄ{w~yuzuqwrnwrnxsoytpxsoytpvqmrmisnj}xtÑ{Ä{wwrnuplytp|ws|wszuqytpzuqzuq{vr|ws}xt{vruplqlhrmiuplvqmtokqlhsnjytp~yuÄ{wÅ|xáÇ~É~z|wsvqmwro|wt}xuzurytqupmupmytqzurxsp|wtÉ~{ÜÅ~ÖÄ}Ñ|Ç}z~yv|wt~yvÅ|yÑ|~yuáÇ~áÇ~äÖÅÜÅ}ÜÅ}àÉåáÉåáÉãÜÇãÉÄÇzwvnkrjgxpmwtÇ}yàÉåáÉãÜÇàÉÉ~zÅ|xÉ~zäÖÅàÉÖÄ|Ñ{Ñ{ÖÄ|Ñ{Å|xzvzv~yu|wszurytq{vs|wtÅ}zÉ|ÖÅ~ÜÇÉ|Ç~{É|ÜÇâÑÅãÜÉåáÑäÖÇÜÅ~Ç}z~yv|wt{vszurzuqzuqytpytpxsoxsoytp{vr~yuzvzv~yuzvÅ|xÑ{ÖÄ|ÜÅ}àÉâÑÄâÑÄâÑÄàÉÜÅ~âÑÅàÉÄÇ}zÄ{xÄ{xÇ}zÖÄ}àÉÄâÑÅÖÄ}zw}xuzwzw{vs}xt}xt}xt~yuzvÄ{wzv}xtxso{vr}xt|ws{vr|wsÅ|xÖÄ|âÑÅàÉÄáÇ~áÇ~ÖÄzÄ{uyuluqhxtk|xo~yszuoxso|wsÄ{xÅ|y~yu|wszuq{vr~yuÅ|xÄ{wÄ{wzuq}xtzvÄ{w~yu}xt~yuzvzw}xu}xuÄ{xÉ~{É~{Ç}zÄ{x~yu~yuÅ|xÖÄ|ÖÄ|Ç}yÄ{wÄ{w|wt~yvÄ{xÄ{xÄ{wzvzvÄ{wÇ}wÉ~xÄ{u~ysÅ|vÖÄzáÉzâÑ~àÉÖÄ|Å|x}xt{vr|ws}xt|wszuqxsotokupl}xtÑ{Ç}y|ws{vr}xtzvzv~yuzvÅ|xÅ|xÄ{wÅ|xÅ|x}xtwrnrmisnjuplwrnwrnuplupl|wsÅ|xÉ~zÑ{åáÉâÑÄÉ~z}xt|wt~yvzw~yv}xuzurytqzurzurxsp{vsÄ{xÖÄ}ÜÅ~áÇÖÄ}Ç}zÄ{xÅ|yÉ~{ÖÄ}wrnzv~yuÄ{w}xt}xt~yuÄ{wÄ{wÇ}yÖ}z|tqmebh`]qifyqnytpÄ{wÑ{Ñ{Å|x|wsytp{vrÅ|xzv|ws{vr}xtzv~yu{vrytpwrntokrmirmjrmjrmjrmjsolwspzvs{wt{wt|xu~zw{xÇ~{É|Ñ|Ä{x{vsxspwrovqnwrowrovqmtoksnjsnjrmirmiuplxsozuqzuqzuq{vr}xt~yu{vrzuqytpytp{vr}xtÄ{wÅ|xÇ}zÖÄ}Ç}z}xu{vs{vs|wtzwÄ{xÄ{xzw|wtzurzurytqwro{vs{vszurxspwrowroupmsnkupmytq|wt|wtytqxsp{vszwÄ{xÄ{xÅ|xÄ{w|wqvqkqmdnjaqmdsofsnhpkeqlhvqm{vs}xuzuqxsowrnxsozuq{vrytpwrnrmiuplzuqzvzv|ws{vr}xtzurytqzur|wt}xu|wtzurxspvqmxso|wsÄ{wzv|ws{vr|wsxspzur{vszurwrnvqmwrnzuq{vr}xt}xr}xrztÄ{uÄ{uÉ~xÖÄ|É~z~yuzuqxsoxsoxsowrnytpxsouplsnjwrn|ws{vrxsoxsoytpxsovqmvqmxsozuq{vr~yu}xt|wsxsormiojfojfrmisnjuplsnjrmiwrn|ws}xt}xtÑ{Ç}y}xtytpvqnvqnytq{vs{vswrosnkqliqlirmjtolwroxspzur|wt|wtytqvqnvqnxsp|wt{vrÇ}y~yu~yu{vr|ws{vr{vr~yuÇ}yÜ~{~vsogdjb_qifyqnxso}xtzvÄ{wzv|wszuq}xt~yu}xt{vr{vrzvÇ}yÅ|xzvzuqxsoupltoktoltolsnkrmjplirnktpmuqnwsp{wt{xÄ|yÇ~{Ç~{Ç}z~yvzurwroxspytqvqnupmupltoksnjrmiqlhqlhtokxsozuqzuqzuq}xtzvzv}xtytpupluplxso{vr~yuÄ{wzwÉ~{Å|y}xu|wt{vszurzur}xu}xu~yv~yv}xu{vs{vs|wt~yvzwzw}xu{vszurxspvqnupmxspzur{vsytqxsp{vs~yvzwzw~yu}xt{vpwrlsofqmdrnesofsnhsnhwrn|wszwzwxsovqmtokuplxsozuqwrnsnjsnjvqm}xtÑ{ÖÄ|zv}xt~yu}xu~yvzwÄ{xzw|wtzurxspvqmzuqzvÇ}yÄ{w}xt}xtzv{vs{vszurwrotoksnjvqmytp}xtÅ|xÑyÑyÉ~xÄ{u~ysÄ{uÅ|xzv|wszuqzuqzuqxsovqm|ws|wszuqxsoxsozuq{vrzuq~yu}xt{vrxsoxsozuq|ws~yu}xt|wsytpwrntokrmitokwrnytpzuqwrntokxso{vrzuqwrn{vrytpxsowrnvqnvqnytq}xu}xuwropkhmhenifrmjupmvqnwrowroxspytqxspupmupmupmxsp~yuÇ}y{vrytpwrnytpwrnuplzuq~yuÇ}y}xtrjgmebqifumjuplvqmwrnxso{vrzuqytp{vr|ws{vrzuq{vrzvÇ}yÇ}yzvytpwrnupluplwrowroupmsnkokhokhokhokhrnkwsp}yv{x{x~zw}yv{wtytqwrowroxspytqytqytpytpxsowrnupluplvqmzuq}xt~yu~yuÅ|xÉ~zÉ~zzvytpsnjrmiuplxsoytpzuqÇ}zÖÄ}ÖÄ}Ç}zÅ|yÄ{x|wt{vs{vszur{vs|wt{vszur{vs}xuzwzwzw~yv}xu}xu|wt{vsytqxspytqzurzur{vs~yvÅ|yzv}xtzuqxsoxsmwrlvqktoiupjupjupjwrlzuq}xt~yu}xtzuqxsovqmwrn{vr}xtzuquplrmisnjzuqÅ|xÅ|x|wsxsozuq|wt}xu~yv|wtytqwrowrowrovqmzuqzvÅ|x~yu{vr|ws~yuzv~yu|ws{vrxsovqmvqmxsozuqzvÇ}yÑ{É~x~yszuo|wqzv|ws{vr|wszvzv|wsytp|ws~yuzvzvzvzvÄ{wÄ{wÄ{wÄ{w~yu{vrzuq{vr}xtzv~yu|wsytpwrnwrnwrnzuq}xtÅ|xÅ|x}xtytp{vr}xtzuqwrnupluplwrn|ws~yv~yvzwÅ|yzwytqsnkpkhsnkwroytqxspupmtoltolupmvqnupmtoltolzurÅ|xÑ{{vrytpxso{vrytptoktokytpzv~yuzrowolyqnyqnwrnwrnvqmytp}xt}xt{vr}xt~yu~yu~yuzvÅ|xÉ~zÅ|xzv{vrzuqzuq{vr~yv~yv}xu{vsvrotpmqmjqmjsolwsp}yvÇ~{{x~zw|xu|xu}xu|wt{vs{vszur{vs{vr{vrzuqytpwrnvqmvqmytp}xt~yuzvÄ{wÅ|xÇ}yÅ|x{vrvqmwrnzuq|ws|ws|wsÇ}zÖÄ}É~{Ä{xÄ{xzw{vsytq~yv}xu}xu~yv~yv~yvzwÄ{xÉ~{É~{Å|yÄ{xÅ|yÉ~{Ñ|Ñ|zurxspwroxspytqzur|wt~yvÉ~zÄ{w|wsytpzuo|wq|wq{vp}xr|wq{vp|wq}xt}xt{vrzuqxsoxsowrnxso{vr~yu{vrwrntokuplytp~yuzvzuqxsozuq~yvzw~yvzurvqnupmwrozurytp}xtÅ|xÅ|xzv|ws}xt~yu|ws{vrzuq{vrzuqvqmsnjrmivqmytp}xtÅ|xÇ}w}xrzuo|wqzuqxsowrnzuq~yuzv}xt{vr}xt~yuÅ|xÇ}yÇ}yÅ|xÄ{wÅ|xÑ{ÜÅ}ÖÄ|Ç}yzvzvzvÄ{w{vrzuqxsowrnvqmvqmytp|wsÅ|xÄ{w|wsytpzuqzuqwrnuplqlhrmiwrn~yuÇ}zÅ|yzw~yv}xuzurwroxspytqzurytqwroytqwrowroytq{vs{vs|wt|wt{vs~yuÇ}yzuqytpytp}xtxsoqlhlgcqlhytp}xt{vr{vr|wszuqxsowrnvqmytp|ws{vrzuq|ws|ws}xt~yuzvzv~yu|wsytpxsoytpzuq|ws~yvÄ{xÄ{xÄ{xzvsvrosolsolsoltpmyur{x~zw{wtyur{wt}yv|xuzvsyur}xu}xu}xt~yu}xt}xt}xt|wsytp|wszvÇ}yÅ|xzvzvÄ{wzv{vrytp{vr}xt|ws{vrzuqÅ|xÉ~zÅ|x~yu~yu}xtxsouplytpytpytp{vr}xtzvÄ{wÅ|xÑ|Ç}zzw}xu~yvÄ{xÅ|yÄ{x}xuzurytq{vs{vsytqwrowro{vr{vrytpwrnwrlzuo|wq|wq~ys}xr|wq|wq{vrwrnsnjrmiuplwrnytpzuq|ws~yu}xtzuqvqmvqmwrnytpzuqwrnwrnxsozur}xu~yvzurupmtolvqnytqytq|wt~yu~yu{vrytpytpytpzuqxsoytp{vr{vrxsoupltokrmisnjvqm{vr}xtzuqxso{vr|wsytpwrnytp|ws~yuzvzvÄ{wÄ{wÇ}yÑ{Ñ{Å|x~yu~yu}xtzvÄ{wzv~yu}xt{vrytpytp{vr|ws{vrwrnvqmxso{vr~yu}xtytpxsoxsovqmtokvqmsnjuplxso~yuÅ|yÅ|y~yv|wt|ws|ws~yuÅ|xÄ{w}xt{vr{vrytpytpytp{vr|ws}xt~yuÄ{wzvzvÑ{}xt}xt~yuÅ|xzuqpkgmhdrmiytp~yuzvÄ{wzv|ws|wszuqxsoytp{vrzuqzuq}xt|ws~yuÄ{wÄ{wzv}xtzuqwrnwrnxsozuq|ws~yvÅ|yÇ}zÉ~{~zwyurvrowspvrotpmxtq~zwÄ|y|xuyur|xu{xÄ|y}yvzvs~yv~yv~yuzvÄ{wÄ{wÅ|xÇ}y|ws~yuÇ}yÖÄ|É~zzv~yuzvÇ}yzvzvÄ{wÄ{w|wsytpxso~yuÄ{w~yu{vr|wszuqtokpkgrmisnjuplxso|wsÄ{wÇ}yÇ}yÑ|Ç}zzw|wt|wt|wt{vsytq|wtzur{vs}xu|wtvqnqliojgsnjuplvqmupltoiwrlzuo|wqzt~ysztzt|wsvqmqlhojfnietokxsozuq{vr|ws}xt{vr{vrzuqytpytpxsoxsoxsozuqytq~yvÇ}zzwzurwroxspytq{vs}xu~yu}xt{vrzuqytpxsoytpwrnwrn{vr|wszuqytpzuqxsowrnwrn|wszv}xt|wsÄ{wzv|wsxsoxsoytp|wszvÇ}yzv~yu~yuÅ|xÅ|x}xtzuqytprmitokxsozuq|ws|wszuqwrnwrn{vr~yu}xtxsotokvqmzuqytpxsovqmupltokqlhpkgtokwrnwrnxsozuq}xuzw}xuzurzuq|wsÅ|xÑ{Å|x}xt|ws~yuzuq{vr|ws}xt}xt}xtzvÇ}yÇ}yytp|wsuplxsoytp{vrvqmqlhojfupl}xtÄ{w~yu|ws}xt~yu|ws|wszuqxsowrnxsozuqzuq|ws|ws}xt~yu~yu~yu}xt|wsytpytpytp|wszwÄ{xÄ{x~yv{wt{wt|xu}yv}yv{wtzvszvs|xu|xuzvszvs|xu~zw~zw|xu~zw}yv}xt~yuÅ|xÑ{É~zÅ|x}xtzvÅ|xÉ~zÑ{É~zÅ|xzv~yu{vrzuq|ws}xtzuqvqmtokzuq}xt|wszuqzuqwrnrmiojfojfpkgrmitokwrn|wsÅ|xÇ}yÉ~{zw|wt}xu~yv|wtzurytq}xu}xu}xu~yvzwytqpkhkfcmhdniepkgrmirmipkgtoiytnzuo~ysÅ|xÅ|x~yuxsoqlhmhdnieqlhuplxsowrnvqmxso|wszv|wsxsoupltokuplytp~yuyur|xu~zw{x}yvzvsxtqwspyur{wt{wtyurxtqxtqwtovsnytpxsovqmwrnzuq{vrzuq{vr}xt{vr}xtÅ|xÉ~zzv}xt~yuÅ|xzv}xt{vr{vr|ws~yuÄ{w}xt~yu|wsytpxsoxsowrnuplpkgqlhqlhsnjwrnwrnvqmxsoxso}xtzv{vrwrnwrnwrnwrnuplvqmtokqlhqlhsnjrmipkguplxso{vr{vr{vs}xuÄ{xÇ}zÅ|xÄ{w~yu~yuzv~yu{vrxsowrnvqmwrnxsozuq{vr|ws}xt}xtuplwrnojfpkgqlhupltoksnjqlhwrnzvÇ}yÄ{w}xt}xt~yu}xt}xt{vrytpwrnxsoxsoxsoytpzuq{vr}xt~yu~yu~yu~yu|ws{vrzuq{vr~yvzw~yv|wtyur{wt~zwÅ}zÄ|y{x~zw{x~zw}yv|xu{wt}yv{x~zw|xu}yv}yv~yuzvÅ|xÉ~zÇ}yÅ|xzvÄ{wÅ|xÅ|xÅ|xzv}xt|wsxsovqmuplxsozuqytpvqmtokvqmytpzuqytpytpvqmrmiqlhnieojfpkgrmivqm{vrzvÅ|xÅ|yÄ{x~yv{vszur{vszurxspytq{vs{vs}xuzwzursnkpkhrmiojfnienieniemhdnicqlfxsm|wqzvzv{vruplpkgmhdpkgqlhtokuplsnjqlhrmitokytpytpxsovqmtoktokytp}xt|xu|xu|xu|xu|xu{wtzvszvsyur{wt{wtyuryuryuryvqyvq|ws{vrytpwrnzuqzuqxsoxsozuqzuq|wsÄ{wÄ{wzv~yuzvÅ|xÅ|xÄ{wÄ{wzvÄ{wÄ{wÄ{w{vr{vrytptoksnjvqmwrnwrnsnjsnjqlhqlhsnjtokuplytpwrn{vr~yu}xt{vrytpxsovqmrmisnjsnjqlhqlhsnjrmipkgojfrmivqmytp|wtzwÄ{xÅ|yÇ}yÅ|x~yu|ws{vrxsotokrmipkgsnjvqmvqmtoksnjwrnzuq{vrskhvnknfcnfcmhdqlhsnjtoksnjytpÅ|xÑ{É~zÄ{wzvzvzv~yu|wsytpxsoxsoxsowrnwrnxsozuq{vr}xt~yu~yuzvzv}xt|ws|ws~yv~yv|wtzurzvs|xuÄ|yÉ|É|Ç~{Å}zÅ}z~zw}yv{wt{wt|xu~zw~zw}yvzvs{wt|yt}zuzvÄ{wzv}xt}xt~yu~yu~yu|wszuqxsovqmtoksnjrmiuplytp{vrzuqxsoupmytqytqxspwroupmtoltolrmjqlipkhpkhsnkxsp{vs|wt}xuÄ{x~yvxspvqnytqzurwrowroytqzur}xuzw|wtytqxspytpvqmsnjqlhniekfbkfblgcqlhuplzuq{vrxsotokrmiqlhrmirmitoktoksnjojflgckfbqlhsnjupltoksnjsnjxso~yuÄ|y}yvzvsyur{wt|xu{wtzvszvs{wt{wtyurxtqyurzvs{wtzwÄ{x}xuzurzuqzuqwrnupltokvqmytpzuq|ws}xt~yuzv~yuÄ{wÅ|xÇ}yÅ|xÄ{wzv~yu{vr{vrxsoupltokvqmytpzuqxsoxsoupltokuplupluplwrntokvqmzuq|ws{vrytpvqmtoksnjupluplsnjqlhqlhpkgniemhdojfsnjwrn|wt~yv}xu{vsxspxspxspwrovqnrmjmhejebkfcojgsnkrmjojgojgsnkwrovqnqifvnkqiftlirmivqmwrnwrnvqm{vrÅ|xÑ{É~zÇ}yÅ|xÅ|xzv~yu{vrytpytpytpytpxsozuqzuqzuqzuq{vr|ws}xt~yu~yu}xt|ws|ws|wt{vszurytq{wt|xu~zwÅ}zÅ}zÄ|y{x{x{wtyurxtqxtq{wt}yv}yv|xuyurzvs{xs|yt~yu~yu|wszuqxsoytpzuqytpwrnvqmtokrmisnjsnjtokvqmzuq}xt}xt{vrxspzurzurwrovqntoltolwrowrowroupmsnkrmjtolvqnwroxsp|wt}xuxspupmxspytqwrovqnwroxsp{vszw~yv|wt}xu|ws~yuzv|wsuplpkgniepkgpkgsnjwrnytpytpvqmuplvqmsnjtokuplvqmuplqlhlgchc_lgcojfqlhqlhqlhsnjytp~yuÅ}z~zw{wtzvszvs{wtyurwspwspxtqxtqwspvrovrowspxtq~yvÄ{xzw|wt|ws{vrvqmtokrmitokupltokvqmytp|ws|wsxso|wszvÄ{w~yu{vrzuqytpzuq|ws{vrytpxsoytpytpytp|ws|wszuqzuq|wsytpuplupltokuplwrnytpytpvqmtoktokuplwrnwrntokrmiqlhqlhpkgsnjtokuplxso{vs{vswroqliojgpkhrmjupmvqnsnknifjebjebkfclgdlgdmheojgrmjsnktolrjgyqnxpm|tq~vsÅyv~yu}xtytp|wszvÅ|xÅ|xÅ|xÅ|xÅ|x~yu|wsytpytpytp{vr{vr|ws|ws{vrytpxsoytp{vr}xt~yu{vr{vr{vrzuqxspvqnvqnvqnyurxtqxtqzvs|xu|xu|xu|xuzvsxtqvrowspzvs{wt{wt{wtzvszvs{xs|yt~{v~{v|wsxsouplupltoksnjsnjtoksnjrmirmitokuplvqmytp}xt}xtzuqytq{vszurytqxspvqnvqnxsp{vs|wtzurwrotoltolvqnwrowrnytp{vr{vrzuqytpxsoytpwrnxsowrnzuq~yu~yu}xt~yuzvÉ~zÖÄ|É~zzv{vrytpytpwrnwrnytp{vr{vrxsowrnwrnvqmvqmwrnwrnvqmtokpkgmhdojfpkgpkgpkgrmiupl{vr~yu}yv|xu|xu{wtzvsyurvrotpmrnksoltpmtpmtpmsoltpmtpmzur~yv~yv}xu~yv|wtwrnuplvqmvqmsnjpkgpkesnhupjsnhrmiwrn{vr|wsytpuplupluplxsozuq|ws|ws{vrzuqytpxso|ws|ws{vr}xtÄ{w~yuzuqytp}xt}xt|ws{vrxsouplvqmwrnvqmwrnwrnwrnvqmvqmwrnxso{vr{vrzuqytpzurytqsnklgdkfckfckfcnifpkhqliojgmheojgnifmhemheojgrmjtoltolzur|tqÅyv~vsÇzwÇzwÑ|yÄ{w~yu|ws}xt}xt}xt}xt~yuzvzv}xtzuqxsoytp{vr}xt~yuzv}xtzuqxsowrnytp{vr}xt}xtzuq{vrzuqxsotolrmjsnkupmuqnsolsoluqnwspyurzvs|xu{wtxtqwspyur{wt{wt{wtzvs{wt{wtzwr|yt~{v~{v{vrvqmsnjrmiojflgcnieqlhsnjrmisnjwrnwrnuplvqm{vr}xt{vrzur|wt}xu~yvÄ{x~yv{vs}xu}xuzw~yv{vsxspwroytq{vsytpxsoytp}xt~yuzuqytpzuqzuqzuqytp{vr~yu~yu|ws~yuÉ~zÑ{ÖÄ|Ñ{ÖÄ|ÖÄ|É~zÄ{wytpxsoytp{vr{vrytpwrnxsoytpxsowrnupltokuplupltokupltokrmirmitokxso|ws}xtxtqyurzvszvsxtquqntpmsolqmjqmjrnktpmuqnuqnuqnuqnytq|wt~yvzwÄ{x|wtxsowrnytpxsosnjojflgalgakf`id^niermiwrnwrntokqlhqlhsnjxsoytp{vr|ws|ws{vrytpxso{vrzuqytp|wsÅ|xÉ~zÇ}yÉ~zÖÄ|Ñ{Å|x{vrvqmuplwrnytpxsoxsoytpytpzuq{vr}xt~yuzvzv}xtzuqytqytqvqnqlimhekfchc`idakfcojgqlirmjytqzurzurxspxspzur|wt}xuÄ{xÖ}zàÄ}ÇzwÉ{xÉ{xÖ}zzv|ws}xt{vrzuqytpzuq{vr|ws}xt{vrytpxsozuq}xt~yuzvzv|wsytpwrnwrnytp|ws|ws{vr{vrzuqytpuplrmjrmjtolwrotpmsolsolsoltpmvroyur|xuzvsxtqwspzvs|xu}yv|xu|xu|xu{wt{xs{xs}zu|ytzuqwrntokrminiekfbmhdqlhrmipkguplytpytptoktokzuq~yu}xtzwzwzwÇ}zÜÅ~ÜÅ~É~{É~{Å|yÇ}zÅ|y}xuzurytq{vs}xu|wsxsovqmzuq}xtzuqxsowrnzuq{vrzuqzuq|ws{vrzuq|wsÑ{Ñ{É~zÇ}yÑ{ÖÄ|É~zzvwrnvqmxsozuqzuqytpytpzuqytpytpxsotokrmisnjuplvqmvqmuplsnjsnjwrnzuq{vrzuquqnvrovrotpmqmjpliplirnksolrnkrnktpmwspwspwspwspyss{uu|wt~yv~yvzurvqnxspytpxsouplrminickf`id^gb\mhdqlhuplvqmtokrmisnjtokytpytpzuq{vr|ws{vrytpwrnwrnxsoytp|wsÄ{wÅ|xÅ|xÉ~zÉ~zÇ}yzvwrnrmisnjuplwrnytpytpytpzuq{vr|ws}xt}xtÄ{wÅ|xzvzuqxspzurzurytqvqnvqnupmtolupmwrozur|wtÄ{xÇ}zÇ}zÄ{xÄ{xÇ}zÇ}zÅ|yÄ{xàÄ}äÇÇzwÉ{xÑ|yÜ~{Å|x}xt{vrytpxsowrnxsozuq{vr{vrzuqxsoxso{vr~yuzvzv~yu{vrxsovqmwrnzuq|ws{vrytpzuqxsovqmrmipkhqliupmytqvrovrovrouqnsoltpmwsp{wtxtqvrovrozvs}yv~zw}yv}yv}yv}yv}zu}zu}zu|yt{vrxsovqmtokpkgniepkgsnjrminieuplzuqytprmirmiytpzvzvÉ~{Å|yÄ{xÇ}zàÉÄâÑÅáÇáÇÜÅ~ÖÄ}Ç}z}xuzurzur{vs|wt~yuwrnsnjvqmytpytpvqmtokvqmxsoxsoxsoxsovqmvqmytpÄ{wÇ}yÉ~zÄ{w~yu~yu|wszuqwrnwrnytp{vr{vrytpzuq|wsxsoytpytpuplrmirmitokuplsnjsnjrmisnjwrn{vrzuqxsotpmtpmrnknjgkgdjfcmifpliuqnrnkqmjsolvrowspwspwspxrrxspxspzurzurupmrmjupmxsoxsoxsowrntoipkemhbmhbojfrmivqmxsoxsowrnwrnwrnytpxsoxsozuqzuqytpvqmsnjrmivqmytp|ws~yu|wszuq|ws}xt~yuzuqsnjojfqlhtokuplxsowrnxsozuq|ws|ws|ws|wsÄ{wÇ}yzvytpwrozur}xu~yv|wtzwÅ|yÅ|yzw}xu|wt}xuÄ{xÄ{xzwzwÅ|yÑ|Å|y}xu}xuÉ~zàÉÇ}yÉ~zÖÄ|ÖÄ|Ä{w~yu{vrxsotoktokwrnzuq{vr{vrzuq{vr{vr{vr|ws}xt}xt|ws{vrwrnvqmxsozuq{vrzuqzuqvqmtoksnjqlhpkgsnjxsozuqxsovqmwrnxsovrovroxtqxtqwspvrowspyur|xu}yv{wtxtq{vs}xu~yv|wt{vrzuqytpxsovqmtoksnjrmirmirmirmisnjvqmytpzuqwrnvqm{vrÄ{wÇ}yÉ~zÇ}yÅ|xÄ{wÄ{wÅ|xÑ{áÇ~Ñ{É~zÄ{w|wszuq|ws~yuzvzvytpsnjtokwrnwrntokqlhrmiqlhrmiuplvqmuplvqmxso~yuÄ{wÄ{wzv{vrxsoupltokuplwrnytpzuq{vr{vr{vrzuq|wtytqwroxspvqmrmiqlhtoktokrmipkgpkgsnkytq{vswrosolsolqmjokhiebfb_hdamifsoluqnuqnrnkplirnktpmuqnvrouqnuqnurmspkqnispkwto|ws{vrytpwrnwrnxsowrnuplytpytpytpzuq{vr}xtzvÇ}yÄ{u~ys|wqytnwrlvqkrmgnicpketoiytn|wq}xr|wqytnwrlvqkupjuplrmimhdojfupmwroxsp{vs|wt{vsytqwrowro|wt}xt|ws~yu|wsvqmytpÄ{wÇ}yÅ|xÇ}yÉ~zÇ}yÅ|xÄ{w~yu}xtwspwspwspwspyur{wt|xu|xu}xt~yuÉ~z|ws~yuÄ{wÇ}yÄ{wzv|wsytpuplsnjtokuplwrnxsozuq|ws}xt}xt}xt}xt|ws{vrxsowrnwrnytp{vrzuqytpxsowrnuplupltokqlhrmitoktokupltokwrnzuqxtqwspxtqwspvrouqnuqnwspzvs{wt{wtyurzur{vs{vs{vs{vrzuqxsouplsnjsnjsnjsnjsnjrmirmirmiwrn{vr|wszuqzuq}xtÄ{wÅ|x~yu|wszuqwrnvqmwrnzuq|ws|ws}xt{vrytpxsozuq{vr|ws{vrwrnsnjtokwrnytpvqmsnjrmipkgqlhtokvqmvqmvqmxso|ws}xt}xt{vrxsouplsnjsnjsnjuplxsozuqytpytpytp{vrzurytqxspytqvqmsnjrmitoktoksnjqlhpkgqlivqnxspvqnuqnuqntpmrnknjgjfcjfclhenjgqmjrnkplilhemifplisolsolrnkrojspktqltqlxup|ytÅ|xzv}xt|ws|ws}xt|wszuqzuqzuq{vr|ws~yuzvzvÄ{wÅ|vztzuovqkvqkwrlwrlupjpkeupjzuo}xr}xr|wqzuoxsmsnhrmgsnjpkgmhdpkgupmvqn{vs~yv~yv}xu|wtytqxsp|wt|wszuq|ws|wswrnvqmzuq{vr}xt~yu~yuzvÅ|xÑ{É~zÄ{wyurwspuqnsoltpmvroyur{wt}xtxso}xtvqmxso{vrÄ{wÄ{wÅ|x}xt|wsxsouplsnjsnjtokuplxso{vr}xt~yu}xt|ws{vrytpwrnwrnytpzuqzuqxsowrnwrnwrnvqmvqmtokpkgojfpkgojfrmisnjxso|ws{wtyurxtquqnuqntpmuqnwspzvs{wtzvsyurytqxspxspytq{vrzuqwrntoksnjtokupluplsnjqlhqlhrmixso{vr}xt{vr|ws~yuzv}xtzuqwrnsnjqlhpkgrmisnjtokvqmxsoytpxsowrnxsoytpytpwrnuplrmirmivqmytpxsosnjsnjqlhqlhtokvqmvqmvqmwrnxsoytpytpwrnsnjpkgpkgqlhrmitokwrnytpxsouplwrnzuq{vs{vs|wtzurwrnupltoksnjtoksnjsnjrmiojgrmjupmtoltpmvrowspuqnsolqmjokhmiflheplitpmsolnjgkgdmifrnkpliokholgqnitqlvsn{xs|wÉ~zÉ~zÅ|xÄ{wÅ|xÅ|xÄ{w~yuzuqzuqzuqzuq|ws}xt}xt|ws|wqzuoxsmwrlwrlxsmxsmwrlsnhxsm}xr~ys}xrzuowrlupjqlfqlfqlhpkgnieqlhvqnwroxspzurzurzur{vsxspvqmxso{vrxsozuq|wswrnrmipkgojfqlhtokwrnzuq~yuÅ|xÄ{w~yu{wtyuruqnrnkqmjrnkvrozvs|wsvqm{vrtokvqmzuqzvÄ{wÇ}yzv~yu|wsxsoupltoktoktokvqmytp{vr}xt~yu}xt{vrxsowrnwrnxsoytpxsowrnvqmvqmvqmtoktoksnjojfnieojfniepkgqlhwrn}xt|xuzvsxtquqntpmsoltpmvroyurzvswspuqnwrowrovqnxspzuqzuqwrnsnjvqmxsoxsovqmrmiojfqlhtokytp|ws|wszuq{vr|ws{vrxsoupltokqlhpkgrmitokupltoktokwrnzuqzuqytpxsowrnvqmuplsnjpkgniermixsoxsotoktoksnjrmitokvqmuplsnjrmisnjuplupltokpkgmhdniepkgsnjsnjuplvqmtokqlhsnjwrn|wtzwzwzurwrnvqmuplsnjsnjtokupltokqliqlirmjrmjqmjuqnwspwspvrovrosolpliokhrnkwspyurtpmmiflhenjgmifkgdlidolgrojurmyvq}zu~yuÄ{wÇ}yÑ{Ñ{Ñ{É~zÅ|x{vr{vrytpwrnwrnytpytpytpupjupjvqkwrlytnytnytnxsm{vp~ysÅ|vÄ{u}xrytnupjrmgrmgqlfqlhpkgojfrmiwrowrosnkupmvqnwroytqwrotokuplzuqzuq{vr{vrwrnpkgkfbid`id`kfbqlhwrnzuqxsowrnxsozvsyurwspuqnsolsoluqnwspytpupl{vrtokvqmytp}xt~yuÄ{wÅ|xÄ{w}xtxsoupltokupluplvqmwrnxsozuq|ws|wszuqvqmsnjsnjtokuplvqmvqmupltokrmirmisnjsnjpkgpkgqlhpkgkfbmhdsnjzuq{wtzvsyurvrosolqmjplirnkvrowspvrosolwrovqnvqnwroxsowrntoksnjwrnzuq{vrytptokpkgrmivqm{vr{vrzuqwrnwrnytpxsouplqlhqlhqlhrmiuplwrnwrnupltokwrnzuqzuqytpxsouplsnjtokrminiemhdqlhytpzuqxsoxsovqmvqmwrnwrnuplrmiojfpkgqlhrmirmipkgnieojfrmiwrnuplsnjsnjqlhojfpkgsnjzur}xu}xuxspuplvqmvqmtokupluplwrnvqmrmjqlirmjrmjokhtpmwspwspvrouqntpmrnkrnksolwspzvsxtqqmjmiflhelhejfckgdnjgokhplirojtqlsnjxso~yuÉ~zÑ{É~zÇ}yÇ}y}xtzv}xtytpvqmwrnwrnvqmrmgrmgtoivqkwrlxsmzuo{vpztÄ{uÄ{u~ys{vpwrlsnhojdqlfpkepkgojfnieqlhvqnvqnuplwrnxsozuq{vrwrnsnjrmizuq}xt}xrzuovqksnhqlfpkeojfjeakfbrmiuplqlhpkgtokvrouqnuqnuqntpmsoltpmvroxsovqm|wsvqmwrnxso{vrzuq|wsÅ|xÄ{w|wsuplqlhrmisnjtokupltoktokuplwrnxsouplrmimhdojfqlhtokwrnxsovqmsnjnieojfqlhsnjpkgpkgpkgnieid`jeapkgwrnyur{wtzvsxtquqnrnkokhplitpmvrovrouqnwrovqnupmupmtoksnjrmiqlhtokwrnzuqzuqvqmsnjtokvqmytpytpuplrmisnjvqmwrntokrmirmirmisnjvqmytpxsovqmsnjvqmxsoxsoytpxsouplrmisnjrmipkgpkgvqm|ws~yu}xt|ws{vr{vr{vr{vrytpvqmsnjqlhqlhrmisnjqlhpkgrmivqm|wsytpvqmsnjqlhqlhqlhrmisnkxspytqupmrmitokvqmvqmxsowrnytpytptolqlirmjrmjplisolvrouqnsolrnkrnkrnktpmtpmvroxtqxtquqnqmjnjgokhnjgnjgokhmifjfcifajgblgcpkgvqmzuqzuqxsowrnxso|wszvzvzuqwrnwrnuplrmilgaojdsnhwrlxsmwrlvqkvqkytnytnwrlvqkupjtoiqlfojdrmgqlfrmipkgniepkgtoltolxso{vr|ws|ws{vrtoknienieytp~yu~ysytnxsmytnzuo|wqytpmhdfa]jeanielgcmhdqlhrnkplinjgplirnkrnksoltpmuplytpzvytpytpxsoytpxsoytp{vr|wszuqtokojfpkgrmitoksnjrmipkgpkgrmitoksnjqlhniepkgrmiuplxsoytpwrnuplpkgpkgsnjsnjqlhpkgpkgniekfblgcrmiytp{wt|xu|xuzvsvrouqnsolsoluqnvrovrovroupmsnkrmjrmjqlhpkgpkgqlhrmisnjuplvqmvqmupltoktokwrnvqmsnjojfqlhvqmxsowrnvsnvsnurmtqlvsnyvqyvqwtotqltqlurmvsnxupxupurmrojsnjsnjsnjwrn|wsÄ{wÄ{wzv}xt|ws|ws|ws|ws{vrzuqzuqytpvqmupltokrmiqlhsnjwrn}xt|wsytptoksnjtoksnjqlhojgsnkvqntolrmisnjvqmvqmytpytp|ws}xtwroqlipkhpkhqmjsoluqnuqnrnkokhokhqmjuqnvrovrowspwspvrosolokhqmjplipliplimifhdafc^gd_mhdniepkgrmirmiojfnienieuplytpzuqvqmuplvqmuplpkgid^mhbupjzuozuovqktoisnhtoitoisnhrmgsnhupjvqkwrlytnzuo{vrytptoksnjtoltolxso|ws~yu~yuzuqrmilgckfbsnhzuo|wq{vp|wq}xr}xrÄ{u{vrsnjkfbkfblgclgcojfsnjuqnokhlhemifpliqmjqmjrnkrmi|wsÇ}y{vrzuqytpytpwrnxsouplytpzuquplpkgpkgrmitoksnjrmiqlhpkgrmitokupltoksnjtokuplvqmytpzuqzuqxsowrnvqmvqmuplrmiqlhrmiqlhpkgpkgupl|ws}yv~zw~zw|xuvrowspwspwspvrouqntpmtpmrmjpkhnifnifojfojfpkgrmirmipkgpkgrmitoktoksnjrmiwrnwrnsnjpkgrmixso|ws{vr{xszwrwtotqlurmyvq{xszwrvsnvsnvsnwtoyvqyvqwtotqltoktokwrn|wsÅ|xÇ}yÄ{w~yuytpytpxsoxsoytpzuq|ws|wsÄ{w|wsxsouplrmipkgsnjwrnzuq{vrytpsnjrmitoksnjpkgnifrmjupmupmsnjsnjuplwrnxsozuqÄ{wÇ}yzurqlimhelgdrnkrnksoltpmrnknjgnjgplisolvroxtqwspvrouqnrnknjgmifmifokhqmjnjgkgdkhcmjeqlhpkgojfpkgqlhpkgojfpkgojfsnjsnjqlhrmivqmvqmrminicqlfvqkzuozuowrlvqkvqkwrlwrlwrlvqkxsm|wqÄ{uÇ}wÉ~xÑyÖÄ|Ç}y{vrwrnvqntolxso}xtÄ{wÄ{w|wssnjnieniemhbupjzuo}xrÄ{u}xrzuo}xrytpytpxsotokqlhqlhuplytpzvssolnjgokhrnkrnkqmjplirmizvÇ}yzuqzuqxsoytpxsoxsouplvqmxsoxsovqmtoktokuplupluplwrnxsoxsoxsovqmvqmuplupltoktokwrn{vr}xt}xtzvytptokuplwrnvqmsnjrmiuplsnjupl{vr{x~zw{wtyuryurtpmtpmxtqxtqrnknjgnjgojgjebidanifqlhpkgojfpkgojfojfqlhtoktokrmirmitokytpzuqxsoxso|ws~yu~yuzv~{vzwryvqyvqxupxupzwryvqxupxupyvqzwryvqvsntqltqltokwrn|wsÄ{wÅ|xzv{vrwrnuplsnjrmiuplytp|ws|ws|wszv}xtytptokpkgojfpkgrmixsovqmupltoktoksnjqlhojfmhermjvqnvqntoktoksnjrmixsoxso}xtÑ{Å|yupmmhemhenjgpliqmjtpmuqnqmjnjgqmjpliuqnxtqxtqwspuqnplikgdlhejfcjfcnjgqmjsolsolsolrmitoksnjqlhpkgrmiqlhpkglidkhcojfrmisnjwrnytpuplupjupjwrl{vp|wqzuozuo{vpytnzuoxsmwrlxsm}xrÉ~xÜÅ{ÜÅ{ÜÅ{ÜÅ}ÖÄ|Å|x|wsxspwroxsozuqzvÉ~zzvvqmpkgpkgojdtoizuo~ysÄ{uzt|wqytnvqmytp~yuÅ|xzv|ws}xtÄ{w}yvzvsvrowspyurvrornkqmjrmiÄ{wÑ{}xt{vrwrnwrnwrnxsowrnxsoxsoxsowrnuplupluplvqmvqmwrn{vr~yu~yu{vrxsovqmvqmupluplwrn{vr}xt~yu}xtxsotokuplvqmupltoktokxsovqmwrnzuq{wtzvsyurzvs|xuyurvrouqnsolplimiflhelgdkfcnifsnkuplsnjuplxsovqmuplwrnytpzuqxsovqmuplxso|ws~yuzvÅ|xÅ|xzvzv~{v{xs{xs{xsxupxupzwr{xszwryvqxupxupwtotqlrojqniuplxsozuqzuqytpxsovqmupluplrmipkgrmivqm{vr}xt}xt}xt|wszuqvqmsnjrmiqlhqlhtokuplupltoktokuplsnjqlhqlisnkupmupmtoktoktoktokvqmvqm{vrÇ}yÅ|ywroojgnifnjgplisolwspyurtpmokhokhrnkwspyurwspuqntpmsolplirnkokhlhemifqmjuqnuqnuqnxsoxsouplqlhpkgsnjsnjrmimjelidrmivqmwrn{vr}xt{vrytnytn{vp}xr}xr}xr}xr~ysytnwrltoisnhvqk{vpztÄ{uzt~yszvÄ{wÄ{w~yuzurxspxsoytp}xtÅ|x~yuvqmqlhqlhqlfupjwrlytn{vp~ys~ys|wqytpzuq}xtÄ{wÅ|xÄ{w~yu~yuÄ|y{x}yv|xu{wtvrotpmvrovqmzvÑ{~yu{vrvqmwrnxsozuqxsowrnwrnwrnvqmtoksnjsnjsnjsnjtokxso}xtzv}xtytpwrnxsowrnwrnwrnytp{vr|wsytpuplsnjsnjtoktokuplvqmxsoxsoxsoxsovrouqnwspzvs}yv|xuyurvrotpmsolrnkplinifpkhvqnytqytpwrnytp~yu}xt}xt|ws|ws|ws|wszuqwrnwrn|wsÅ|xÇ}yÇ}yÅ|x~yu|ws}xt|ws}xt}xtytpxsozuqzuq}xtzuqwrnvqmuplsnjrmiqlhwrnxsowrntokrmiqlhrmirmirmipkgnieojfsnjxso|ws}xt|ws{vrzuqytpwrnuplsnjrmirmivqmwrnupluplwrnxsovqmtoltoltolupmuplupluplvqmupluplytpÄ{wÄ{xxspqlipkhplisoluqnyur{wtvrookhlhetpmxtqzvswsptpmuqnvrouqnxtqvrornkplitpmxtqyurvrozurytqvqmtokuplxsoxsovqmrojrojvsnyvqytpzuq|ws|ws{vp|wq}xr|wq~wqxrÄysÄys}vpxqkslfrkeunhzsm{tnzsmyrlunhskhumjyqn|tq}us}usxsoytp|wsÄ{wzvzuqwrnwrnupluplrmgpkermgxsm{vp|wqytp{vr}xt~yuzvzv|wszuq}yv{x{x}yvzvsuqnuqnyurzuq~yuÇ}y|wszuqwrnytp{vr|wswrnupluplvqmuplrmipkgpkgpkgpkgojfqlhuplytpzuqytpvqmytpzuqxsovqmvqmwrnwrnvqmsnjqlhrmitokuplvqmwrnvqmvqmwrnvqmsolrnktpmwspxtqxtqxtqxtqxtqxtqyuryurupmwroytq{vsytpxsoytp}xtzvÄ{w}xtytpxsozuq{vrzuqvqmzuq~yuzv}xt}xt|wsytpzuqytp{vr|wsxsovqmvqmuplzuqwrnupltoksnjrmisnjtokvqmvqmsnjqlhpkgqlhqlhpkglgcmhdmhdmhdojfsnjwrnytpytpwrnuplvqmxsowrnuplrmitokytpzuqwrnvqmzuq}xt|wsupmsnksnkupmvqmupluplvqmupluplxso|ws{vsvqnrmjrmjuqnwspwspyur{wtvronjgjfcsolwspxtquqnuqnxtqxtqvro{wtzvsxtquqnwsp{wt{wtxtqytqwrovqmxso{vr}xt|wszuqxupxupyvqyvqwrnuplvqmwrnzuo}xr}xrzuo|uo~wqxr}vp~wqxqkslfrkeunhxqkwpjtmgrkemf`jb_mebskhxpm{sq{sqxsowrnzuq~yuÄ{w~yu|ws|wsytpuplojdlgakf`ojdupjytnzuq~yuÄ{wzv|wszuqytpwrnwspzvs{wt{wtyuruqnuqnyur{vr}xtÅ|xytpytpxso|ws|wszuqupltokuplwrnvqmrminieniemhdojfojfnienieqlhuplwrnsnjwrnzuqytpuplsnjsnjsnjtokrmirmitokwrnytpytpxsouplupluplsnjplinjgplisolqmjplirnkvroxtqyurzvs}yv{vsytqwrovqnwrnxsoytpzuq}xtzv|wsvqmsnjuplxsoxsovqmxso{vrzuqwrnxso{vrxsowrnvqmxso{vrytpwrntokpkgtoktoktokupltoksnjtokvqmuplsnjqlhpkgrmisnjpkglgcjeakfblgckfbkfbniermitokrminiekfbnietokvqmtoksnjtokzuq{vrwrnuplzuq~yuzvvqnsnkqlisnktoktoktokvqmupluplvqmxsovqnsnksnkvqnzvszvswspvroxtquqnokhkgdqmjtpmtpmrnktpmyuryurvroyur{wt|xuyuryur|xu}yv|xuzurxspvqnxsp{vs}xu~yu~yu}zu{xsyvqwtospkolgpkgtok{vp~ysÄys}vp|uo~wq~wq|uo{tnwpjslfslfunhwpjvoitmgohble_ldapheumjxpmxpnwomxspvqnxsp{vs}xu}xu|ws|ws}xtwrnrmiojflgckfbqlhytp|ws~yuÄ{w~yu|wsytpwrnuplrnktpmuqnxtqzvswspvroxtqwrn}xtÅ|xxsoxsoxso|wszuqvqmrmiqlhsnjupltokojfkfbkfblgcpkgrmiojfkfblgcpkgtokqlhuplxsowrntokrmiqlhqlhsnjrmirmitokwrnytpxsowrnvqmvqmtokqlhmiflhenjgpliqmjnjgnjgqmjtpmuqnwsp{wtzurwrormjqlitokwrnxsoxsovqmytpxsotokqlhrmitoktoktokuplxsouplojfrmiytpxsovqmtokwrn{vr{vrytpuplojfniepkgtokvqmupltoktokvqmvqmtokrmirmitoktokpkgkfblgcmhdlgcjeajeamhdpkgrmikfbfa]d_[hc_niermirmiqlhsnjwrnxsotokrmivqm{vr}xtwrosnkpkhojgpkgqlhsnjuplrmisnjtoktokrmjrmjupmytq|xuzvsuqnrnksolsolplimifqmjsolrnkokhrnkxtqzvsxtqvrozvs}yv|xu{wt|xu{xÄ|y|wtwrosnksnkvqnzurzvÇ}yÅ~y~{vzwrwtospkmjemhdsnj{vp}xrxr|uo|uo}vp}vp{tnwpjslfpicqjdtmgvoiwpjwpjslfqjdogdpheskhumjvnlwomytqwrowroxspytqytqxsowrnzuqvqmtoksnjpkgniermizuq{vrytpxsozuqzuqxsosnjojfnjgplirnkvro{wtxtquqnuqnrmizuqzvxsowrnuplwrnuplqlhojfniepkgsnjqlhkfbhc_id`mhdrmitokpkgkfbkfbojfqlhrmitokupltoksnjrmiqlhpkgrmiqlhrmisnjuplvqmvqmvqmtokvqmvqmrmimifkgdmifokhqmjokhmifmifokhrnktpmuqnwroupmqliojgojfqlhrmiqlhniepkgpkgpkgqlhrmisnjrmiqlhrmitokniefa]kfbvqmytpwrntokvqmzuq{vrzuqvqmqlhkfbnieqlhtoktoksnjtokvqmytpxsoupltoktoktokrmiojfpkgpkgnielgcmhdpkgqlhpkgjeagb^e`\id`nieojfpkgpkgrmiuplvqmsnjojfpkgtokwrnwrotolpkhmhemhdojfqlhrmiqlhqlhqlhqlhpkhrmjvqn{vszvsyurrnkmifokhplimifkgdmifrnkrnknjgokhuqnxtqvrornkwsp|xu}yv{wtyurzvs|xuzurvqnrmjrmjsnkvqn{vrÅ|xÄ}x~{vyvqwtotqlnkfnieuplzuo{vp|uozsmyrlzsmzsmzsmunhqjdmf`mf`picslfvoixqkyrltmgnfckc`ldapheumkyqoxspvqnvqnvqnupmtolrmjrmjrmisnjtoktoksnjsnjuplxsoxsotoksnjvqmwrnrmimhdkfbkgdmifplivro{wtxtqsolsolqlhvqm}xtwrnuplrmisnjqlhnienieniepkgrmipkgjeahc_id`pkgtokuplqlhmhdmhdpkgrmitoktoksnjsnjsnjsnjqlhojfrmisnjsnjsnjsnjtokuplvqmqlhuplwrnuplplimifmifnjgpliokhmifjfclheqmjrnkplivqnvqnsnknifkfbjeajeaid`hc_hc_id`lgcpkgsnjsnjrmiqlhqlhrmijea_ZVfa]vqm{vrvqmtokuplytpzuqzuqwrnrmikfblgcmhdpkgqlhsnjuplxso|ws{vrytpvqmtokuplupluplrmirmipkgojfrmiuplsnjnienielgckfbniepkgojfojfpkgtokuplvqmsnjniemhdojfrmiupmupmrmjnifmhdojfpkgojfpkgpkgpkgojfpkhrmjvqnzurxtqwspqmjkgdkgdlheiebgc`gc`njgqmjmiflheplisolrnkmifsolzvs|xuyurtpmrnksolytqvqnupmupmsnkrmjuplzuq{xsyvqvsnvsnvsnqnirmizuq{vpzuo{tnyrlxqkxqkyrlzsmvoipickd^jc]mf`qjdunhxqkzsmtmgmebjb_jb_nfctljvqnupmtolsnkrmjqliojgnifmhelgcqlhtoktokuplwrnxsowrnvqmsnjsnjvqmtokmhdid`jeahdalhepliwsp{wtxtqsolsolsnjskh{spvnkvnktlirjgogdpheogephfqigskiskiogemecrjhvqmzuqxsoqlhmhdlgcnieqlhrmitokvqmupltokuplupltoktoitoitoirmgrmirmirmirminiermiwrnvqmrmjnifnifojgpkhnifnifqlitoltolqliojgtolxspxspsnkojgkfchc`d_\d`]ea^fb_jfcpliuqntpmqmjnjgpliqmjjfcb^[hdasolwspsnksnkupmwrowroupmsnksnkpkgpkgpkgojfnieojfupl{vrzuq{vrytpvqmwrnzuqxsotoksnjupluplsnjqlhsnjtokupltokvqmuplsnjqlhrmirmirmivqmuplsnjpkglgcjealgcqlhrmiuplvqmuplsnjnielgcniesnjrmirmiqlhqliqlisnkupmwrovqnsnknifkfcidafb_d`]fb_jfcmiflhehdafb_jfcpliqmjplitpmxtqxspqlilgdkfcojgqlisnktolsnjqlhpkgpkgtoktokuplvqmvqmvqmwrnytp{vrytpvqmtokrmirmitokwrlpkeplcqlfpkenicmhbnicpkeqlhojfkfbhc_jeaojfrmjqliqlhnkflidkhcmjenkfmhdkfbid`mhdqlhsnjuplxsowrnuplrmisnjsnjupltokniejeakfbkfbmhdsnjzuq|wsxsotoksnjsnjldatlipherjgrjgqifnfcogdnfdnfdogerjhtljqigphfskiwrn|ws{vrtokniekfblgcojfsnjuplxsoxsoxsoytpytpxsovqkvqktoirmgpkgpkgpkgojfmhdqlhvqmvqmrmjojgnifojgojgnifojgsnkwrowrotolrmjtolvqnupmrmjojgmheidad_\d`]hdakgdmifnjgqmjrnkqmjplisolvrotpmnjgplivrovroupmupmupmvqnvqntolqlipkhsnjsnjsnjrmipkgpkgtokytpxsoxsouplsnjtokxsowrnsnjtokuplupltoktokupluplsnjuplwrnwrnvqmrmipkgqlhrmiuplupltokqlhlgcid`jeanieqlhuplxsoxsouplqlhojfrmitoktoksnjrmirmjsnkupmvqnvqntolqlimhejebhc`hdahdakgdkgdlhekgdiebhdakgdokhkgdlhepliuqntollgdd_\b]Zidajeblgdnifnieojfojfpkgojfqlhtokvqmupluplwrnytpytpvqmrmipkgojfojfpkgrmgmhbqmdvqkwrltoiojdmhbmhbpkgpkgniekfbmhdrmiupmtolspkqniolgnkfolgpmhojflgcjeamhdnieojfpkgrmiqlhojfojfqlhrmirmirminiekfblgckfbkfbniesnjuplsnjqlhqlhrmiia^phemebpheqifqifnfcphenfdnfdphftljyqowomumkwomxso}xt}xtwrnqlhmhdlgcojfqlhtokwrnytpzuq{vrzuqzuqwrlvqktoirmgrmisnjrmiqlhniermiuplvqmsnkqliqlirmjpkhojgqlitolwrowrotolrmjsnksnksnkqlipkhojgkfchc`jfcplitpmsolpliplirnksoluqnvrozvs|xuxtqvrovrotpmupmtolupmvqnupmsnkqliqlitoktoktoksnjqlhpkgtokwrnwrnvqmsnjpkgrmiupluplrmiuplwrnxsoxsozuq{vrxsotoksnjtokupluplrminienieqlhuplupluplrminiejeajealgcrmivqmytpxsovqmrmiqlhuplvqmuplsnjrmirmjsnkupmwrovqntolpliokhlhekgdmifpliplipliplirnkrnkqmjpliplilhelheplisolrmjjebd_\a\Yfa^gb_hc`jeblgcniepkgqlhpkgrmitokvqmvqmuplwrnzuqytpvqmrmipkgmhdkfbkfbkf`lgaqmdxsmzuowrlpkemhbmhbrmisnjqlhniepkguplxsoytpxupvsntqlrojsnjsnjpkgmhdmhdniemhdmhdmhdniemhdjeamhdqlhrmirmisnjrmipkgpkgmhdkfbjealgcojfojfpkgqlhsnjmebskhnfcqifrjgqifogdqifogeogeqigvnl{sqzrpxpnzrpytp|ws|wsxsouplrmiojfojfojfrmivqmytpzuqzuqytpytpxsmwrlupjtoiuplvqmvqmtokrmisnjuplupltolsnksnktolsnkrmjsnkupmvqntolqlimhermjrmjqlipkhojgojgojgnifrnkxtq{wtxtqsolrnkuqnwspyurxtqyur|xuzvswspsolqmjpkhqlisnkupmupmsnkrmjrmjrmirmirmipkgojfpkgtokwrnwrnvqmtokrmirmitoksnjqlhtokwrnytp{vrzvÅ|x}xtwrnqlhojfpkgrmiqlhmhdniermiuplupltoksnjqlhpkgojfojftokxsoytpwrnuplqlhrmivqmxsovqmsnjqlhqlisnkupmvqnvqntolrnksolrnkplirnkvrovrouqnuqnxtqzvszvsxtqwsprnkqmjqmjrnkrmjnifkfckfckfckfckfcmhepkgrmisnjtokvqmvqmvqmwrnwrnwrnxsoytp|wszuqwrnsnjnieid`gb^gb^lgaokbupjxsmupjqlfojdpkeupluplsnjpkgqlhvqmytpytpwtowtovsnvsnxsoxsotokpkgpkgpkgpkgojfnieojfniemhdpkgtoktokrmisnjupluplvqmrminiekfbkfbniepkgrmitoktokpkgtokmhdojfojfniemhdojfojgpkhpkhsnkwrowrowrozur{vr{vrxsowrnxsovqmqlhojfojfqlhuplxsoytpxsoxsoxsoytpytpxsowrnwrnxsovqmtokvqmvqmvqmwrnvqmtokrmisnjupmupmupmupmvqntolqlimhermjrmjqlipkhojgojgrmjupmytq}xu~yvzurwrowroytqytq|wtytqxspzurzurwrormjrmjnifpkhtolupmtolqliqlirmjsnjsnjqlhmhdlgcojfsnjvqmxsoytpxsovqmupluplrmipkgniesnjwrn{vrÄ{wÑ{Å|x{vrsnjojfnieqlhrmipkgpkgsnjuplsnjrmisnjuplwrnvqmtoktokxsoytpxsovqmsnjrmivqmytpwrnupltoktolupmupmupmqmjqmjrnkuqnuqnrnkrnkuqnyurxtqwspyur{wt|xu}xu~yvwspuqnsolqmjqliqlirmjsnkqliqliqlisnkuplwrnwrnwrnytpxsowrnytpzuqytpxsowrn{vr{vr{vrwrnqlhjeagb^hc_mhbnicrmgvqkvqksnhqlfrmguplvqmtokqlhsnjxsoytpwrnspktqlwrnzuq|ws}xtytpuplrmirmirmisnjrmirmirmisnjsnjwrnuplqlhsnjwrnxsoytpwrnsnjojfojfqlhsnjuplwrnupmqlhuplmhdnieniemhdlgcpkgwrowroupmupmwroxspytq~yv|wszuqvqmtokwrnuplqlhnieniepkgtokwrnwrnvqmvqmwrnytpzuqytpxsoxsoytpwrnvqmxsowrnxsozuqzuqvqmsnjrmiupmvqnvqnwroxspxspvqntolrmjqliqliqlipkhqliupmytq|wt~yv}xu{vsytqzurzurxspxspxspwroytqzurwrosnksnksnktolwrowroupmrmjrmjsnkxsowrnsnjlgcjeaniermitokxsozuqzuqytpxsouplqlhniejeapkgvqmytp}xtÅ|xÄ{w|wsuplpkgniepkgrmipkgpkgsnjrmipkgniepkgvqm{vrzuqxsosnjvqmwrnxsoxsovqmsnjuplwrnvqmvqmwrnxspwrovqntolokhplirnkuqnuqnsolqmjrnktpmuqnxtq{wt|xu{wtzurzuryurwspuqnrnkrmjsnksnktoltoltoltolupmvqmwrnxsoxsoxsowrnxso{vr|wszuqxsowrnytpytpzuqytptokojfmhdmhdmhbmhbqlfwrlzuovqkrmgqlfvqmwrnwrnvqmytp|ws{vrxsotqlurmxso{vr}xt}xtytpuplsnjrmisnjuplvqmuplupluplvqmxsouplrmitokxsozuqzuqxsovqmsnjrmisnjuplwrnwrnvqnrmivqmojfpkgojfnieniesnj|wt|wtzurytqzurytqzur}xu}xt{vrvqmsnjtoksnjpkgojfnieojfrmiuplvqmuplvqmwrnytpytpxsovqmvqmvqmvqmuplvqmtokuplxsoytpwrntoktokvqnwroxspxspytq{vs{vsytqsnkpkhojgqlisnktolvqnytq{vr|ws|wszuqytpytpwrntoktokwrnwrnxsoytpvqmrmisnjwrowrowrowrovqntoltolupmzuqytpsnjlgcjeaniesnjtokwrnxsoxsoytpytpvqmpkgkfbjeaqlhwrnwrnwrnzuqzuqwrnrmipkgojfpkgojfmhdniepkgniekfbjealgctokytpzuqwrnrmisnjsnjtokwrnvqmsnjtokrmiqlhqlhrmitolvqnupmupmqmjqmjrnksoltpmsolqmjplimifqmjwro|wt|wtytqwrovqnxtqyurxtquqnupmupmtolrmjsnksnksnksnksnjtokuplvqmuplwrnytpytpvqmtoktokvqmvqmupltokvqmwrnuplsnjqlhmhbmhbpkewrl{vpxsmupluplytpzuqzuqytpzuq}xt}xtytpxsoytpytp{vr|ws{vrwrnsnjtokqlhrmivqmxsovqmtoksnjvqmvqmsnjqlhuplxsoytpzuqxsowrnupltokuplvqmvqmwrnvqnsnjxsormitoksnjqlhqlhwrnzur{vszurzur{vsxspvqnwro}xt{vrvqmsnjrmiqlhpkgqlhnieojfrmiuplvqmvqmwrnytpytpytpvqmsnjqlhpkgpkgpkgqlhniemhdqlhtokuplupluplxspxspxspxspzur|wt|wt{vssnkojgmheqliupmvqnvqnwrowrnytpzuqytpwrnuplrmiojfqlhvqmwrnvqmwrntokpkgrmivqntolsnktolupmupmvqnwroxsowrnrmikfbjeaojftokuplvqmupluplwrnxsovqmojfid`kfbrmiwrntokqlhqlhrmipkgnieojfpkgpkgmhdjealgcojfjeahc_gb^jeaqlhwrnwrntoksnjqlhnieojfsnjsnjqlhrminielgcjeajeanifqlitolupmrnkrnkrnkqmjrnkrnkqmjokhlhenjgrmjupmupmupmvqnxspwspyuryurwspwrovqntolqlisnksnkrmjqlipkgpkgrmisnjtokvqmwrntokniejeaniesnjsnjojfnieqlhvqmwrntokqlhojdlganictoiytnytnytpzuq{vr|ws{vrwrnwrnzuq{vrzuqytpytpytpzuq{vr{vrxsotokuplrmiqlhvqmytpwrnsnjpkgsnjrmiojfpkgtokvqmvqmwrnxsoxsowrnvqmuplvqmvqmvqmwro{vrÄ{wxsoytpytpxsouplvqmwrowroxspzurwroqlilgdlgdpkgrmirmiqlhqlhrmirmiqlhpkgsnjvqmytpzuqzuqzuqzuqzuqwrntokqlhlgcid`hc_id`lgchc_fa]gb^id`lgcojfsnjupluplwrnxsoxsowrnwrnwrnqlhniekfbkfbnieqlhtokvqmsnjqlhpkgmhdjeakfbmhdmhdpkgsnjvqmwrnvqmsnjqlhojftolsnkqliojgojgqlisnktolvqmsnjojflgcniesnjvqmvqmsnjsnjtokwrnwrnqlhlgchc_hc_qlhxsovqmojfid`gb^hc_nieojfqlhrmipkglgckfbmhdjeaid`id`lgcrmivqmuplrmirmiqlhojfmhdojfrmisnjpkgkfbhc_fa]gb^jebmheqlitolrnkpliplirnktpmsolqmjokhiebkgdnifniflgdkfcojgtolsoluqnxtqyurxspupmsnkrmjojgojgpkhrmjqlhojfmhdmhdqlhtokrmijead_[fa]lgcojfpkgkfbjeaojfupluplrmipkgmhdojfqlhsnjwrnwrnwrn{vr}xt|wsytpvqmupltokuplvqmvqmxsoytpzuqytpytpvqmsnjtokrmirmivqm{vr{vrsnjlgchc_id`hc_id`niepkgpkgqlhuplxsoxsotoksnjsnjuplytpytqytpÄ{w{vr}xt{vrytptoktokrmjrmjtolupmrmjmhejebjebkfbmhdpkgrmisnjsnjsnjrmitoksnjsnjvqmzuq{vrytpwrnuplrminiekfbid`hc_hc_id`jeagb^fa]e`\d_[d_[hc_mhdqlhrmisnjupltoksnjsnjtokqlhojflgcjeakfbniesnjvqmwrnpkgid`d_[b]Ygb^lgclgcpkgrmiupluplsnjpkgojfojfrmjrmjpkhmhelgdmhenifnifqlhpkgniemhdqlhwrnxsouplojfojfqlhtoktokojfjeagb^lgcrmiwrnvqmrminielgckfbpkgqlhrmisnjqlhojfnieojfpkgojfniemhdpkgtokupluplsnjsnjqlhnienieqlhrmiqlhlgcjeaid`jealgdnifpkhrmjuqnuqnxtq{wtzvswspsolrnkjfcjfckfckfcjebjebmhepkhrnksolsolsolrmjqlipkhpkhojgojgpkhrmjrmipkgmhdjeakfbmhdlgcfa]c^Zgb^lgcnielgchc_fa]id`nieojfniemhdlgcqlhtokvqmxsoxsoytp{vr}xtzuqwrnsnjrmirmirmisnjtokuplvqmupltoktoktoksnjtokpkgniesnjzuq{vrtokkfbc^Ze`\e`\fa]hc_jeakfbnievqmwrntokpkgojfojfsnjytpytqsnj}xt{vr~yu{vrwrnsnjsnjojgpkhqliojgkfchc`hc`idakfbmhdpkgqlhrmisnjtokupltokqlhpkgrmivqmwrnuplrminiejeafa]d_[e`\gb^id`kfbid`id`hc_fa]b]Y`[We`\kfbkfblgcniepkgojfnieniepkgsnjqlhniejeaid`lgcsnjxsovqnqlilgdfa^c^[gb_mheojgpkhrmjtolrmjniflgdlgdnifqliqlipkhniflgdlgdlgdkfckfbnieojfojfsnjxsovqmpkgid`kfbojfrmipkgkfbid`id`pkgrmisnjtoktoktoksnjqlhrmisnjtoktoktoktokrmiqlhsnjrmiqlhniemhdniepkgrmirmisnjrmipkgojfqlhrmirminiemhdmhdnieojgojgpkhqliwspzvs{xÇ~{{xyuruqnsolplimifjfciebjfckgdnifojgnjglhejfcgc`gb_hc`jebkfcnifmhenifpkhrmipkgkfbgb^id`jeaid`fa]gb^kfbmhdmhdjeagb^d_[e`\gb^gb^gb^hc_jearmiwrnwrnxsowrnxsoytpytpvqmrmipkgpkgojfojfniepkgqlhpkgojfojfqlhtokupluplnieid`lgcsnjuplqifia^b]Ygb^hc_gb^hc_hc_kfbojfwrnuplqlhmhdlgckfbnieuplvqnojfxsowrnytpwrntokqlhrmiqlirmjpkhkfce`]d_\fa^hc`mhdpkgqlhlgcjeaojfsnjtokniemhdlgclgcnieojfojfnieid`fa]b]Ya\Xc^Zfa]jealgckfbkfbkfbid`fa]e`\jeaojfjeakfblgcniemhdmhdniepkgupltokpkgkfbjeamhdsnjxsoupmupmtolojgidaidamheojgojgojgojgnifkfcjeblgdmheojgojgojgnifnifmhelgdkfchc_nieqlhojfpkgsnjpkgjeae`\id`ojfrmiojfjeakfbojfsnjqlhojfpkgsnjvqmwrnvqmwrnwrnwrnvqmwrnwrnsnjniemhdniemhdkfbid`id`id`jealgcniepkgojfnieojfqlhrmipkgpkgqlhqlhqlipkhpkhpkhvrozvs~zwÄ|y}yvxtqtpmsolvroqmjlheiebiebkgdmhenifiebfb_a]Z]YV\WT^YVb]Ze`]lgdlgdlgdnifojfmhdkfbid`mhdniemhdkfblgcojfpkgniejeaid`gb^fa]d_[b]Ya\Xb]Yhc_rmiwrnvqmupltoksnjsnjrmiojfmhdmhdojfojfmhdkfbkfblgclgclgcniermitokuplvqmqlhlgckfbnienieldag_\gb^lgcmhdlgckfbjeamhdrmitoksnjpkgojfniejeajeamhdsnkpkgwrnsnjtoksnjrmipkgrmisnktolrmjlgde`]b]Zd_\fa^id`qlhqlhhc_fa]mhdqlhpkgid`gb^fa]hc_kfbnieojfniejebidagb_d_\d_[fa]jeamhdlgckfbjeajeakf`lgaojdqlfojfnienieojfnienieojfqlhupltokqlhmhdmhdpkgtokvqmxspxspytqtolmhelgdnifnifmhelgdkfckfckfclgdmheniflgdkfckfclgdlgdkfchc`fa^fa]mhdpkgmhdlgcmhdmhdjeaid`jeaojfsnjrmiojfpkgtokvqmrmimhdlgcojfsnjuplvqmytpxsovqmuplwrnvqmniefa]c^Ze`\gb^gb^gb^hc_id`hc_gb^jeamhdnienieojfpkgqlhqlhrmisnjrmiqlipkhpkhojgtolvqnwspyurwspuqntpmtpmuqnrnknjgkgdiebiebiebiebiebfb_`\YZVSXSPYTQ^YVb]Zkfckfclgdmhelgckfblgcmhdpkgqlhqlhpkgrmitoksnjqlhnienielgcid`e`\c^Zc^Zc^Zjeasnjwrnuplsnjqlhniemhdlgcid`gb^jeamhdniemhdlgckfbkfbkfbmhdojfqlhqlhojfrmirmiqlhpkgqifogdnfcmebnieqlhrmiojfmhdkfblgcpkgqlhqlhpkgqlhqlhmhdid`jeapkgtokzuqsnjtoksnjsnjrmitoktolupmupmpkhhc`d_\c^[e`]fa]pkgsnjlgcjeapkgqlhmhdhc_d_[c^Zgb^ojftoksnjpkgpkhqlipkhmhejeajealgcniepkgmhdkfblgcojdqlfrmgqlfqlhpkgojfojfojfnienieojfqlhqlhpkgnieniermitoktokxspytq{vszurwrovqnupmrmjrmjojgmhelgdmhenifmhelgdlgdkfcjebkfckfcidafa^e`]gb^lgcniekfbid`kfbojfpkgrminieniesnjvqmupluplvqmytpsnjmhdid`jealgcojfqlhqlhojfnieojfrmipkgid`b]Y`[Wb]Yd_[gb^jeanieniemhdid`jeamhdnieojfojfpkgpkgqlhsnjsnjrmipkhojgojgojgpkhqliqmjrnkrnkrnktpmvrornksolsolqmjnjglhejfciebkgdiebea^_[X\WT\WT`[Xc^[jebkfcmhemhekfbjealgcojfpkgqlhrmisnjvqmxsoxsovqmsnjsnjrminiekfbkfblgckfbojfuplwrntokrmiojflgclgcjeafa]d_[gb^jeamhdnienieniemhdnieojfqlhqlhmhdid`hc_lgcpkgpkgphenfcogdphetokwrnvqmtokrmiojfniepkgqlhrmipkgqlhsnjqlhmhdlgclgcvqm{vrvqmwrnwrnwrnuplwrnvqnvqnvqnsnkmhehc`gb_jebmhdsnjuplqlhpkgsnjrmilgcjeagb^fa]kfbrmiwrnvqmtokupmxspytqvqnrmipkgqlhqlhuplrmiojfojfrmgtoisnhqlfpkgojfojfpkgqlhpkgojfnielgcnieniemhdojfrmisnjsnjtolvqnytqzurxspytqzurytqxspupmqlipkhpkhpkhnifkfcmhemhenifojgojgmhelgdlgdmhdniemhdkfbjeamhdrmiuplwrnrmiqlhtokwrnvqmuplxsozuqtokmhdhc_gb^gb^hc_jeaid`gb^hc_kfbniemhdid`e`\gb^hc_id`lgcpkgsnjrmipkgkfbkfbkfblgcmhdnienieniepkgrmisnjqlhojgojgojgnifnifnifpkhqlipkhpkhqmjsolsolvroxtqvrotpmrnkpliokhokhnjglheiebhc`hc`jebkfcnifnifpkhpkhojfmhdnieojfmhdnienieqlhuplxsowrnuplsnjupltokqlhqlhrmisnjqlhqlhuplvqmtokqlhmhdkfbmhdlgcgb^d_[fa]id`kfblgcniepkgpkgqlhrmisnjsnjpkglgcgb^id`mebldakc`kc`nfcphevqmytpytpxsowrnuplsnjuplupluplrmiojfrmitokqlhnieid`tok{vrwrnzuqzuqzuqxsoytpzrpwrovqnupmpkhkfclgdqliwrnwrnuplrmiqlhrmipkgmhdkfbkfblgcojfsnjuplvqmvqmvqn{vs}xu|wtxsovqmvqmuplwrnuplrmiqlhrmgtoirmgpkepkgojfpkgsnjupluplrmipkgid`lgcniemhdojfrmisnjsnjrmjsnktolpkhjebmhewro}xuytqvqnsnksnktolsnkqliniflgdnifpkhsnksnkrmjsnkupmuplrminiekfbkfbniesnjvqmytpvqmuplwrnuplrmitokzuqzuqtokmhdhc_fa]e`\e`\gb^id`hc_id`mhdojfmhdjeaid`nieojfqlhsnjupluplqlhmhdjeahc_fa]gb^jeakfblgckfbnieqlhrmiqlhojgnifnifnifmhenifpkhqliojgmhemifokhrnkvroxtqwspuqntpmtpmtpmrnkqmjqmjqmjsnktolupmupmsnksnkupmvqnvqmsnjqlhpkgkfbjeajeamhdqlhtoksnjpkgojfrmisnjrmirmitoksnjpkgrmitokuplsnjojfkfbjeaniemhdid`fa]hc_jeajeajeakfbqlhrmisnjtokvqmwrnuplrmiojfmhdldaia^h`]jb_mebphermivqmwrnxsoxsowrnvqmxsoytpytptokojfrmitokrminiehc_umj~vszro{spwolumjtliwolzpnwolxpmyqnxpnumkvnlzrpzuqytpwrnsnjpkgniemhdkfbojgrmjtolrmjpkhojgpkhrmjupl{vr~yu{vrwrnuplvqmvqmuplupltoksnjrmiqlhojfniepkhojgpkhtolxspytqwrnuplpkglgckfbkfbniesnjvqmtokpkgqlhojffa]`[Wc^Zkfbrmipkgpkgqlhsnjupltokrmiojfmhdmhdojfrmitoksnjtokvqmvqmqlhojfojfmhdojftokwrnuplsnjsnjuplsnjnieojfuplwrnqlhjeafa]e`\b]Yb]Yfa]ldamebnfcogdpkgqlhpkgniepkgrmitoktokvnktliqifnfckfbid`fa]d_[d_[fa]id`lgcojfmhdlgcniepkgnielgckfbkgdnjgokhmiflhenjgokhokhxtqxtqwspuqnsoltpmuqnvrouqnvrovrovroxtq{wt{wtyurzwrzwrxupvsnvsnxupurmqnilgckfbid`jealgcnielgcid`gb^niermirmisnjwrnvqmqlhpkgsnjvqmtokojfmhdmhdkfblgckfbkfblgcmhdlgcmhdojfpkgqlhsnjuplwrnytpwrntokwrnuplojfid`hc_lgcmhdkfbe`\ojfytp{vrzuq{vrzuqwrnxsoytpvqmsnjrmitokqlhmhdkc`wol~vsyqnxpmtliqifoecqgesigsigumjyqnyqoxpnxpnzrp{vrytpvqmrmiojfniemhdkfbojgsnktolrmjojgmhenifojgtokxsoytpuplqlhqlhrmitokuplsnjrmiqlhpkgojfniemhdnifnifpkhtolwroxspxsoxsouplniejeakfbpkgvqmvqmqlhpkgqlhmhde`\b]Ygb^mhdnielgcojfqlhpkgpkgqlhpkgmhdkfbjeakfbmhdnieniepkgtokqlhniemhdmhdlgcniesnjvqmtoksnjsnjrminieid`id`mhdnieid`d_[c^Zd_[a\X`[Wc^Zkc`ldaldaldalgcnieojfojfojfqlhtokuplvnktliqifnfcjeahc_e`\d_[d_[gb^kfbmhdojflgcid`id`mhdojfniemhdjfclhelhejfckgdnjgrnktpmuqnvrouqntpmsoltpmuqnuqnvrovrouqnuqnxtq{wt{wtzvs{xs{xsxupurmtqlurmurmspkrmiqlhnielgckfblgckfbjeaid`niermiqlhrmiupltokpkgqlhrmitoksnjpkgpkgqlhojfnienienienieojfpkgqlhqlhsnjrmipkgnieojfrmitoksnjtokqlhlgcgb^hc_kfblgcjeafa]nietokvqmvqmwrnuplsnjrmiuplwrnvqmwrnxsouplpkgldarmiytpumjtliqifogdkc`ldakc`nfcrjgwol{sq{sqxspvqnzuqxsosnjojfmhdmhdmhdlgcojgqlirmjpkhniflgdlgdlgdqlhsnjrminielgcnieqlhsnjvqmtokrmipkgojfniemhdlgcjebkfcniermiuplwrnytp{vrxsoqlhmhdnieqlhvqmuplpkgpkgsnjpkggb^fa]niermiqlhojftoktokojfkfbmhdmhdkfbhc_gb^hc_jeaid`id`lgcpkgojfniepkgpkgnienieqlhrmisnjtoksnjojfid`e`\d_[fa]hc_e`\a\Xc^Zfa]c^Za\Xc^Zia^kc`kfbjeajeakfblgcmhdkfbnieqlhsnjsnjrmiqifogdlgcjeahc_gb^hc_kfbojfrmipkglgcfa]d_[jeapkgqlhojfnjgokhnjglhekgdnjgqmjrnkpliqmjrnksoltpmuqnuqntpmsolqmjplirnkuqnvrovrouqnxupxupwtovsnurmurmurmurmwrnwrntokpkgmhdmhdnienieojfqlhsnjrmirmirmiqlhojfqlhpkgrmirmiqlhsnjupltokojfqlhrmiqlhqlhtokuplupluplqlhkfbgb^gb^kfbnieojfniekfbhc_fa]gb^id`id`id`jeaojfsnjtoktoktoksnjpkglgcpkgsnjrmirmirmipkglgcid`pkgvqmrjgqifpheogdldaldakc`mebpheumj{sq}usxsptolvqmsnjniekfbkfblgcmhdlgclgdnifojgnifnifnifnifmheojfojfmhdkfblgcpkgsnjtokupltoksnjpkgmhdkfbkfbjeagb_gb_jeanieqlhtokwrnzuqxsouplsnjqlhojfqlhrmipkgrmiwrntokid`hc_rmiytpwrnuplwrnvqmojfid`hc_id`id`fa]fa]hc_jeakfbjeakfbmhdmhdpkgtokuplpkgojfqlhpkgrmisnjrmilgcgb^e`\e`\d_[gb^e`\d_[fa]hc_e`\c^Ze`\jb_mebnienielgckfbjeahc_gb^hc_kfbojfqlhqlhrjgphemhdmhdlgclgcnieqlhtokvqmsnjojfhc_d_[id`rmisnjpkgplirnksolqmjpliokhnjglhelhemifokhrnkuqnxtqwspuqnnjgkgdkgdnjgplinjglhekgdolgqnitqlwtoxupwtovsnvsnwrnvqmuplrmiqlhqlhsnjuplvqmvqmvqmupltokqlhojfnieojfmhdnieqlhrmiuplvqmtokrmivqmwrntokrmisnjupluplsnjniegb^d_[fa]id`kfbkfbjeahc_hc_jeajeajeajeakfbpkgsnjuplupltoktoksnjqlhlgcojfojfjeafa]e`\e`\e`\hc_pkgvqmojfniemhdmhdldaldamebldalgcpkgvqnytqvqnqlipkhnifjebhc`idalgdmhelgdjeakfbkfblgcniepkgqlhqlhqlhpkgniemhdpkgtoktokrmiqlhrmiqlhojflgcjeaid`id`e`\d_[e`\jeamhdojfrmitoktoksnjrmipkgmhdojfqlipkhuplxsosnjhc_gb^rmiytpwrntoktokrminieid`fa]fa]hc_hc_hc_id`lgcnienienieniemhdqlhupltokojfojfrmirmiojfpkgmhdid`gb^hc_hc_e`\e`\fa]gb^id`id`fa]fa]lgcpheqifojfojfniemhdlgckfbe`\e`\gb^kfbojfqlhskhrjgmhdnieojfpkgrmiuplwrnwrnvqmtoknieid`lgcsnjtokojfnifpkhsnktolsnkqlinifkfckfckfckfcniftolxspytqxspniflgdjeblgdmhejebidahc`mhdmhdpkgtokvqmwrnxsoytptoksnjqlhpkgojfqlhtokvqmytpxsoxsowrnvqmtokpkgniejeaid`kfbojfrmitoktokqlhsnjxsozuquplpkgpkgsnjtokojfid`d_[d_[hc_lgclgckfbid`jeamhdpkgpkgnienieqlhrmitokvqmvqmupltoksnjrmisnjtokrmijeab]Y`[Wc^Ze`\hc_pkguplnielgclgcmhdmebnfcldakc`id`lgcqlisnkqliojgmhelgdjebidakfcmhemhemhehc_hc_id`id`kfbniepkgqlhtoktokrmiqlhsnjuplsnjpkgmhdnieojfojfmhdlgclgclgcfa]d_[d_[id`lgclgclgcnielgcjeaid`jeamhdsnjvqntolvqmuplmhdd_[e`\nieqlhojfojfnienieojfniejeaid`jeamhdkfbkfblgcojfqlhqlhqlhojfqlhrminieid`kfbojfojfjeajeaid`gb^hc_jeajeahc_e`\gb^id`kfbjeahc_kfbrmivnkumjpkgmhdmhdpkgrmisnjjeaid`id`lgcojfqlhskhrjgniepkgrmisnjtokwrnwrnvqmwrnvqmrminiepkgsnjrminiejeblgdojgqlirmjpkhmhekfcidahc`fa^gb_lgdrmjvqnvqnsnkpkhmhelgdkfckfckfclgdojfniemhdmhdojfrmiuplwrnrmiojflgckfbjealgcojfqlhuplupltokuplwrnuplqlhmhdfa]fa]jeaojfqlhrmiqlhnielgcrmiuplrmimhdmhdqlhuplkfbfa]b]Yc^Zid`lgclgckfbid`kfbojfrmisnjqlhrmitoksnjtokuplvqmvqmupltoktokvqmxsowrnpkgid`gb^jeaniemhdojfuplmhdlgckfbniemhdnielgclgcmhdpkgqlipkhojgojgojgojgojgnifnifojgnifmhejeakfbkfbhc_gb^hc_lgcojfuplupltokrmirmitoksnjpkgmhdmhdmhdnienieojfojfojfjeahc_id`niepkgmhdjeajeagb^c^Zc^[fa^kfcrmjvqntolsnjqlhlgcfa]e`\hc_kfbkfbmhdmhdojfqlhqlhpkgojfojfojfmhdkfbkfbmhdpkgrmisnjqlhqlhniehc_d_[gb^jeaid`gb^id`jeajealgcmhdmhdkfbid`kfbmhdmhdkfbhc_kfbtokvqmtokqlhnieojfsnjvqmwrnqlhpkgpkgqlhpkgojfnieojfnieqlhrmirmisnjvqmvqmtokupltokrmipkgrmisnjpkglgcidajebmheojgpkhnifkfcidaidaidahc`gb_idanifrmjsnktolrmjojgkfcjebkfcnifpkhpkgpkgniekfbjealgcojfpkgmhdlgcjeaid`hc_hc_id`kfbnienieojfqlhtokuplojfid`d_[d_[jeapkgqlhpkgnielgcid`mhdpkgojflgclgcpkguplnieid`fa]gb^kfblgclgckfbid`jeamhdpkgqlhrmisnjsnjsnjrmisnjuplvqmvqmvqmwrnvqmxsoxsouplqlhpkgrmiuplsnjpkgvqmnielgckfbnienieojfrmirmitokwrnupmqlipkhsnkrmjsnksnkrmjqlipkhniflgdniepkgpkgkfbfa]fa]jeaniermisnjsnjqlhpkgrmisnjrmimhdkfbjeakfbmhdojfojfojfmhdlgcojftoktokojfjeaid`gb^e`\d_\e`]gb_mheqlipkhnieojfojfkfbfa]d_[hc_nieojfpkgqlhpkgqlhsnjsnjrminiemhdlgckfblgcnieqlhrmiojfniekfbe`\c^Zgb^id`e`\hc_jealgcojfpkgpkgojfmhdmhdojfojfniejeafa]id`qlhtoktoksnjrmirmitokupluplvqmvqmvqmuplqlhmhdlgcmhdmhdojfpkgpkgqlhsnjsnjqlhsnjrmipkgqlhsnjsnjojfjeaidajeblgdojgpkhnifkfcidajebmhenifmhemhenifqlisnkpkhqlinifjebhc`kfcnifpkhnieqlhqlhlgcid`jeajeaid`id`id`kfblgcjeagb^fa]gb^hc_id`jealgcqlhrmilgcd_[c^Zd_[kfbpkgpkgojfnielgcmhdojfqlhqlhnielgcojfsnjtokqlhnieojfojfnielgckfbjeajeakfbmhdpkgsnjsnjsnjsnjpkgpkgsnjvqmvqmwrnwrnuplwrnxsowrnvqmvqmwrnxsowrntokuplpkgmhdmhdlgcqlhupltokvqmzuq{vrytqupmsnksnkupmtolupmvqntolqlinifmhelgcupltoklgcjeaid`fa]fa]kfbpkgsnjpkgniepkgrmisnjmhdkfbjeamhdpkgpkgojfniekfbkfbpkgupluplsnjpkglgchc_e`\e`]fa^hc`kfclgdidagb^niepkglgcid`kfbkfbgb^fa]id`niepkgpkgpkgqlhsnjnielgckfbkfbkfbjeajealgcnieniehc_c^Zgb^jeagb^gb^id`lgcqlhojfojfrmiqlhqlhqlhqlhrmiqlhmhdhc_id`lgcpkgrmiuplvqmsnjpkgojfpkgpkgojfqlhsnjqlhojfmhdjeajealgcmhdkfbjeajealgcmhdpkgpkgpkgpkgqlhqlhmhdid`hc`gb_jebojgpkhmhekfckfcmhesnktolrmjsnkupmupmupmsnkojgjebidalgdojgniflgdjeamhdojfniejeagb^e`\c^Zb]Ye`\jeaniemhdjeaid`jeafa]b]Yb]Yfa]jeahc_e`\b]Ye`]fa^idamhemhelgdkfclgdmheojgniflgdlgdkfcjebmheojfpkgqlhqlhqlhrmiojflgchc_kfbnieojfqlhtokupltokuplrmiojfojfqlhsnjsnjqlhqlhsnjrmisnjxso|ws}xt~yu}xtvqmwrnrmiojfniemhdqlhuplwrnxso{vr{vrytqupmtoltolupmsnkrmjrmjrmjpkhnifmhejearmirmilgcjeaid`fa]fa]gb^lgcpkgojfojfojfnielgcjeaid`id`lgcpkgrmiqlhojfid`id`mhdsnjtokrmiojfkfbgb^d_[e`]hc`jeblgdkfcfa^fa]kfbmhdlgckfblgcid`d_[c^Zfa]kfbmhdmhdmhdmhdnieojfojfnienielgcjeaid`id`lgcnieid`c^Zgb^lgckfbid`kfbmhdpkglgcjeamhdniermitoktoktokqlhmhdhc_id`mhdojfrmiuplsnjojfkfbkfblgchc_fa]gb^jeajeajeajeahc_id`kfbkfbhc_fa]hc_lgcojfojfojfnielgclgclgcjeahc_fa^fa^hc`lgdojgniflgdkfcpkhupmwrowrowrovqntoltolqliniflgdlgdnifojgmhelgdid`kfblgckfbhc_e`\c^Zb]Ya\Xe`\jeaniemhdjeagb^fa]b]Y`[W_ZVc^Zfa]e`\d_[c^Zgb_fa^fa^gb_gb_gb_hc`idagb_kfclgdmhenifmhejebkfclgclgcmhdmhdojfqlhpkgmhdlgcpkgsnjrmiojfpkgtokwrnuplrminiemhdojfpkgpkgojflgcniemhdmhdrmiwrnzuq}xt|wsuplwrnsnjqlhpkgnieskhumjwolxpmxsozuqxspvqntoltolrmjojgmhemhenifmhemhelgdhc_lgclgcid`id`hc_gb^gb^e`\hc_id`kfblgcmhdkfbhc_hc_id`id`jeaniesnjsnjqlhkfbjeamhdqlhqlhojfmhdid`gb^c^Zd_[id`mhdojfmhegb_d_[fa]hc_id`kfblgcid`e`\e`\hc_kfbmhdniemhdlgclgcojfrmisnjrmiojflgcjeajeakfbojflgcfa]id`nieniekfbmhdmhdojfjead_[d_[gb^ojftoksnjqlhniejeahc_lgcqlhqlhtokuplpkgkfbid`ldaldaf^[bZW`[Wb]Yc^Zd_[e`\c^Zd_[gb^id`gb^d_[e`\id`mhdmhdmhdlgcjeaid`hc_gb^fa]e`]fa^hc`idakfclgdjebhc`mhermjvqnvqnvqnqlinifnifniflgdlgdojgpkhojgmhemhemhdnieojfmhdlgckfbjeaid`e`\hc_lgcojfojfniekfbgb^d_[d_[e`\hc_jeaid`id`kfbmhekfcidagb_gb_gb_hc`idakfclgdlgdmheqliqlipkhqlimhdlgckfbmhdpkgrmirmipkgpkgrmisnjqlhojfpkgsnjuplpkglgcjeakfbmhdmhdkfbjeahc_kfbid`gb^hc_lgcpkguplwrnpkgtokqlhpkgqlhnieqifphepheqifqlhsnjsnkqlipkhqlinifkfcidajebkfckfckfclgdjeahc_e`\fa]id`kfbkfbjeahc_fa]d_[e`\gb^id`kfbkfbid`jeajeajealgcqlhtoktokpkgniepkgpkgnielgcid`fa]fa]b]Yb]Ygb^lgcpkgpkhmhefa]e`\d_[fa]hc_jeakfbjeakfblgcnieojfpkgpkgmhdjeakfbrmiwrnwrnsnjpkgojfojfjeanieniekfbkfblgckfbid`kfbkfbnieid`a\X]XT_ZVhc_pkgpkgpkgpkgnielgcojfsnjsnjuplrmimhdid`id`mebmebg_\c[X`[W`[W^YU^YU^YU]XT\WS`[We`\gb^e`\c^Zc^Zd_[jeakfbkfbkfbjeahc_gb^fa]jeblgdlgdjebidaidagb_d_\fa^kfcojgqlipkhjebe`]fa^hc`gb_hc`lgdmhekfckfcmheqlhrmisnjtoktokupltoksnjmhdnienieniepkgsnjrminiekfblgcojfrmisnjqlhqlhqlhqlipkhojgnifmhemhenifnifrmjrmjojgnifsnkupmvqnxsprmiojfmhdmhdojfqlhqlhpkgojfnienieojfqlhrmipkgniefa]d_[e`\id`kfbhc_e`\c^Zfa]jeahc_e`\d_[e`\id`niermikfbojfpherjgtlirjgogdldah`]h`]h`]jb_jb`jb`idajeblgckfbkfbjeaid`id`jealgcmhegb_d_\gb_lgdqliqliojgkfbgb^d_[d_[e`\fa]jeamhdlgcniemhdjeakfbojfsnjupltolsnksnjqlhlgcjeaid`fa]gb^a\X`[Wc^Zgb^lgcqlhqlhmhdkfbid`hc_gb^id`jealgcmhdmhdmhdmhdojfojfkfbfa]gb^ojfxsoytpvqmsnjsnjsnjjealgcpkgpkglgcgb^e`\e`\gb^id`nielgcd_[]XT]XTe`\mhdnieqlhtokrmipkgojfqlhtokrmimhdhc_fa]hc_ldaldah`]d\Y`[W`[W]XT[VR[VRYTPXSO[VR`[Wc^Zc^Za\X_ZV]XTe`\e`\gb^hc_id`id`id`hc_pkhsnksnkmhehc`gb_fa^c^[d_\hc`kfclgdlgdgb_c^[d_\c^[a\Yb]Ze`]gb_fa^hc`kfcqlhsnjuplwrnxsoytpxsowrnrmiqlhniemhdojfsnjsnjpkgnieojfpkgrmisnjrmiqlhqlhrmjrmjsnkrmjrmjsnktoltoltolsnkojgojgrmjtoltolupmuplqlhnielgclgcmhdlgckfbjeaid`id`mhdqlhqlhlgcgb^`[W_ZVa\Xe`\fa]c^Z_ZV]XTd_[id`jeagb^fa]fa]id`nieojfhc_niepherjgumjskhphekc`f^[e]Zd\Yc[XbZXbZXa\Yd_\id`jeakfbjeagb^e`\gb^jeamhehc`gb_jebnifrmjtolpkhlgchc_fa]fa]e`\d_[gb^lgcpkgpkgojflgckfblgcqlhtoktolsnkrmipkglgckfblgcid`hc_a\X^YU_ZVa\Xgb^nieqlhrmirmiqlhmhdjeahc_id`jeamhdlgckfbjeajeakfbhc_c^Ze`\kfbrmiupltokpkgpkgrmimhdkfbpkgsnjmhde`\c^Zd_[d_[fa]mhdmhdgb^b]Y`[We`\lgckfbkfblgcmhdmhdojfrmisnjojfid`fa]fa]hc_kc`ldag_\c[X`[W`[W^YU]XT]XT[VR[VR[VR[VR^YU`[Wa\X`[W`[Wc^Zb]Yb]Yd_[fa]hc_jealgcrmjupmtolnifhc`fa^fa^e`]fa^idakfclgdlgdjebfa^fa^c^[`[X_ZWb]Zd_\e`]gb_idaojfrmiuplwrnxsoxsoxsovqmrmipkgmhdmhdojfpkgniekfbnieniemhdmhdnienieniemhdqlirmjsnkrmjrmjsnkupmvqnvqnsnkmhekfcmheojgojgqlitokpkgmhdkfbjeahc_hc_gb^fa]fa]id`mhdnielgchc_e`\a\Xa\Xa\Xa\X`[W^YU]XT\WSc^Zhc_jeahc_hc_hc_jeamhdid`id`pkgrjgtlivnkskhqifldajb_jb_jb_ia^e][bZX`[Xa\Yfa]gb^id`hc_e`\c^Ze`\id`kfcjebkfckfcjebnifrmjpkhlgchc_e`\fa]d_[b]Ye`\lgcsnjpkgniemhdlgckfbniermirmjojgnifmhelgdnifojfmhdhc_a\X^YU_ZV`[We`\kfbojfojfsnjtokpkgkfbid`hc_hc_kfblgckfbhc_gb^hc_gb^d_[e`\e`\hc_lgcmhdjeajeamhdmhdjeamhdojfjeafa]e`\d_[c^Zd_[jeajeahc_fa]c^Zfa]nieid`gb^hc_jealgcpkgsnjpkgkfbgb^gb^jb_kc`mebogdjb_e]Zd\Ye]Zd_[d_[c^Z`[W_ZV]XT\WS_ZVb]Ye`\gb^hc_id`gb^fa]e`\fa]gb^kfbojfrmjtolsnknifhc`fa^gb_hc`jebmhenifmhenifnifkfcidae`]c^[a\Yb]Ze`]gb_gb_fa^jeamhdqlhsnjsnjtoktoksnjqlhniemhdniepkgniekfbgb^kfbkfbjeaid`id`jeajeajeamhepkhqlipkhnifojgqlirmjwrotolmheidakfclgdmheojgpkgmhdjeaid`hc_gb^gb^hc_fa]fa]gb^id`jeahc_fa]e`\fa]gb^fa]a\X]XT^YU_ZV_ZVc^Zgb^hc_fa]gb^gb^hc_kfbgb^kfbrmiumjumjvnkskhqifnfcmebogdrjgrjgmecg_]b]Zb]Zc^Ze`\gb^gb^d_[c^Zgb^kfbkfclgdojgkfcfa^idapkhqlilgcfa]b]Yb]Ya\X`[Wfa]ojftokpkgmhdnieniekfblgcojfpkhlgdjebjeblgdpkhrmiojfhc_b]Y`[Wa\Xc^Zfa]kfbniejeaojfrmiojfkfbjeaid`hc_jealgckfbgb^e`\fa]fa]fa]d_[`[W_ZVd_[gb^e`\e`\hc_kfbgb^hc_hc_e`\e`\fa]c^Zc^Zc^Zhc_gb^fa]fa]c^Ze`\pkgmhdmhdpkgrmiqlhojfojflgchc_fa]id`mebldanfcqifphejb_g_\ia^jeakfbjeafa]a\X_ZV_ZVc^Zhc_kfblgcnieqlhojfmhdkfbhc_gb^kfbojfsnktolsnkojgkfcidajeblgdmheqlipkhnifqliqlinifkfcfa^d_\b]Zb]Ze`]gb_e`]b]Zb]Yfa]jealgcmhdnieojfojfojflgckfbniepkgmhdid`fa]fa]gb^gb^fa]fa]fa]fa]fa]hc`lgdojgnifkfcjebkfckfctolsnkpkhnifnifmhejebjebkfbid`hc_hc_hc_gb^hc_jeaid`e`\c^Ze`\gb^hc_fa]fa]id`lgcid`b]Y^YU_ZVb]Yb]Yd_[fa]fa]d_[fa]hc_jeamhdlgckfctolrmjsnkpkhlgdhc`idamhermjupmsnknifjebe`]b]Za\Xfa]e`\c^Zhc_jeajeamhdojfojfpkgojfjeaid`nieqlhojfid`e`\c^Z`[Wc^Zjeaojfqlhpkgniemhdmhenifojgnifnhhlffkeelffqigskirjhogejb`f^\d\Zg_]hc_jeakfbmhdid`mhdniekfbjealgcniemhdnieniejeae`\f^[ia^ia^f^[g_\ia^ia^jb_gb_d_\e`]idakfchc`a\Ya\Yhc_id`fa]gb^_ZV]XTa\Xc^Zb]Yb]Yd_[kfbtokuplupltokrmiojfkfbid`gb^fa]fa]jeaniepkgpkgpkgphepheogdogdqifqifogdmebhc_fa]fa]hc_jeajeakfbmhdojfojfniemhdkfbid`jeamhdojfpkgrmitokrminieniepkgqlhpkgnienieqlhtoksnjqlhkfbgb^c^Za\Xb]Yc^Zb]Y`[Wb]Ye`\hc_jeajeaid`hc_gb^mhekfcjebkfckfcjebgb_c^[d_\c^[c^[e`]gb_gb_fa^d_\hc_id`id`id`id`hc_fa]d_[lgcmhdmhdmhdmhdnielgcjeajeahc_gb^gb^gb^fa]gb^hc_gb^hc_fa]gb^hc_fa]c^Zd_[jeapkgmhdc^Z]XT`[We`\id`hc_c^Za\Xe`\gb^fa]id`ojfpkglgdtolqliqlimhegb_d_\gb_nifrmjupmupmsnkniffa^`[Xb]Ye`\e`\e`\id`kfblgcojftokpkgnieniemhdmhdpkgqlhqlhlgcid`e`\b]Ye`\mhdrmitoksnjqlhpkgojgnifnifnifkeekeelffmggskitljrjhnfdldbjb`ia_ldblgclgckfblgclgcnieojflgclgcnieojfmhdnielgchc_e`\ia^kc`jb_g_\h`]ldanfcmebfa^a\Ye`]nifojgkfce`]e`]lgcojfniemhd`[W\WS_ZVa\Xb]Yb]Yfa]ojfvqmuplupltokqlhkfbgb^fa]gb^gb^hc_kfbmhdnieojfojfpheqifskhumjumjtlirjgqifjeahc_hc_jeakfbjeajealgcmhdmhdmhdniemhdlgckfblgcnieojfqlhtoksnjrmipkgojfnienieniemhdmhdojfqlhrminielgcid`gb^e`\d_[b]Ya\X`[Wfa]kfbkfbhc_gb^gb^gb^jebjebidahc`gb_fa^e`]d_\e`]c^[a\Yc^[fa^gb_e`]c^[fa]fa]gb^gb^id`jeajeaid`id`jealgcojfqlhsnjqlhojfkfbid`gb^gb^gb^fa]fa]gb^hc_id`hc_hc_id`e`\b]Yb]Yjeaniejeaa\X_ZVd_[jeaniemhdhc_e`\gb^id`hc_kfbpkgpkgnifvqnrmjrmjlgde`]b]Zgb_nifpkhsnkupmvqnrmjjeba\Ye`\fa]fa]hc_kfblgcmhdqlhuplnielgcnieojfniepkgqlhrmiojfmhdid`e`\hc_pkguplupltoksnjrminifjebjeblgdlgdlgdnifpkhtljumkskiogekcakcaldaphepkgnielgclgcpkgqlhpkgnieojfqlhpkglgcmhdid`fa]gb^mebpheogdnfcldanfcogdmebe`]_ZWd_\qlisnknifjebjebnieuplwrntokd_[^YU`[Wb]Yc^Zc^Zfa]ojftokrmisnjuplrmikfbhc_hc_id`hc_id`lgcojfojfmhdlgcmebqifvnkyqnyqnwolumjtlilgcjeajeakfbkfbid`id^je_jeajealgcniepkgniekfbid`id`jealgcmhdojfojfmhdjeafa]id`kfbid`hc_jeaniermipkgpkgojfmhdkfbhc_fa]e`\b]Yhc_kfbkfbjeajeajeahc_id`kfblgckfbhc_fa]fa]gb^gb^d_[b]Yc^Zgb^jeaid`gb^fa]fa]fa]gb^id`lgcniemhdhc_jeamhdpkgtokvqmtokrmilgcjeahc_gb^gb^gb^gb^gb^hc_id`id`id`id`fa]b]Yb]Yjeakfbe`\_ZVa\Xgb^mhdqlhpkgmhdjeakfbmhdmhdojfqlhojfojgvqnsnktolmhee`]c^[hc`nifojgpkhrmjupmtolnifgb_hc_gb^gb^jeanienienieojfniehc_hc_nieojfmhdniepkgqlhpkgqlhnieid`kfbqlhtoksnjrmisnjrmimhegb_fa^jebnifojgpkhqlitljtljskiphfia_h`^jb_ogdpkgpkgojfojfqlhqlhpkgpkgqlhqlhniejeajeafa]e`\jearjgvnkwolwoltliphekc`ia^d_\`[Xc^[mhesnkojgnifnifnieuplzuqxsoid`c^Zd_[gb^id`jeaid`ojfpkgojfojfpkgpkgniekfbjeajeahc_id`mhdqlhpkgkfbhc_jb_nfctliwolwolumjskhskhlgckfbjeakfbkfbid`id^id^hc_gb^hc_lgcojfniejeafa]b]Yc^Zc^Zc^Ze`\gb^e`\a\X^YUb]Yfa]fa]e`\gb^lgcojfnienieojfojfnielgckfbkfbhc_id`id`id`mhdqlhojfid`id`kfbojfpkgniekfbjeajeajeahc_e`\fa]jeanieojfniejeajeaid`hc_id`kfbmhdlgchc_jeamhdpkgtokupltoksnjlgcjeahc_hc_hc_id`id`id`hc_hc_fa]gb^id`gb^e`\e`\jeahc_b]Y^YUb]Yid`nieqlhqlhojfnieniepkgqlhrmisnjmhdpkhvqnqliqlimhegb_e`]jebnifojgpkhqlisnktolrmjmhekfbgb^gb^lgcqlhrmipkgniehc_a\Xc^Zlgcqlhpkgniemhdmhdojfrmiqlhmhdniepkgpkgmhdmhdojfpkglgdgb_gb_jebojgpkhqliqliqliqlirjgphekc`ia^gb^kfbojfpkgpkgqlhnienieojfojfpkgniekfbgb^gb^d_[e`\kfbskhwolzro}ur{sptlikc`h`]d_\`[Xa\Ygb_mhenifqliqliojfsnjwrnuplmhdgb^hc_lgcqlhrmimhdnielgclgchc_e`\fa]id`hc_e`\d_[fa]kfbojfojflgchc_fa]kc`mebogdrjgpicmf`jc]jc]jc]jc]jc]le_le_le_je_kf`fa]d_[g_\ldaphepheldaia^c^Zc^Zb]Y`[W`[Wb]Yb]Y_ZV]XTa\Xe`\gb^hc_jeakfblgcjeaid`id`kfbmhdlgclgclgclgcjeahc_hc_niermipkgjeafa]gb^kfbpkgrmiqlhpkgojfojfnielgcjealgcojfqlhpkgojfnielgcid`gb^gb^gb^gb^d_[hc_mhdqlhrmirmiqlhpkgkfbjeahc_id`jeakfbkfbjeaid`gb^c^Zc^Zgb^hc_gb^id`id`fa]a\X`[Wfa]lgcojfrmisnjqlhojfnienieojfqlhqlhmhdrmjvqnnifniflgdkfcidalgdlgdojgqliqliqlirmjqlipkhnieid`hc_mhdsnjvqmtokojfe`\]XT^YUid`rmitokpkgjeajeamhdqlhqlhojfojfojfkfbfa]gb^id`kfbjebhc`hc`jebmhepkhrmjsnkrmjpkhqifpheogdmebjealgcojfojfpkgqlhmhdmhdnieojfojfmhdid`gb^fa]d_[e`\hc_ogdskhwol{sp|tqxpmphekc`e`]_ZW_ZWd_\gb_jebojgqlipkgojfqlhqlhniekfblgcmhdpkgqlhkfbhc_gb^fa]a\XZUQZUQ`[Wa\X]XT\WSd_[mhdojfkfbe`\e`\gb^kc`jb_jb_jb_g`Zb[U_XR_XRd]Wd]Wf_Yg`Zib\jc]id^je_gb^e`\h`]ldaqifrjgpheogdjeaid`gb^e`\d_[d_[d_[d_[c^Ze`\hc_jealgcmhdmhdkfbgb^e`\d_[gb^id`id`id`jeaid`jeaid`id`jeakfbjeaid`d_[c^Zfa]lgcqlhsnjtokvqmvqmuplrminiemhdnieojfojfpkgpkgmhdhc_d_[b]Yc^Zd_[e`\id`ojfrmiqlhniekfbjeajeaid`hc_id`kfbmhdlgcjeajeafa]a\Xa\Xd_[fa]gb^jeahc_fa]b]Yd_[jeamhdojfsnjtokqlhniekfbid`id`lgcmhdpkgqlhtokkfbkfbmhdojfkfbjeahc_lgcniemhdlgcmhdojfpkgpkgid`hc_kfbojftoksnjlgcc^Z]XT^YUgb^ojfsnjpkgkfbjealgcojfojfniepkgniehc_c^Zd_[fa]gb^hc`gb_gb_fa^id`lgcojfojfniemhdmhdmhdnielgcmhdnieojfnieojfqlhnielgclgcnienielgcid`hc_fa]e`\d_[d_[ia^nfcrjgvnkvnkvnkrjgmebfa^a\Y`[Xb]Ze`]fa^gb_jebmhdlgckfbnieojfojfojfjeahc_jeagb^e`\d_[d_[`[WZUQYTP[VR[VRXSOYTPa\Xjeamhdhc_d_[d_[gb^ha[f_Yf_Ye^Xc\V_XR]VP^WQb[Sc\Td]Ue^Vd_Yfa[gb\hc]hc_gb^hc_kfbpherjgqifqifmhdlgckfbjeaid`gb^fa]e`\gb^hc_id`jeakfbmhdmhdlgchc_e`\d_[fa]hc_gb^gb^gb^fa]gb^id`id`gb^e`\e`\fa]fa]d_[d_[id`mhdojfsnjvqmvqmwrntokojflgcmhdniemhdnieojfmhdgb^c^Zb]Yfa]id`kfbmhdpkgrmipkgkfbhc_gb^jeaid`hc_id`kfbmhdkfbhc_hc_fa]b]Ya\Xc^Ze`\fa]jeaid`gb^d_[e`\hc_hc_id`niepkgnielgcjeahc_fa]id`lgcrojnieqlhhc_id`mhdpkgid`d_[d_[hc_id`gb^fa]id`mhdojfniehc_e`\e`\hc_mhdniefa]_ZV]XT`[We`\id`mhdpkgniekfblgcmhdmhdmhdpkgniegb^d_[e`\fa]fa]gb_hc`fa^d_\d_[gb^id`hc_gb^hc_jealgcjeakfbniepkgojfmhdojfrmimhdjeaid`kfblgcjeahc_hc_fa]e`\b]Ya\Xf^[kc`pherjgogdqifogdldahc`e`]a\Y`[Xfa^c^[_ZWb]Zid`id`hc_mhdojfqlhqlhhc_d_[gb^hc_id`e`\fa]e`\a\X^YU[VRXSOUPL[VR`[Wfa]jeaid`fa]e`\fa]f_Ye^Xe^Xf_Ye^Xb[Ub[Ue^Xf_Wg`Xg`Xg`Xe`Zfa[gb\hc]hc_gb^gb^id`mebnfcnfcogdkfbjeajealgckfbgb^d_[c^Zgb^hc_hc_gb^hc_jealgcmhdjeagb^fa]hc_id`hc_gb^hc_d_[d_[gb^id`hc_d_[c^Ze`\hc_fa]fa]hc_hc_id`lgcqlhrmisnjqlhlgcjealgcmhdlgclgcniemhdhc_c^Ze`\jeaojfojfnieojfpkgniekfbid`id`jeaid`hc_id`kfblgcjeafa]e`\e`\c^Zb]Yc^Zd_[e`\jeajeahc_e`\d_[c^Z`[W`[We`\id`id`jeakfbid`gb^id`nietqlmhdmhdgb^mhdnielgcgb^d_[d_[fa]fa]e`\c^Zd_[fa]id`id`fa]b]Y`[Wb]Yc^Zb]Y_ZV_ZV_ZV`[Wb]Yfa]jealgcmhdkfbkfbkfblgclgcmhdmhdnieid`gb^hc_gb^b]Zc^[d_\_ZW`[Wc^Ze`\fa]gb^id`id`id`kfbjeajeakfbmhdnieojfnielgclgcid`gb^hc_id`hc_e`\c^Zgb^gb^d_[g_\kc`mebldaia^ia^kc`ldahc`fa^e`]gb_e`]\WTZUR`[Xe`\id`mhdojfrmiwrnsnjkfbgb^e`\fa]jeahc_id`lgckfbe`\b]Y`[W^YU_ZVa\Xe`\hc_jeajeaid`hc_f_Yg`Zjc]le_jc]e^Xf_Yib\kd\ibZha[f_Yb]Wb]Wd_[e`\gb^fa]id`id`h`]ldaphenfcjeakfbnieojfniejeae`\b]Yb]Yc^Zd_[e`\fa]gb^id`kfbid`kfblgckfbjeajeaid`gb^fa]fa]hc_kfbid`e`\c^Zc^Zhc_gb^gb^id`id`id`jeakfbojfpkgqlhniekfbjeajealgckfblgclgckfbid`hc_lgcpkgnieojfojflgchc_fa]gb^id`gb^fa]fa]gb^hc_hc_gb^fa]b]Yd_[d_[c^Zc^Zb]Yd_[jeaojfkfbfa]`[W]XT^YU_ZV_ZVb]Yd_[gb^kfblgckfbkfbkfbpmhojfpkgjeamhdkfbid`e`\d_[e`\fa]fa]e`\c^Zc^Ze`\gb^hc_hc_gb^e`\b]Ya\X^YU\WS^YU^YU]XT^YUb]Ye`\hc_id`kfbid`gb^e`\e`\gb^mhdqlhkfbhc_id`gb^a\Y_ZWa\Y_ZW`[Wc^Zgb^hc_jeakfblgclgclgcjeaid`id`kfblgckfbjeajeaid`gb^d_[fa]id`hc_d_[`[We`\hc_fa]g_\kc`ldajb_g_\h`]jb_kc`idaidahc`hc`c^[]XU^YVc^[gb^id`kfblgcsnjxsowrnqlhojflgcjealgcjeajeaniepkgniemhdkfbhc_c^Zd_[gb^jealgclgclgclgcha[ha[jc]le_le_ib\ib\kd^ibZc\T[TNTOIQLFNICRMI\WSd_[e`\c^Zd_[jb_kc`kc`nfchc_kfbojfqlhqlhmhdhc_d_[a\Xb]Yc^Ze`\fa]gb^hc_id`jeakfbmhdmhdmhdlgckfbhc_hc_hc_id`jeaid`fa]fa]gb^hc_gb^gb^id`id`id`hc_gb^niepkgrmipkglgcjeajealgcmhdkfbjeajeajeajeajeajeajeajeaid`gb^e`\fa]hc_jeafa]d_[c^Zb]Yd_[d_[d_[d_[b]Yc^Zb]Yb]Ye`\e`\fa]kfbojfjeac^Z^YU\WS^YU_ZV_ZV`[Wb]Yfa]jealgckfbid`id`khcqlitolnifojgjebfa^c^[d_\fa^gb_gb_fa^e`]e`]gb_hc`lgcmhdlgcjeagb^c^Z`[W]XT^YU]XT\WS]XT_ZVb]Yd_[e`\fa]fa]d_[a\X`[Wd_[jeaojfmhdjeajeaid`b]Z_ZWa\Yb]Zd_[gb^jeakfblgcmhdlidjgbjgbhe`hc`hc`idahc`fa^c^[d_[e`\c^Za\Xd_[jeaid`d_[a\Xgb^jeahc_ia^ldamebkc`jb_ldanfcnfcmhenifkfcfa^a\Y`[Xc^[hc`jeakfbkfbhc_niesnjupluplvqmtokqlhpkglgcjealgcojfpkgrmiqlhniegb^gb^hc_id`kfbkfblgclgcjc]ha[ha[kd^mf^mf^kd\kd\aZTRKE=824/)0+'(% ,(%<85TPMb^[b^[_[Xfa]fa]f^[mebgb^kfbpkgsnjtokpkglgchc_c^Zc^Zd_[fa]hc_id`id`hc_kfblgcmhdnieojfnielgcjeajeaid`id`kfbjeaid`id`jeahc_gb^gb^id`id`hc_e`\d_[jeanieqlhpkglgcid`jealgcniekfbjeajeakfbjeaid`hc_gb^e`\c^Zb]Yd_[fa]hc_id`e`\d_[a\X`[W`[Wa\Xb]Yc^Ze`\d_[b]Yc^Zhc_jeajealgcnieid`c^Z_ZV_ZV`[W`[W_ZV_ZV`[Wd_[gb^id`hc_gb^gb^id`snkwrormjrmjlgdhc`fa^gb_idajebkfcjebjebjebkfcmheqlhpkgniemhdlgckfbfa]a\X_ZV^YU_ZV_ZV_ZV`[Wa\Xc^Z_ZVb]Yd_[d_[c^Zd_[fa]hc_lgckfblgclgcgb_b]Zc^[gb_kfblgcmhdmhdniemhdhe`da\eb]eb]gb_hc`gb_e`]a\Y^YV_ZVb]Ya\X_ZVc^Zjeakfbgb^e`\id`jeahc_jb_mebnfcmebogdqifrjgrjgqliqlikfcd_\a\Yb]Zfa^jebmhdojfniejeahc_kfbojfrmivqmytpytpxsoojfjeahc_id`kfbojfpkgniejeajeaid`id`id`id`id`id`mf`kd^jc]kd^ng_ng_le]ibZXQK:3- 952XTQfb_b^[b]Yc^Zf^[ldaid`lgcpkgsnjsnjrmiojfmhdid`hc_gb^jeanieojfniekfbnieniemhdmhdnienielgckfbkfbid`id`lgcmhdlgclgclgcid`hc_id`id`hc_fa]e`\d_[fa]jeanienielgcid`jeakfbkfbjeajeakfbjeajealgcniejeafa]c^Zd_[hc_jeaid`gb^e`\d_[b]Y`[W_ZV`[Wb]Yc^Zfa]d_[a\Xc^Zid`lgclgcmhdlgckfbhc_fa]e`\e`\d_[b]Ya\Xb]Yc^Ze`\e`\e`\e`\fa]id`tolxsptolupmqlinifmhemhenifojgojgojgnifnifojgpkhqlhqlhpkgpkgpkgojfjeae`\b]Yb]Yb]Ya\X_ZV^YU`[Wc^Z`[Wc^Zfa]id`id`gb^e`\d_[id`jealgcniekfce`]d_\hc`ojfniemhdmhdnkflidea^_[X`\Yb^[d`]ea^e`]c^[a\Y_ZW_ZVb]Yc^Za\Xd_[jealgcid`hc_id`id`gb^jb_mebmebkc`mebqifrjgqifqlirmjlgdc^[`[Xa\Ye`]kfcojfsnjtokpkgkfbjeakfbmhdpkguplxsoxsoqlhkfbgb^gb^id`mhdojfmhdjebjebid`hc_gb^gb^gb\fa[ohbohbng_ng_oh`oh`kd\f_WOJD'"        :97]YVfb_c^Zd_[gb^hc_lgcmhdniepkgqlhqlhpkgojfniekfbjeamhdrmiuplsnjqlhsnjqlhniemhdlgclgclgclgclgcjeaid`kfbojfqlhqlhpkglgclgclgckfbhc_e`\e`\gb^e`\hc_kfblgclgckfbkfbkfbid`id`id`jeakfbmhdpkgtokpkglgcid`jeamhdniejeae`\c^Zd_[d_[c^Za\Xa\Xb]Yd_[e`\d_[b]Yb]Ygb^jeaid`jealgcmhdniemhdlgckfbjeaid`id`hc_hc_hc_hc_gb^gb^id`jearmjwrosnkvqntoltolsnktolsnksnksnkrmjqlipkhojgojgojfsnjupluplsnjpkglgcid`fa]fa]e`\d_[b]Y`[Wc^Zhc_jeajeakfblgcmhdmhdkfbid`jealgcmhdniemhehc`fa^idamhdkfbkfbmhdnkfmjeea^^ZW`\Ya]Zb^[b^[b]Zb]Zc^[d_\c^Zfa]fa]d_[e`\hc_jeaid`id`jeaid`hc_jb_ldakc`h`]kc`nfcogdogdnifojgjebd_\_ZW_ZWc^[idaniesnjuplrminiekfbid`hc_gb^jeanieniepkgkfbid`hc_hc_id`jeahc_fa^fa^e`\d_[d_[d_[d_Yd_Ymf`ohbpiaoh`ng_ng_ibZc\TPKG'"	          @<9^ZWe`\e`\hc_gb^lgckfbkfblgcnieojfojfnienielgckfbniermitoktokrmitokrmiojfmhdlgckfbkfblgcmhdjeagb^id`mhdrmitoktokojfojfnielgcgb^d_[fa]id`id`id`id`kfblgcmhdmhdlgckfbhc_gb^id`mhdpkgrmisnjqlhmhdjeajeakfbkfbfa]b]Yd_[fa]hc_hc_gb^fa]fa]fa]fa]gb^fa]e`\hc_id`gb^gb^kfbniermirmipkgpkgqlhrmiqlhpkgojfojfmhdkfbjeakfblgcnifsnkojgsnksnkvqnwrowroupmtoltolsnkqlipkhnifmheojfsnjvqmvqmtokqlhnielgcgb^fa]hc_id`id`hc_jeamhdrmipkgmhdmhdmhdojfojfojflgcnielgcjealgdjebhc`jebjeajeakfbmhdnjglheea^_[X`\Ya]Z`\Y`\Ya[[c]]e__gb_id`id`hc_fa]fa]gb^hc_hc_jeajeahc_fa]h`]ia^h`]f^[jb_kc`kc`ia^gb_hc`fa^c^[_ZW^YVb]Zhc`jeamhdojfmhdhc_d_[d_[c^Z`[Wa\Xd_[d_[gb^fa]fa]fa]c^Zc^Zd_[c^Zb]Za\Y`[W_ZV_ZV_ZV_ZT`[Uha[mf`piaoh`ng_ng_haY`YQTOK50,            FEA\YTb_Zgb^gb^id`hc_hc_jeamhdniemhdlgclgclgcmhdnieniemhdmhdmhdojfojfniemhdkfbid`id`jeajeagb^d_[d_[gb^kfbmhdniemhemhelgdjebfa^d_\gb_jebmhekfcidaidajeblgdlgdlgdlgcjeajealgcnienieniemhdlgckfbhc_fa]e`\d_[c^Zc^Zgb^hc_jealgcmhdlgcjeahc_hc_kfbkfbkfblgcjeae`\c^Zfa]lgcrmitoksnjtokuplvqmtoksnjqlhpkgmhdkfbjeakfbmhdjebojglgdojgqliupmwroxsptoltolsnkrmjqlipkhnifmhepkgpkgqlhqlhsnjrmiojfkfbc^Zd_[gb^mhdojfojfojfpkgrmipkglgckfbkfbmhdojfpkglgcnieid`fa]idajebhc`jebjeakfblgcniemifkgdea^^ZWa]Z`\Y`\Y`\Yb\\d^^f``gb_kfbid`hc_gb^hc_gb^gb^gb^jeaid`fa]b]Yc[Xd\Yf^\e]Ze]Zf^[e]Zc[Xa\Yb]Zc^[c^[_ZW_ZWc^[gb_gb^gb^gb^fa]^YU\WS_ZVa\X]XT^YUa\X`[W]XT^YU`[Wa\X_ZV_ZVb]Yb]Za\Y`[X^YU\WS[VR\WS]XR^YSf_Yle_picoh`oh`oh`ibZ`YQWRLC>:           10,QNI_\Wfa]hc_fa]e`Ze`\hc_mhdnielgcid`kfbmhdojfmhdjeafa]e`\fa]jeajealgclgcjeagb^fa]fa]fa]d_[b]Y`[W`[Wb]Yd_[e`\idaidahc`gb_e`]e`]gb_kfcojglgdidahc`hc`idajebjebkfbmhdojfpkgmhdjeahc_id`id`id`gb^d_[`[W`[Wc^Zgb^hc_hc_id`lgcojfojfkfbgb^id`mhdnienieniekfbc^Z_ZVa\Xhc_pkgupluplvqmvqmvqmuplrmiojflgcid`hc_hc_jeajeaia^phemebldaphetlixpmvnkuplsnjqlhniemhdkfbhc_fa]id`id`id`id`ojfsnjpkgjeae`\b]Yd_[kfbpkgojfnieojfogdmebldamebnfcmebmebmebnfcldah`]d\Yd\Yg_\kc`nfcjebjebjebmheojgjebc^Z`[Wd_[c^Zb]Zd_\fa^fa^hc`jebkfbid`id`jeakfcidahc`hc`jebfa^a\Y^YV^YV`[Xc]]d_\d_[d_[c^Z`[W]XT]XT^YU`[Wa\Yb]Zb]Za\Ya\Yb]Zb]Z`[X[VS[VS^YV^YV]XUc^[hc_fa]]XT_ZV_ZW_ZWa\Yb]Zb]Zd_\b]Z`[W^YU]XT^YU_ZV_ZV_ZVa\Xfa[le_mf`oh`oh`ibZaZR^WQGB>"         C@;]ZUe`Zhc]g`Ze^Vf_Yle_ohbohble_jc]ia^kc`id`jeajebgb_d`]ea^d_[hc_jealgcmhdjead_[a\Xe`\d_[e`\fa]c^Z^YU]XT_ZVc^Ze`\gb^fa]d_[c^Zfa]kfbniejeahc_id`gb^d_[d_[hc_kfbmhdojflgcgb^hc_jeaid`lgckfbid`b]Y]XT`[Wfa]hc_gb^gb^id`lgcojfpkgniekfbhc_mhdpkgnielgckfbe`\_ZV]XTa\Xhc_nieojfojfojfpkgojfmhdlgclgcid`e`\d_[fa]hc_ia^ogdmebkc`mebqifvnkvnkrmipkgmhdjeaid`gb^e`\d_[e`\fa]gb^id`lgcojfmhdid`c^Z`[Wa\Xgb^lgclgckfbkfbnfcldaldaldakc`jb_ia^jb_ia^jb_ia^f^[e]Zg_\jb_ldajebjebjeblgdmhehc`b]Ya\Xfa]e`\e`]e`]fa^gb_idakfclgckfbkfbkfbidagb_fa^hc`hc`d_\`[X_ZWa[[c]]d^^c^[d_\gb^gb^a\X\WS\WS\WS[VRa\Ya\Ya\Ya\Yd_\fa^e`]c^[`ZZb\\d_\b]Za\Ye`]id`id`d_[e`\c^[b]Zc^[c^[a[[c^[e`\d_[a\X^YU^YUa\Xa\X_ZV_ZVc^Zha[jc]mf^ng_ibZaZR\UOD=7 	                 40-QNI_ZVe`Zha[f_We^VhaYle_le_le_kd^ia^jb_hc_hc_hc`fa^d`]fb_fa]hc_jeamhdojfjead_[c^Zb]Yb]Ye`\id`gb^a\X^YU_ZVe`\fa]hc_hc_gb^e`\gb^id`jeafa]d_[fa]hc_gb^gb^gb^id`jeajeahc_d_[e`\hc_jealgckfbjeafa]b]Ye`\hc_gb^fa]gb^id`lgcojfojfnielgchc_nieqlhojfkfbid`e`\`[WZUQ\WS_ZVc^Zd_[c^Zb]Yb]Yfa]hc_jeakfbid`fa]fa]gb^fa]h`]nfcldajb_kc`nfctliumjpkgniekfbhc_gb^fa]e`\e`\e`\fa]hc_id`jeajeaid`id`e`\b]Ya\Xe`\id`id`id`id`ldakc`ldaldakc`ia^h`]h`]ia^kc`ldajb_g_\f^[f^[g_\e`]e`]e`]hc`idad_\a\Xd_[gb^fa]e`]c^[c^[e`]hc`idakfbkfbkfbid`fa^c^[c^[e`]fa^c^[`[Xa\Ye__gaae__b]Zb]Zid`jead_[`[Wc^Zd_[b]Ye`]d_\c^[e`]idakfcidagb_e`]hc`hc`d_\c^[d_\fa]id`fa]id`idafa^d_\`[X`[Xb]Zgb^hc_e`\_ZV^YUb]Yc^Z_ZV]XT^YUb[Ue^XibZkd\g`XaZRUNH81+             !=:5QNI_\Ue`Ze`Zg`Zha[kd^ngaldah`]ia^kc`id`hc_hc_e`\b_Zc`[e`\e`\gb^lgcnieid`c^Zc^Zb]Yb]Yfa]kfbkfbfa]a\X`[Wfa]gb^id`jeajeaid`hc_hc_hc_e`\d_[gb^mhdpkgojfmhdkfbid`id`gb^b]Yc^Zhc_lgcjeaid`jeajeaid`kfbjeafa]e`\gb^jeamhdnieniemhdlgchc_nieqlhmhdid`gb^d_[a\X^YU\WS[VR\WS^YU]XT\WS[VR]XTb]Yfa]fa]e`\e`\gb^hc_fa]g_\nfcldajb_kc`ldaqifrjgojfmhdjeagb^fa]fa]gb^gb^gb^fa]gb^hc_hc_gb^id`lgckfbgb^c^Zd_[fa]gb^hc_id`kc`ldamebmebldajb_ia^ia^jb_mebogdmebjb_g_\e]Zc[Xa\Y`[Xa\Ye`]fa^a\Y`[We`\gb^gb^d_\a\Y`[Xd_\gb_hc`jeajeaid`hc_fa^d_\e`]e`]e`]c^[b]Zd_\gaaiccgaad_\e`\jeakfbgb^fa]jealgckfbhc`gb_gb_idalgdmhejebgb_hc`jebfa^a\Y`[X`[X`[We`\c^Zjeamheidac^[]XU^YVc^[fa]hc_fa]a\X`[Wb]Yc^Z`[W^YU_ZVaZTc\Vf_WibZg`Xc\TRKE.)#                 
3/,FC>YTPb]Wjc]jc]mf`rkeqifjb_kc`nfcmhdmhdkfbe`\^[V^[Vc^Ze`\gb^jealgchc_d_[d_[e`\e`\hc_mhdniejeae`\c^Ze`\fa]id`lgclgcjeaid`id`gb^gb^gb^id`pkguplvqmsnjmhdjeajeaid`d_[b]Ygb^jeagb^fa]id`kfblgcmhdjeae`\fa]gb^jealgcniemhdmhdmhdid`niepkgkfbfa]e`\e`\d_[a\X_ZV[VRZUQ[VR[VRZUQYTP[VR^YUa\X`[W`[Wc^Zfa]gb^d_[jb_phemebkc`kc`ldaogdogdnielgcid`gb^fa]gb^id`jeahc_e`\c^Zd_[fa]hc_lgcpkgniejeae`\c^Zd_[fa]id`jealdamebmebmebldakc`ia^h`]h`]kc`mebmebkc`h`]e]Zc[X_ZW_ZW`[Xd_\e`]b]Za\Xfa]jeahc_d_\a\Ya\Yd_\gb_idajebidahc`hc`idajebidahc`d_\d_\d_\fa^idajebjebjebmhdlgcjeahc_id`kfbkfbjeagb_hc`jeblgdmhelgdidagb_idaidab]Z\WT]XT]XT]XT`[Wc^Zjeamhdkfbe`]_ZW^YVa\Ye`\fa]fa]e`\c^Zc^Zc^Zc^Ze`\d_[d_Yd_Yg`Zha[haYhaYTOI.)#	                 
940PKGe`\id`nfcumjwolrjgpheskhsnjrmiojffa]]ZUZWRc^Zhc_jeaid`jeajeahc_gb^id`hc_jeaojfqlhlgcfa]d_[c^Ze`\id`kfbkfbid`hc_id`gb^hc_hc_hc_lgcpkgrmipkgnielgcmhdlgcfa]c^Zd_[fa]c^Zc^Zgb^jeakfbkfbid`d_[d_[d_[fa]jeakfblgclgclgclgcniemhdhc_e`\gb^id`id`hc_fa]b]Y_ZV]XT[VRZUQYTPZUQ\WS]XT\WS]XTa\Xe`\fa]`[Wmebrjgphemebmebldanfcnfcniemhdkfbjeajeakfbniepkglgchc_d_[e`\gb^jeanieqlhojfmhdid`fa]e`\hc_kfbmhdmebmebmebkc`jb_jb_h`]f^[g_\ia^kc`jb_ia^f^[bZW`XU\WT]XU_ZWc^[gb_gb_fa]id`kfbhc_fa^d_\c^[c^[e`]gb_hc`gb_fa^gb_jeblgdjebgb_b]Zd_\fa^hc`hc`jeblgdnifpkgkfbgb^fa]hc_jeajeahc_gb_idalgdnifniflgdjebjebidafa^`[X\WT^YU_ZV`[Wa\Xhc_jeajeaid`idad_\_ZW]XUc^Zd_[fa]gb^fa]e`\e`\gb^id`id`id^hc]ha[ha[ibZhd[WRL3.(                  4/+XSOid`qifumjwoltlitliwolupltokqlhhc__\W]ZUd_[id`jeagb^id`kfbkfbjeajeahc_kfbpkgqlhlgcfa]c^Zc^Ze`\hc_id`gb^e`\fa]gb^id`jeajeahc_hc_jealgckfbojfojfrmiqlhkfbfa]e`\e`\a\Xb]Yfa]id`id`id`id`fa]c^Za\Xa\Xd_[hc_id`jeakfbmhdmhdjeae`\d_[hc_lgcniepkgojflgcgb^c^Z`[W\WSZUQYTP[VR]XT^YU`[Wb]Yd_[e`\b]Yldatliskhrjgpheldaldaldajeajeajeajeakfbmhdqlhtokrminiejeaid`jealgcnieojfojfpkgniekfbid`kfbniepkglgclgcjeahc_gb^gb^e`\c^Zb]Ye`\hc_gb^d_[a\X^YU[VR[VS^YV`[Xd_\kfbmhdlgclgchc_gb^gb^gb^c^[^YV^YVa\Yc^[d_\d_\e`]gb_hc`fa^c^[b]Ze`]hc`hc`gb_gb_jebmheniejeae`\c^Zfa]jeajeafa]d_\e`]gb_jebjebhc`hc`hc`fa^a\Y^YU^YU`[Wc^Ze`\d_[hc_id`gb^fa]gb^c^Z]XU[VS`[Wc^Zfa]e`\e`\fa]gb^hc_jeajeakfbkfbhc]e`Ze`Zgb\ZUO96/                	
!A<9\WTkfbojfqifpheskhvnkupluplrmikfbda\b_Zfa]hc_fa]e`\hc_kfbkfblgcjeahc_id`nieojfkfbfa]d_[b]Yd_[e`\fa]d_[c^Zd_[gb^kfbjeajeaid`hc_hc_hc_hc_kfbnieqlhpkgkfbhc_gb^e`\c^Zd_[gb^jeajeajeakfbid`d_[`[W]XT`[We`\fa]fa]gb^hc_hc_e`\b]Yb]Yfa]lgcojfpkgpkgojflgchc_d_[^YUZUQZUQ\WS_ZVb]Yc^Zc^Zd_[fa]hc_jb_tliwolwolskhldajb_ia^c^Zd_[e`\fa]gb^jeanieqlhrmipkgmhdkfbmhdojfojfniepkgrmirminiekfblgcojfpkgmhdkfbid`gb^hc_id`gb^d_[_ZVc^Zgb^gb^d_[a\X_ZV]XT`[Xc^[d_\hc`nieqlhniekfbfa]fa]hc_id`c^[ZURYTQ]XU`[Xc^[d_\d_\d_\d_\b]Z_ZWd_\gb_jebidafa^e`]gb_jebniemhdgb^a\Xc^Zhc_fa]_ZV]XU]XU_ZWa\Ya\Y`[X`[Xa\Yb]Z]XU]XT_ZVa\Xfa]id`gb^d_[fa]e`\c^Zb]Y^YU[VS[VS]XTb]Ye`\b]Yb]Ye`\hc_gb^kfbkfbmhdniekf`gb\fa[gb\^[TB?8            $"#&%#+&#HC@`[Wjeamebogdphetlitokupltokniegd_fc^id`gb^d_[d_[id`kfbkfbmhdjeagb^gb^jeakfbhc_fa]fa]b]Yb]Yc^Zc^Zb]Yb]Ye`\hc_id`gb^fa]gb^hc_gb^fa]d_[d_[gb^kfbjeae`\e`\e`\c^Zgb^gb^jeamhdlgcmhdniemhdhc_a\X\WS^YUc^Zd_[c^Zc^Zb]Yc^Za\X^YU^YUc^Zjeamhdojfpkgqlhpkgmhdjead_[^YU\WS^YUb]Ye`\d_[b]Yd_[gb^jeah`]qiftlizrorjgia^e]Zh`]`[W_ZV`[Wb]Yc^Ze`\id`mhdpkgniemhdlgcmhdmhdmhdmhdnieqlhpkgojfnielgclgcpkgmhdkfbid`id`jeakfbkfbkfbgb^e`\e`\e`\e`\d_[d_[e`\gb_e`]fa^jebnieojfkfbgb^fa]gb^jeakfbgb_`[X\WT]XU`[X_ZW_ZWa\Ya\Ya\Y`[Xa\Ye`]idalgdkfcgb_d_\c^[d_\hc`hc`hc`hc`e`]`[X]XU\WT[VR[VR[VR\WS]XT^YU_ZV_ZV_ZVb]Yd_[e`\fa]gb^id`jeae`\d_[c^Za\X^YU[VRZUQ[VR^YU_ZVb]Y`[Wa\Xd_[d_[e`\fa]kfbmhdlgclgagb\d_Ygb\a^WJG@$#               "333<:;>=;40/,('-(%>96TOLc^[jeanielgcrmiupluplsnjqlhojfkfbgb^e`\c^Zd_[id`nieojfniejeahc_gb^fa]fa]d_[d_[d_[]XT]XT_ZVd_[gb^gb^fa]fa]e`\d_[c^Zc^Zc^Zb]Y`[W^YU_ZVd_[e`\c^Za\X`[W_ZVb]Yfa]id`lgcmhdlgcjeaid`id`id`a\X]XT`[Wb]Ya\X`[Wb]Yb]Y^YU\WS^YUa\Xb]Ye`\jeamhdnienieniepkgpkgkfbe`\^YU`[Wc^Ze`\gb^id`lgcojfqifh`]pheqifumjpheia^d\Yd\Y`[W`[Wa\Xc^Zc^Zd_[hc_kfbmhdlgckfbkfblgckfbjeaid`kfbmhdmhdlgclgcjeakfbniemhdlgcid`hc_id`jealgcniekfbgb^d_[c^Zd_[fa]gb^hc_jebidahc`idajeaid`gb^e`\fa]hc_jeakfbgb_a\Y^YV_ZW^YV]XU]XU^YV^YV^YV_ZWa\Yc^[idamhelgdhc`d_\b]Zb]Za\Yd_\hc`idagb_b]Z_ZW^YVb]Ya\X`[W_ZV`[Wa\Xc^Zd_[gb^id`jeahc_fa]e`\e`\fa]d_[b]Y_ZV]XTZUQXSOXSOYTP]XT^YU_ZV]XT\WS_ZV_ZV^YUa\Xd_[fa]fa]hc]gb\d_Yc^Xc`YROH/.)	          779IIKNLMOMNIEDB>=@;8FA>PKHXSPa\Xhc_jeamhdojfpkgrmirminiehc_fa]e`\fa]hc_mhdpkgniejeahc_gb^fa]e`\c^Za\Xa\Xb]Y_ZV^YU_ZVd_[id`kfbkfbkfbid`fa]c^Zb]Yb]Y`[W^YU[VR\WSa\Xb]Ya\Xb]Yb]Ya\Xc^Zfa]id`lgclgckfbhc_gb^fa]e`\^YU[VR^YU`[W`[W`[Wa\X_ZV\WS[VR_ZVa\Xb]Yc^Zfa]kfblgcmhdniepkgqlhnieid`a\Xb]Ye`\gb^gb^id`niesnjumjjb_qifogdqifmebjb_d\YaYVb]Yc^Ze`\fa]fa]fa]hc_jealgclgckfblgckfbjeagb^e`\hc_jeajeaid`jeahc_hc_lgcmebldakc`jb_jb_ldaogdqifogdjb_e]Ze]Zh`]jb_ldaldalgdkfchc_e`\c^Zb]Yb]Yb]Ygb^hc_jeakfbgb^a\X_ZW`[X]XU\WT[VS[VSYTQZUR]XU`[Xb]Zhc`nifnifkfcfa^d_\c^[_ZWc^[gb_jebidafa^e`]e`]hc_fa]d_[c^Zd_[gb^jealgcnicniclgchc_d_[b]Yb]Yb]Ya\X^YU[VRYTPXSOWRNXSMYTN_XR`YS`XU]URYTP[VR[VRVQMYTP]XTc^Ze`\d_[d_[c^Z`[Wda\[XS=<7         @@@SSSXXXZXYYUTTPOPLKPLKQLIRMJVQM[VRd_[fa]jeamhdojfpkgmhehc`d_[d_[e`\hc_mhdojflgchc_e`\e`\e`\d_[b]Ya\Xc^Zfa]fa]e`\e`\id`niepkgpkgojfkfbgb^d_[b]Yc^Zc^Zb]Y`[W^YU`[W`[W_ZV`[Wb]Yc^Ze`\gb^id`kfblgcjeagb^e`\d_[b]Y]XTZUQ[VR^YU^YU]XT]XT[VRYTPZUQ^YU`[W`[Wa\Xc^Zid`jeajeakfbmhdojfniejeae`\e`\e`\fa]fa]gb^mhduplumjmebtliogdpheldakc`e]ZaYVc^Zfa]id`kfbkfbjeajeakfblgclgclgcmhdmhdjeafa]c^Zfa]gb^fa]gb^gb^d_[d_[gb^ia^h`]h`]g_\h`]kc`mebogdnfcjb_g_\h`]kc`ldaldakc`jebhc`d_[_ZV\WS\WS_ZVa\Xhc_id`jeaid`e`\`[W_ZW`[X_ZW^YV]XU[VSXSPWROYTQ]XUa\Yhc`nifpkhnifkfcidahc`c^[d_\fa^gb_gb_gb_idalgdjeaid`gb^gb^hc_jealgcnieniclgahc_d_[b]Yb]Yb]Yb]Y]XT[VRZUQZUQ[VR[VRZUO[VP_XRaZTaYV_WTZUQ[VRYTPMHDID@QLH`[Wgb^c^Z_ZVb]Yc^Zb_Z]ZUGFA#"         444MMMXXX][\^ZYYUTTPOSONTOLSNKSNJSNJ[VRa\Xgb^kfblgclgclgdkfce`\e`\d_[fa]id`kfblgckfbhc_gb^fa]e`\d_[e`\hc_kfbojfojfnieniepkgqlhpkgniejeahc_e`\d_[e`\gb^hc_gb^e`\e`\a\X]XT^YU`[Wc^Zfa]hc_id`jeajeaid`hc_gb^fa]e`\`[W\WS\WS]XT]XT[VRYTPZUQYTPYTP\WS^YU^YUa\Xd_[hc_id`hc_hc_jealgclgckfbid`e`\c^Zc^Zb]Ya\Xgb^nieqifogdvnkqifogdkc`jb_f^[bZWc^Zgb^lgcniemhdlgclgclgcjeakfblgcmhdnielgchc_e`\e`\e`\d_[e`\e`\a\X_ZVb]Yf^[e]Zc[Xc[Xe]Zh`]ldanfcnfcldajb_jb_kc`jb_h`]h`]e`]a\Y]XTZUQZUQ\WS`[Wc^Zhc_hc_id`hc_d_[a\Xa\Yc^[d^^d^^c]]`ZZ[VSWROYTQ[VSa\Yfa^lgdojgojfojfnieniee`]d_\d_\fa^gb_gb_idakfchc_id`id`id`id`jeajeajeamf`jc]e^Xb[Uc[Xe]Zf^[f^[^VS^VS_WTaYVb[UaZT_XR^WQ`YSb[UbZWbZW_WT^VSUPLA<8+&#4/,KFB_ZVa\X]XT_ZVc^Za^Y^[VPLI1-*           000HHHXVW_]^`\[[WVWSRUQPWROXSPXSOWRNVQM[VRa\Xgb^idaidajddjebgb^fa]fa]fa]gb^hc_id`jeakfbhc_fa]d_[d_[e`\hc_lgcrmisnjrmipkgojfniemhdjeajeajeahc_fa]e`\gb^id`jeakfbkfbfa]`[W_ZVa\Xc^Zgb^id`hc_hc_gb^hc_id`jeajeahc_e`\a\X_ZVa\Xa\X_ZV\WS]XT]XT^YU`[W`[W`[Wb]Ye`\id`id`hc_gb^gb^id`jeakfbid`c^Z^YU^YU]XT[VR^YUb]Yia^nfcumjpheogdjb_h`]e]Zc[Xc^Zgb^lgcniemhdlgckfbkfbhc_hc_id`kfbnieniekfbid`hc_gb^fa]fa]fa]a\X^YUa\Xf^[d\YaYVaYVc[Xg_\kc`nfcphenfcldajb_h`]f^[d\Yc[X`[X\WTXSOXSOZUQ_ZVc^Ze`\fa]gb^hc_gb^d_[c^Ze`]gb_hbbhbbhbbd^^_ZW[VS[VS]XUa\Yd_\hc`kfclgcnieojfojfc^[d_\e`]hc`idaidahc`hc`e`\gb^id`jeakfbkfbjeaid`kd^ha[d]Wb[Uc[Xf^[f^[e]Z^VS_WTbZWf^[f_Yd]WaZT_XRaZTc\VbZWc[X`XU]URQLH61-	
(#HC?ZUQ\WS]XT`[Wb_Z`]XXTQ=96       555IIIUST[YZ_[Z`\[`\[_[X^YV]XU\WSZUQVQMVQMZUQ`[We`]gb_f``fa^d_\d_[fa]gb^fa]d_[b]Ya\Xfa]d_[a\X`[W`[Wb]Ye`\hc_ojfqlhqlhnielgcmhdlgcjeaid`kfbjeagb^fa]hc_kfblgcmhdniejeae`\d_[d_[e`\hc_id`gb^d_[d_[fa]id`kfblgckfbid`fa]c^Ze`\id`gb^d_[b]Ye`\hc_jeaid`gb^fa]gb^gb^gb^gb^e`\d_[e`\fa]gb^fa]`[W[VRZUQZUQXSOWRNXSO^VSmebrjgnfcogdjb_h`]e]Ze]Zc^Zhc_mhdnielgckfbjeaid`gb^fa]gb^id`lgcmhdlgckfbjeahc_gb^hc_hc_c^Z`[Wb]Ye]Ze]Zd\Yc[Xe]Zh`]kc`nfcogdmebkc`jb_g_\c[X`XU`XU]XUZURWRNXSO\WSa\Xd_[fa]d_[fa]fa]e`\c^Zc^Zfa^idahbbhbbhbbf``b]Z^YV^YV`[Xa\Yb]Zc^[d_\gb^id`jeaid`b]Zc^[e`]hc`jebidajebjebgb^hc_jealgclgckfbjeaid`jc]ib\f_Yd]Wc[Xd\Yc[XbZW_WTaYVd\Yg_\g`Ze^Xb[UaZTb[Ud]WaYVbZW_WT\TQOJG/*'   	.)&LGCWRNYTP\WS`]Xa^Y^ZWEA>       542KJHUTRXWU[ZXa`^gc`ea^b^[_\W^YU[VRXSOVQMWRN\WS`[Xb]Zd^^fa^e`]e`\fa]hc_gb^d_[a\X_ZVb]Ya\X`[W`[W`[Wa\Xd_[gb^kfbniemhdjeaid`kfbkfbid`hc_jeahc_e`\e`\id`mhdniemhdmhdjeafa]fa]fa]fa]hc_hc_e`\b]Ya\Xd_[hc_kfblgclgckfbgb^d_[gb^kfbjeafa]e`\gb^lgcpkgpkgmhdjeahc_e`\fa]gb^e`\c^Z`[W`[Wa\X`[W\WSYTPZUQ[VRZUQWRNTOKWOLldaqifmebogdkc`h`]f^[g_\e`\jeanienielgckfbid`hc_hc_fa]fa]gb^jealgckfbjeaid`gb^fa]hc_hc_c^Z_ZVb]Yd\Ye]Zg_\h`]h`]ia^ldamebldajb_jb_ia^g_\c[X_WT]UR\WTYTQWRNXSO]XTa\Xd_[e`\c^Zd_[d_[b]Ya\Xa\Xd_\gb_fa^fa^gaae`]b]Z_ZW`[Xb]Za\Y`[X`[X`[Xb]Yd_[d_[b]Yb]Zb]Zc^[d_\fa^gb_kfcnifmhdnieniemhdlgcjeahc_gb\ib\ib\ha[f_Yc[XaYV`VT^VS`VTaYVd\Yg_\g`Ze^Xd]Wd]Wd]Wd]W_WTaYV_WT]URPKH-(%    @;8RMJVQN[VR]ZUa^Ya]ZHDA        .-+LKIYXVZYW\[Y`_[d`]b^[`]X`]X_ZV\WSZUQXSOYTP\WS]XU^YVc]]idalgdid`hc_jeakfbid`gb^e`\e`\e`\fa]fa]d_[c^Ze`\hc_id`kfbid`e`\e`\hc_id`fa]hc_hc_fa]c^Zc^Zgb^kfblgcmhdlgchc_d_[fa]gb^gb^gb^hc_e`\a\Xa\Xc^Zgb^jeakfbmhdlgchc_c^Ze`\id`hc_c^Zb]Yd_[id`niepkgniekfbhc_fa]gb^id`gb^c^Z_ZV\WS\WS\WS[VRZUQ[VR]XT\WSXSOTOKXPMhc_lgcgb^id`hc_hc_fa]e`\gb^kfbjeaid`mhdkfbgb^hc_gb_fa^gb_gb_fa^d_\d_\e`]fa]gb^hc_fa]c^Za\Xa\Xb]Ye`\fa]id`jeajeahc_id`kfbid`hc_fa]d_[d_[c^Za\X]XT^YU]XT[VRZUQ\WSa\Xd_[d_[c^Zb]Ya\X`[Wa\Xb]Yd_[d_[d_[gb^hc`e`]b]Za\Ya\Yb]Z`[X`[Xa\Ya\Ya\X`[Wa\Xd_[f^[bZW_WT`XUd\Yg_\kc`mebmebnfcogdnfcje_hc]fa[c^Xg`Zf_Wf]Xd[V_US[QO\QO^TR^SQ]SQcYWf^[e^Xe`ZeaXb[Sc\V`WR\SNd[V`YSYRLMHD0+(   0,+MIHSONZVS]XUb]Zea`MIH      
	'%&NLM][\ZYW_[X`]Xb_Zc`[c_\b^[a]Z`\Y\XUYURXTQZVS\XU^ZWc_\gc`jebkfckfcidakfcnifniflgdkfbid`jeajead_[d_[hc_id`hc_c^Z`[Wa\Xb]Yc^Zd_[gb^fa]fa]d_[`[W`[Wd_[hc_jeaniejeafa]d_[fa]gb^gb^fa]e`\c^Zb]Yb]Yd_[fa]hc_id`id`id`id`e`\b]Yc^Zd_[a\X_ZVa\Xfa]kfbnieniekfbhc_gb^id`jeaid`e`\`[W^YU]XT\WSZUQYTPZUQ[VR\WS^YU_ZVaYVe`\jeafa]gb^e`\e`\e`\gb^fa]hc_e`\e`\jeaid`e`\e`\d_\e`]fa^e`]c^[_ZW_ZW`[Xd_[fa]gb^gb^e`\c^Zc^Zb]Ygb^hc_jeakfbkfbhc_gb^gb^fa]fa]e`\c^Zc^Zc^Zb]Y`[Wa\X_ZV]XT\WS^YUb]Yd_[c^Zb]Ya\X`[W_ZV_ZVa\Xc^Zd_[b]Yfa]hc_fa]c^[a\Yb]Zb]Zb]Za\Ya\Ya\Y`[W^YU^YU`[WaYV_WT]UR`XUbZWc[Xc[XbZWbZWc[Xe]Zf^[d_Yc^Xa\V`[Uc\Tb[SbYTaXS`US]RP]RP_TR]RP\RP`VTc[Xc\Vb]Wb^U^ZQ`WR`WR\SN]VP\UOYTNNIE-($
	    	+'(JFGRNMYUT]XUc^[ea`LHG )'(HFG\Z[cb`a]Zb_Zc`[da\d`]c_\c_\b^[`\Y\XUYURZVS]YV`\Yd`]hdalgdmhelgdidahc`idamheojgmhdid`id`hc_d_[d_[fa]e`\e`\a\X_ZV`[Wa\X_ZV^YU_ZV_ZV`[Wa\X`[Wa\Xe`\id`kfblgcid`e`\b]Yb]Yb]Yb]Ya\X`[W`[W`[Wb]Yd_[gb^hc_id`id`id`id`hc_d_[a\X^YU[VR]XT_ZVc^Zhc_kfblgckfbid`fa]gb^gb^fa]d_[b]Y`[W^YUZUQZUQ[VR\WS]XT^YU`[Wb]Ye]Za\Xhc_e`\fa]b]Yb]Yc^Zfa]fa]e`\a\Xa\Xhc_hc_d_[d_[c^[e`]gb_fa^a\Y]XU\WT^YVc^Ze`\gb^id`jeaid`gb^fa]hc_hc_id`jeaid`gb^d_[c^Zd_[e`\d_[c^Zb]Yb]Yc^Zd_[c^Za\X_ZV`[Wb]Yd_[c^Za\X`[W_ZV^YU]XT\WS]XT`[Wb]Yb]Ye`\hc_gb^d_\c^[b]Zb]Zc^[b]Za\Ya\Y`[W^YU]XT^YU_WT^VS^VSaYVc[XaYV]URZRO[SP\TQ_WTd\Ye^Xc\VaZTaZTbYR_VO_VQ`WR_VQ\SN[QO\RP]SQ[SP^VSaYVc\Vd]Wa\V^YS\SN^UPYRLWPJYRL[VPNIE)&!    &$%FDEPOMXTS\WTc^[`\[EA@%#$:89?=>645:89KIJ[ZXba_b^[c`[da\eb]ea^fb_fb_fb_ea^`\Y[WT[WT]YV_[Xb^[ea^idajebidae`]a\Ya\Ygb_mhenieid`hc_gb^e`\d_[d_[b]Yb]Y`[W^YU_ZV_ZV]XTZUQYTPZUQ\WS_ZVa\Xb]Yc^Ze`\hc_fa]e`\d_[c^Za\X`[W^YU^YU^YU_ZV`[Wa\Xc^Zd_[d_[d_[fa]fa]gb^hc_d_[^YUYTPVQMZUQ\WS`[Wd_[hc_id`id`hc_fa]fa]c^Z`[W`[Wc^Zb]Y_ZV[VR\WS^YU_ZV_ZV^YU`[Wb]Yg_\_ZVgb^e`\fa]a\X`[W`[Wb]Yfa]d_[^YU_ZVfa]fa]b]Yb]Yc^[fa^hc`fa^a\Y]XU]XU_ZWa\Xb]Ye`\id`lgcmhdkfbid`gb^gb^gb^gb^e`\c^Zb]Yb]Yc^Zc^Zb]Ya\Xa\Xb]Yc^Zd_[b]Ya\Xb]Yd_[e`\e`\b]Y`[W_ZV^YU]XT[VRYTPYTP\WS^YUb]Yd_[e`\e`\d_\c^[a\Y_ZWa\Ya\Ya\Ya\Y`[W_ZV`[Wa\Xc[XbZWbZWbZWc[XaYV^VS[SP]UR]URaYVf^[ha[e^Xc\Vb[UaXQ^UN^UPaXS`WR\UOZPNYQN]UR^VS`XUbZWd]We^Xc^Xb[U\UOZQLQJDOHBPKERMGA>9    	
(&'GEFRQOVUS\XU`[XTPO510" !1/0FDEOMNKIJNLMWUV\[Y]\Xa]Zb_Zb_Zda\ea^gc`hdahdahdad`]a]Z`\Y_[X_[X_[X`\Yd_\c^[c^[a\Y^YV\WT`[Xfa^jeaid`hc_hc_fa]d_[c^Zb]Yd_[a\X_ZV_ZV_ZV^YU\WS[VR[VR\WS_ZVc^Zd_[a\X_ZV_ZV^YUa\Xd_[e`\c^Za\X_ZV^YU_ZV`[Wa\X`[W`[W`[W`[W`[W`[Wa\Xb]Ye`\d_[^YUWRNVQM[VR]XT`[Wb]Yd_[fa]fa]e`\gb^gb^c^Z^YU_ZVc^Zd_[`[W_ZV`[Wb]Yc^Za\X`[W`[Wa\Xd\Ya\Xhc_d_[e`\b]Ya\X`[Wa\Xfa]d_[]XT]XTc^Zb]Y^YU^YUb]Ze`]fa^d_\`[X]XU^YV_ZW^YU_ZVb]Yfa]kfblgcjeahc_fa]gb^fa]c^Z`[W^YU`[Wa\Xa\X`[W_ZV_ZV`[Wa\Xc^Zd_[a\Xb]Ye`\hc_gb^b]Y_ZV]XT`[W_ZV]XT\WSYTPXSOYTP\WS`[W`[W_ZV_ZVa\Ya\Y_ZW\WT_ZWa\Yc^[b]Za\Xa\Xd_[gb^fa]d_[a\X_ZV^YU^YU_WT^VS^VS^VS`XUd\Yg`Zf_Ye^Xe^XbYR`WP`WPaXQ]VPTOIQIFOJFWRN\WS_ZV_ZVbZWe]Zf_Ye^X`XURJGD=7B;5B=7=82*'"
    )'(FDERQOWVT\XUYURD@?$ 
)'(756FDELJKLJKTSQ^][c_^b^[a]Za^Yb_Zc`[ea^fb_fb_fb_gc`gc`gc`fb_c_\`\Y_[X_[Xb]Z`[Xa\Ya\Y`[X^YV^YV`[Xd_[fa]id`id`hc_d_[c^Ze`\jeagb^c^Za\Xa\Xa\Xa\Xb]Y^YU^YUa\Xfa]gb^b]Y\WSXSOYTP]XTb]Yd_[c^Za\X`[Wa\X_ZVa\Xb]Y_ZV]XT]XT^YU^YU\WS]XT_ZVc^Zfa]`[WYTPZUQa\Xa\X`[W_ZV_ZVa\Xc^Zc^Zhc_id`gb^c^Zd_[hc_gb^d_[b]Yb]Yd_[fa]e`\d_[c^Zd_[c^Zfa]id`c^Zd_[c^Ze`\e`\fa]hc_fa]_ZV_ZVc^Z`[WZUQZUQb]Zd_\d_\b]Z_ZW^YV^YV_ZW]XT^YU`[We`\id`jeagb^d_[e`\fa]e`\a\X]XT\WS^YU`[W]XT\WS\WS^YU`[Wb]Yc^Zd_[c^Ze`\hc_jeafa]_ZV\WS\WS`[W^YU]XT\WSZUQWRNXSOYTP\WS[VRZUQZUQ]XU^YV]XUYTQ`[Xc^[fa^e`]c^Zd_[gb^jeahc_e`\`[W\WS[VR\WS^VS^VS]UR\TQ\TQ_WTb[Ue^Xe^Xe^Xd[TbYR`WP[TLNIC@;583/63.FC>TQL\WS[VR_WTd\Yg`Zha[aYVNFC<5/4/)1,&'$
    (&'B@AQPNWVT]YVSOL510(&'423A?@GEFHFGRQO]\Zd`_fb_c_\c`[c`[c`[d`]d`]c_\b^[b^[ea^iebhdaea^a]Z`\Ya]Zc^[a\Ya\Yb]Zb]Za\Y^YV\WT_ZVc^Zgb^hc_hc_e`\d_[gb^ojflgchc_e`\b]Yb]Yc^Ze`\a\X`[Wc^Zgb^id`e`\^YUXSOXSO[VR_ZV_ZV_ZV_ZVa\Xc^Zc^Ze`\e`\a\X\WSZUQZUQ[VR[VR]XT^YUc^Zhc_b]Y[VR\WSfa]e`\`[W[VRYTP]XTa\Xc^Zfa]hc_id`hc_jeakfbid`e`\`[Wa\Xc^Zfa]hc_hc_hc_id`jeajealgcd_[fa]fa]id`jeakfbjeagb^a\Xa\Xe`\a\XZUQYTP`[Xb]Zb]Zb]Za\Ya\Ya\Y`[X^YU_ZVb]Ye`\hc_gb^b]Y^YUb]Yd_[d_[a\X^YU]XT]XT^YU^YU^YU_ZVa\Xc^Zc^Ze`\gb^fa]gb^id`jeafa]^YU[VR]XT^YU\WS\WS]XT\WSYTPXSOYTP[VRZUQZUQZUQ\WT]XU[VSXSPa\Ye`]idahc`fa]fa]gb^hc_gb^d_[`[W^YU_ZV`[WaYV^VS\TQ]UR]UR^VSbYTe\Wd[VaXS_VO\SLWPJLE?61-!&%!@?;TPMXSP^VSd\Yh^\h^\bZWRJG?:61,(&!	      &&&???OOMXWS]YVNJG*&%

! *()645CABJIGKJHTPO\XWa]\fb_fa^fa]fa]fa]fa^e`]b]Za\Y_ZWd_\hc`hc`e`]c^[c^[d_\fa^d_\a\Y`[X`[X`[X]XUZUR]XTa\Xb]Yd_[gb^e`\c^Zgb^ojfnielgchc_d_[b]Yb]Yc^Zb]Yc^Zd_[fa]hc_fa]`[WZUQYTP[VR]XT\WS\WS]XTa\Xd_[fa]jeakfbfa]_ZV[VRZUQXSO[VR^YU\WS^YUe`\b]Y\WS]XTfa]d_[_ZVXSOVQM[VR`[Wb]Yb]Yc^Zd_[e`\fa]fa]d_[`[W\WS^YUa\Xd_[fa]gb^id`kfbojflgcniegb^hc_id`kfbkfblgcid`fa]a\Xb]Ygb^b]YZUQYTP]XU_ZW`[Xa\Yb]Zc^[b]Z`[X^YU_ZVb]Ye`\fa]c^Z]XTXSO^YU`[Wb]Ya\X_ZV^YU]XT\WS`[Wa\Xc^Ze`\fa]e`\gb^id`hc_gb^id`jeae`\^YU\WS_ZV^YU\WS\WS^YU^YU[VRZUQZUQ]XT]XT]XT]XT]XU]XU[VSXSPb]Zfa^jebjebhc_hc_gb^gb^fa]c^Za\Xb]Ye`\gb^e]Z`XU[SP^VS`XU`XUcZUd[V`WRZQLVMFSJCLE?<71# 
	   
.-)KGDTPM[VRd\Yf\ZdZXc[XZROID@3.* 	        (((??=PPNXYT]YVJFC%! '%&0./><=JHIONLMLJSONYUT_[Zea^gb^gb^gb^gb^gb_e`]c^[`[X_ZWc^[gb_gb_e`]c^[e`]fa^idagb_b]Z^YV]XU^YV]XUZUR\WS_ZV^YU`[We`\e`\c^Zfa]lgcmhdmhdid`d_[a\X`[W`[Wd_[e`\d_[d_[e`\e`\`[W[VRYTP[VR]XT\WS\WS]XTa\Xe`\e`\kfbniejead_[_ZV\WSZUQ[VR]XTYTPYTP`[W_ZV[VR^YUb]Yb]Y^YUXSOWRNZUQ_ZVa\X_ZV]XT\WS\WS^YU^YU\WSZUQZUQ\WS_ZVb]Yb]Yb]Ye`\hc_niekfbpkglgcojfmhdlgcid`gb^hc_gb^e`\e`\gb^d_[_ZV\WS^YU^YU]XT_ZVb]Ye`\e`\c^Z`[X_ZW_ZWb]Zgb_gb__ZWWROZVS[WT^ZWa]Zb^[_[X^ZW]YV_[Xc_\gc`fb_fb_hdakgdkgdjeafa]e`\fa]fa]b]Y`[Wa\Xb]Y`[W^YU]XT]XT^YU^YU_ZV]XT]XT`[Wc^Za\Y[VSYTQ[VSc^[fa^idakfclgckfbgb^d_[c^Zb]Yb]Ye`\id`kfbjb_f^[c[Xe]Zd\YaYVf]XbYTPGBD;6D;6JA<C<6,'!     873RNK_ZVf^[g][g][e][\WTRMI?:6'$     (((CCAQQOXYT]YXHDC 
	%$"/.,986GFDNMKTSQVUSXTSZVU^ZWb^[c^Zfa]fa]fa]hc`fa^a\Y^YV^YVb]Zd_\fa^gb_d_\b]Zb]Zd_\e`]d_\a\Y^YV]XU^YV_ZW_ZV_ZVa\Xd_[fa]e`\b]Ya\Xd_[gb^jeakfbhc_c^Za\Xa\Xfa]fa]d_[`[W`[Wc^Zb]Y^YUZUQ]XT`[W`[W^YU^YU`[Wd_[gb^hc_jeaid`e`\d_[b]Y^YU\WS\WS\WS\WS^YU`[W^YU\WS\WS\WS^YU`[Wa\Xa\Xa\X`[W^YU]XT\WS\WS\WS[VRYTPWRN[VRZUQ[VR^YU_ZV`[Wa\Xc^Zid`id`niejeaniemhdlgchc_fa]gb^hc_fa]fa]hc_e`\`[W^YU_ZV_ZV^YU_ZVc^Ze`\e`\d_[c^[`[X]XU_ZWfa^idae`]^YV\XU[WT\XU_[X`\Y_[X^ZW^ZWa]Zea^hdaiebjfcmifmiflheid`e`\c^Zc^Zc^Za\Xa\Xc^Za\X`[W_ZV_ZV_ZV_ZVa\Xb]Y^YU\WS]XT_ZV_ZW[VS[VS]XUe`]d_\d_\fa^id`kfbhc_d_[a\X`[Wa\Xfa]kfbmhdkc`f^[g_\g_\f^[d\Yi`[aXSC:5,#.% 2+%.)#"
       	-,(IHDXTQa\Xjb_ia^c^[]XUXSOID@1.)         ***CCARRP[\W\XWGCB/.,986BA?KJHRQOYXV\[Y^ZY^ZY_[X`\Yc^Ze`\c^Za\Xc^[b]Z^YV\WT\WTa\Yd_\fa^fa^b]Z^YV]XU`[Xa\Ya\Y`[X^YV_ZW`[Xa\Yc^Zb]Yc^Ze`\gb^fa]b]Y_ZVa\Xd_[hc_kfbid`e`\c^Zc^Ze`\fa]c^Z`[W`[Wc^Zb]Y^YU\WS^YUb]Yc^Za\X`[Wa\Xc^Zfa]fa]hc_gb^e`\e`\e`\b]Y^YU^YU^YU^YU`[Wa\X`[W\WSZUQ\WS_ZVc^Zfa]e`\b]Y`[W\WS^YU^YU]XT^YU`[W_ZV\WS]XT]XT]XT^YU_ZV_ZVb]Yd_[fa]fa]kfbhc_kfbkfbjeafa]d_[d_[e`\d_[c^Ze`\c^Z`[W`[Wa\X`[W_ZV`[Wd_[gb^fa]d_[e`]`[X\WT]XUd_\idahc`d_\^ZW\XU\XU^ZW`\Ya]Za]Za]Zd`]fb_hdajfcmifokhokhlheid`gb^c^Z`[W_ZV`[Wa\Xb]Y_ZV_ZV`[W_ZV_ZV_ZV`[Wa\X]XT[VRZUQ\WS\WTZUR[VS]XUd_\c^[b]Zb]Zd_[fa]d_[a\X_ZV_ZVa\Xgb^mhdojfmebia^h`]ia^h`]f^[ib\_XR81+
      "!DC?SOL^YVjb_ia^c^[]XU[VSRMJ<85     )))BB@SSQ]^Y\XWFBA
'&$=<:FECKJHRQOXWUa]\c_^c_\b^[`\Y`\Yd_[d_[a\X]XT]XU]XU[VS[VS[VSa\Yfa^idahc`c^[\WTZUR]XU_ZW_ZW_ZWa\Yc^[e`]fa^hc_e`\e`\gb^id`fa]a\X]XT]XT_ZVc^Zgb^gb^fa]e`\e`\c^Zd_[c^Zb]Yc^Ze`\d_[a\X]XT^YU`[Wb]Yb]Ya\Xb]Yc^Zb]Yc^Zd_[d_[d_[e`\e`\d_[`[Wa\Xa\Xa\Xc^Ze`\c^Z_ZVYTP[VR^YUc^Zfa]fa]c^Z_ZV\WS`[Wa\X^YU`[Wd_[d_[a\X`[W_ZV_ZV_ZV^YU^YU`[Wd_[c^Zd_[hc_c^Zfa]fa]fa]c^Zb]Yb]Yc^Z`[W_ZVa\Xb]Yb]Yc^Za\Xa\Xa\Xb]Yfa]id`gb^d_[e`]a\Y]XU^YVd_\hc`gb_d_\`\Y_[X_[X`\Ya]Zb^[c_\d`]d`]ea^fb_gc`jfclhekgdiebjeaid`e`\`[W^YU^YU_ZV_ZV^YU`[W`[W_ZV^YU^YU^YU^YU]XT\WS\WS]XT\WTZURZUR\WT^YVb]Ze`]c^[`[W^YU^YU^YU_ZV_ZVa\Xfa]jealgcnfcmebh`]h`]g_\bZWd]W[TN5.( 

       >=;PLIXTQa\Xc^Za\YYTQXSPUPMD@='# 
	     %%%@@>SSQ\]XYXVFBA0/-HGENMKRQOYXV]\Zc_^c_^b^[b^[b^[c_\e`\d_[`[W\WS[VSYTQXSPZUR[VSa\Ygb_jebjebd_\]XU[VS\WT]XU^YV_ZWb]Ze`]hc`hc`id`gb^gb^hc_hc_e`\`[W]XT[VR[VR^YUb]Yd_[e`\d_[d_[`[Wb]Yc^Zd_[fa]hc_hc_e`\^YU\WS\WS^YUa\Xb]Yc^Zd_[`[Wa\Xa\Xa\Xc^Zb]Ya\Xb]Y_ZVa\Xb]Yb]Yc^Ze`\e`\b]Y\WS\WS[VR]XTa\Xd_[c^Za\X`[Wc^Zd_[b]Ya\Xc^Zc^Za\X`[Wa\Xb]Yb]Y`[W^YU`[Wc^Zfa]b]Yfa]`[Wb]Ya\Xb]Y`[W`[Wa\Xb]Y`[W_ZVb]Ye`\e`\fa]b]Yb]Yc^Zd_[gb^jeahc_d_[d_\a\Y^YV_ZWb]Ze`]e`]d_\c_\d`]ea^d`]c_\c_\d`]ea^c_\c_\b^[b^[c_\d`]ea^d`]hc_gb^e`\a\X_ZV`[W`[W_ZVa\Xb]Yb]Ya\X_ZV_ZV_ZV_ZV`[W`[W_ZV^YU[VSZURZUR\WT\WTb]Zfa^e`]`[W]XT\WS]XTbZWaYVbZWc[Xe]Zg_\jb_mebia^f^[aYV[SP]VPWPJ3,&  	      .-+D@=OKHYVQc^Z`[XYPQVQNUPMJFC1-* 		==;SSQ[\WYXVDCA431MLJTSQWVT]\Z`_]d`_b^]_[X`\Yc^[e`]d_[c^Z_ZV[VRZURWROUPMWRO\WTa\Yfa^hc`hc`c^[]XU\WT\WT]XU^YV_ZWa\Yd_\gb_gb_hc_gb^gb^gb^d_[`[W]XT\WSZUQYTPZUQ_ZVc^Zc^Za\X_ZV^YU_ZVa\Xd_[gb^hc_gb^fa]_ZV[VRYTP\WS`[Wa\Xa\Xa\X_ZVa\X`[W`[Wa\X^YU\WS^YU^YUb]Yb]Y`[W_ZVa\Xb]Ya\X`[W^YU[VRZUQ\WSa\Xd_[d_[d_[e`\e`\d_[a\X^YU^YU_ZV_ZVa\Xd_[e`\d_[b]Yb]Yc^Zjeab]Ye`\_ZV_ZV]XT^YU^YU_ZV`[Wb]Y`[W_ZVc^Zfa]fa]gb^b]Yc^Zc^Zd_[gb^kfbhc_d_[a\Y^YV[VS[VS]XU`[Xb]Zd_\gc`iebiebgc`d`]b^[c_\c_\b^[b^[`\Y_[X^ZW_[X`\Ya]Zc^Za\X`[W_ZV`[Wa\Xb]Yc^Zd_[e`\d_[b]Yb]Yc^Zc^Zb]Ya\Xa\X`[W\WSXSPWROYTQZUR]XU`[Xc^[d_\c^Zb]Ya\X_ZVc[XbZWaYVaYV_WT_WTbZWg_\g_\`XU[SPWOL\UOXQK4-'	   	


   	3/,FB?XUPeb]b\\\STYTQXSPOKH952
		775QQOYZUVUSA@>764NMKYXV]\Z^][a`^d`_b^]_[X^ZWa\Yc^[c^Zb]Y^YU[VRZURVQNSNKTOL]XUa\Yd_\d_\e`]a\Y]XU]XU]XU_ZW_ZW_ZW`[Xc^[e`]fa^gb^fa]e`\c^Z_ZV[VRXSOXSOWRNWRNYTP^YUb]Ya\X]XT[VR\WS\WS]XT`[Wb]Yb]Yb]Yb]Y`[W\WS[VR^YU_ZV^YU\WS\WS]XT_ZV]XT]XT^YUYTPVQM[VRc^Ze`\d_[^YU[VR]XT_ZV^YU^YU]XT[VRXSOYTP^YUb]Yc^Zfa]e`\e`\c^Z^YUZUQZUQ]XT\WS]XTa\Xc^Zd_[b]Y`[W_ZVc^Zb]Yfa]`[W`[W\WS\WS]XT^YUa\Xb]Y_ZV\WS_ZVb]Yd_[fa]d_[d_[c^Zb]Yfa]jeaid`d_[`[X\WTWROWROZUR]XUa\Yc^[hdaiebiebfb_c_\b^[b^[b^[d`]b^[`\Y_[X^ZW_[X`\Yb^[a\X\WSYTP[VR^YU`[Wb]Yd_[e`\e`\c^Za\Xa\Xd_[d_[b]Y`[Wa\X_ZVZUQWROWROWROWROZUR]XU`[Xc^[e`\fa]d_[a\Xe]Zd\Yd\YbZW^VSZRO[SP_WT_WTYQNWOLWOLZUOVQK2-'	 					   
 =<8UTOa^Y`ZZ_VW]XUZURQMJ@<9! 	220NNLZ[VPOM<;9"!#" :97ONL[ZX^][^][a`^d`]b^[`\Y`\Yb]Yb]Yd_[b]Y^YU\WS[VSXSPTOLTOL\WT_ZW_ZW_ZW`[X^YV]XU^YV_ZWa\Ya\Y`[X`[Xb]Zd_\e`]fa]b]Y_ZV]XT[VRXSOUPLSNJVQMVQMYTP\WS^YU\WSZUQYTPYTPXSOWRNYTPZUQ[VR]XT_ZV`[W]XT\WS]XT[VRXSOWRNYTPZUQ]XT[VR[VR\WSVQMTOK\WShc_id`d_[\WSXSOZUQ\WSZUQXSOZUQZUQWRNWRN[VR_ZVb]Ygb^gb^e`\a\XZUQWRNYTP]XT[VR[VR[VR^YU^YU\WSYTPWRNWRNb]Ygb^a\Xa\X\WS\WS\WS^YUc^Zd_[_ZVYTPZUQ^YUc^Zgb^e`\e`\b]Ya\Xe`\jeajeae`\b]Z]XUXSPWROZUR^YVa\Yc^[fb_hdagc`d`]b^[b^[b^[b^[ea^c_\a]Za]Za]Zb^[c_\c_\a\X[VRVQMWRN[VR]XT`[Wd_[c^Zc^Z`[W]XT^YUa\Xa\X_ZV`[W`[W_ZV\WSYTQYTQWROUPMVQNZUR_ZWc^[e`\e`\d_[a\Xg_\g_\g_\f^[aYVZROXPMYQNWOLTLIWOLWOLWRLRMG0+%
  		

	    762RQMVROYTQ\TR\WTXSPQMJFB?,+)!!!220POK_^ZLKI986$#!)(&>=;POM[ZX\[Y_^\`_]c_\b^[b^[b^[d_[d_[e`\c^Z_ZV]XT]XUZURUPMUPMWROZURZURZUR\WT[VS[VS]XU_ZW`[Xa\Y`[X_ZW`[Xb]Zc^[e`\_ZVYTPXSOYTPXSOTOKQLHUPLVQMXSOYTPYTPXSOYTP[VRWRNTOKRMISNJUPLWRNZUQ^YU_ZV]XT\WSZUQVQMRMITOKXSOZUQ]XT[VR[VR\WSWRNWRN`[Wjeaid`a\XXSOUPLXSOYTPVQMUPLXSOYTPWRNVQMZUQ_ZVb]Yhc_id`fa]^YUWRNVQMZUQ\WS^YU[VRYTPZUQZUQXSOTOKQLHPKGb]Yhc_d_[e`\a\X^YU\WS\WSb]Yc^Za\X\WSWRNYTP_ZVd_[fa]c^Z_ZV]XTb]Ygb^id`gb^c^Zb]Ya\X`[W]XUZUR\WT`[Xa\Ye`]hc`hc`fa^e`]d_\c^[c_\ea^ea^b^[a]Zc_\ea^ea^`[X]XUZURXSPYTQ[VS]XU^YV^YV^YV\WTZUR[VS^YVa\Yc^[a\Y_ZW]XU]XU`[Xa\Y[VSSNKUPLYTP]XT`[Wc^Ze`\c^Z_ZVe`]fa^idafa^_ZV[VR[SPYQNWOLZROZROXPMZUQNIE'"   


	
   431POMSONUPMZROWRNQLHJFCEA>653%$"%$"21/0/-)(&('%875SOL\XUHDC2.-+'&40/@?=TSQ]\Z\[Y`_]`_]b^[a]Zc^[d_\e`\d_[e`]b]Z`[X^YV]XU\WTZURXSPZURWROUPMVQNXSPYTQ[VS]XUb]Za\Yb]Za\Y]XU^YV`[W`[W_ZVXSORMISNJXSOYTPVQMSNJSNJXSOXSOWRNYTP[VR[VR\WSWRNTOKSNJUPLXSOZUQ\WS^YU^YU`[W`[W\WSWRNTOKWRN[VR^YU\WSXSOVQMXSO\WS^YU]XTe`\c^Z_ZVYTPVQMVQMWRNWRNVQMVQMXSOYTPZUQ]XT`[Wc^Zjeakfbgb^_ZVXSOXSO]XTa\Xa\X`[W]XTZUQXSOXSOVQMSNJOJFe`\id`c^Zfa]d_[c^Z^YU\WS_ZV`[W`[W\WSWRNXSO^YUc^Zd_[b]Y`[W^YUa\Xe`\gb^fa]fa]gb^gb^d_[_ZW\WT]XU_ZWb]Ze`]hc`idaidajebjebidafb_hdahdad`]a]Za]Zb^[c_\^YV^YV\WTYTQXSPZUR[VS[VSZURZURZURZUR[VS^YVb]Ze`]d_\a\Y]XU[VS_ZWa\Y^YVYTQXSO\WS^YU^YU^YU_ZV^YU]XT`[Xc^[idaidab]Y\WS^VS_WT`XUaYV`XU[SPVQMC>:   			
	   534SQRXTSXSPWOLOJFFA=A=:?;8431&%#/.,<;9=<:764510@<;UQNXTQA=<($#&"!621EDBUTR]\Z^][_^\`_]c_\b^[b]Zd_\e`\e`\d_\c^[`[X^YV]XU\WT[VSZUR\WTVQNQLIRMJUPMYTQ\WT_ZWa\Y`[Xa\Y_ZW\WT\WT_ZV_ZV`[WZUQSNJRMIVQMYTPXSOUPLRMIWRNXSOXSO[VR\WS[VR[VRXSOUPLTOKVQMZUQ\WS\WS\WS^YU_ZV`[W^YU\WSZUQ[VR]XTZUQZUQWRNVQMWRN\WS^YU^YU^YU^YU]XTZUQWRNXSOYTPZUQXSOWRNVQMWRNYTP[VR`[Wd_[kfbjeafa]_ZVZUQZUQ]XT_ZVd_[d_[`[W\WSYTPXSOVQMTOKSNJe`\hc_c^Zfa]e`\d_[_ZV\WS^YU_ZV`[W^YUXSOVQMZUQa\Xb]Yc^Zb]Y`[W`[Wc^Zd_[d_[fa]hc_id`e`\a\Y`[Xa\Yc^[d_\fa^hc`jeblgdnifojgniflhemifjfcc_\^ZW]YV^ZW_[X]XU`[X`[X\WTZUR[VS[VSZURXSPWROXSPZUR\WT^YVb]Zfa^gb_d_\^YV\WT_ZWb]Za\Y^YV]XTb]Ye`\b]Y^YU\WS\WS\WS[VS_ZWgb^kfbd_[_ZVbZWe]Zg_\g_\f^[aYVTOL830    	         555TRS[WVVQNKFB?:683/62/952542-,*764CB@GFDDCA@<9HDAYTQUPM732 954IHFUTR]\Z_^\a]\c_^d`]c_\b]Zc^[d_[d_[e`]d_\a\Y_ZW\WT[VS[VS\WT^YVWRORMJTOLYTQ]XU`[Xa\Y`[X_ZW`[X_ZW\WT[VS^YU^YU_ZV[VRUPLQLHSNJXSOYTPXSOVQMZUQ[VR[VR^YU^YU\WS\WS[VRYTPVQMWRN\WS`[W_ZV\WS]XT^YU_ZV`[W`[Wa\Xa\Xa\X_ZV_ZV\WSYTPYTP\WS_ZV_ZVWRNZUQ\WSZUQXSOZUQ]XT`[W]XTZUQXSOXSOXSOYTP]XTc^Zhc_gb^d_[_ZV\WS\WS\WS]XTe`\e`\b]Y]XTYTPYTPYTPXSOXSOc^Zid`fa]hc_d_[c^Z_ZV]XT^YU_ZVb]Yb]Y[VRUPLVQM]XTb]Yd_[d_[b]Ya\Xb]Yb]Ya\Xa\Xd_[e`\c^Za\Yb]Zd_\e`]d_\fa^gb_jeblgdojgqliqliplimifhda`\YZVSYUR[WT]YV_ZWc^[d_\`[X^YV^YV^YV\WTYTQWROXSP[VS^YV_ZWa\Yd_\hc`fa^b]Z`[Xa\Yd_\b]Z^YV`[Wfa]jeagb^a\X]XT\WS[VRYTQ[VSc^Zid`fa]a\Xe]Zia^ia^ia^jb_e]ZTOL4/,	          666SQRXWUNIF?:61,(-($0,)841;:8;:8@?=GFDKJHLKIHDAOKH\WTQLI.*);76IHFSRPZYW^][b^]c_^d`]c_\c^[b]Zc^Zc^Zc^[c^[a\Y^YV[VSZURZUR[VS]XUZURXSP[VS_ZWa\Ya\Ya\Y`[X_ZW`[X`[X]XU\WT]XT]XT_ZV^YUYTPTOKTOKYTP^YU_ZVa\Xc^Zb]Ya\Xb]Ya\X^YU]XT_ZV]XTYTPZUQ_ZVe`\d_[`[W^YU^YU_ZVa\Xd_[fa]e`\d_[d_[d_[`[W[VRZUQ\WS]XT\WSVQMYTP[VRYTPWRNYTP_ZVe`\b]Y^YU\WS]XT[VRXSOYTP]XTa\X`[W_ZV^YU]XT\WS\WS\WSa\Xb]Ya\X\WSZUQ[VR]XT^YU_ZVd_[kfbhc_id`e`\c^Z_ZV\WS[VR^YUc^Ze`\_ZVVQMVQM\WS`[Wc^Zd_[c^Zb]Yc^Zb]Y`[W_ZVb]Yc^Zb]Yb]Zd_\d_\b]Zb]Zc^[d_\fa^hc`jeblgdmhejfcgc`b^[\XUYURZVS\XU]YVa\Yd_\e`]b]Za\Ya\Y_ZW\WT[VSXSPWRO[VS_ZWa\Yb]Zc^[e`]fa^fa^e`]fa^gb_c^[^YV_ZVe`\id`gb^b]Y_ZV]XT[VRZUQXSO]XTd_[e`\d_[h`]jb_ia^ia^hc_c^ZTOL4/,	       999RPQXWUMHE=84.+&+(#.*'841A@<GFBIHDNMIRNKTPMRMJVQNZURIDA%! !<87GFDQPNXWU]\Za]\b^]c_\c_\d_\c^[c^Zd_[a\Ya\Y_ZW]XU[VSYTQYTQYTQ[VS[VS\WT^YV_ZW_ZW`[Xa\Y_ZW^YV_ZWa\Y^YU]XT^YU^YUa\Xb]Ya\X\WSZUQ^YUd_[hc_kfblgcjeahc_gb^c^Z_ZV]XT`[W^YU]XT_ZVe`\jeahc_c^Za\Xb]Yc^Ze`\gb^id`fa]c^Z`[W`[W^YUYTPXSOZUQYTPVQMSNKWROYTQWROTOLWRO^YVc^[b]Za\Ya\Ya\Y^YVYTQWROXSPYTPZUQ\WS^YU^YU]XT]XT]XT^YU`[W`[W]XT\WS_ZVb]Yd_[fa]e`\jead_[gb^fa]e`\^YUWRNXSO\WSc^Ze`\`[WXSOWRN\WS^YUa\Xb]Yb]Yb]Yc^Zb]Ya\X`[Wb]Yd_[fa]gb_hc`fa^c^[a\Y`[X_ZW_ZW^YV^YV_ZW`[X_[X^ZW\XU[WT[WT]YV]YV]YVb]Zc^[c^[b]Zb]Za\Y^YV[VS\WTYTQWROZUR`[Xd_\d_\c^[d_\gb_hc`idajebidafa^a\Yc^Zhc_jeahc_e`\d_[d_[d_[^YUYTP[VRa\Xd_[fa]ia^ia^ia^h`]fa]a\XRMJ3.+          !!!:::PNOXWURNKE@<8501.).*'3/,=<8GFBLKGPOKUQNZVS[VS[VSVQN@;8)%$@<;JIGRQOWVT]\Z_[Z`\[a]Zc_\d_\c^[c^Zd_[`[X^YV]XU\WT\WT[VSZURYTQ[VS[VSZURZURZUR\WT_ZWb]Z]XU[VS]XU_ZW]XT\WS]XT^YUa\Xc^Ze`\b]Y_ZV`[We`\jeanieojfmhdkfbjead_[]XTZUQ^YU]XT^YUb]Yhc_kfbhc_c^Zd_[gb^jeakfbkfbjeagb^c^Z_ZV_ZV]XTYTPYTPZUQVQMOJFNIFRMJVQNUPMSNKUPMYTQ]XU^YV_ZW`[Xa\Y_ZW[VSYTQXSPVQMXSO[VR^YU^YU]XT]XT^YU^YU`[Wa\X_ZV^YUa\Xe`\fa]d_[_ZVe`\a\Xd_[fa]fa]_ZVXSOZUQ^YUc^Ze`\`[WYTPWRNZUQ]XT_ZV`[W_ZV_ZV`[Wb]Yb]Ya\Xb]Yd_[gb^idahc`gb_gb_c^[`[X\WT[VSYTQWROUPMUPMXTQXTQYUR[WT]YV^ZW^ZW^ZW`[X_ZW_ZWa\Ya\Y`[X^YV^YV^YV\WTZUR[VS`[Xfa^fa^d_\d_\fa^fa^fa^fa^gb_e`]b]Ze`\hc_id`hc_gb^hc_jeajead_[_ZV^YU`[Wb]Wd_Yh`]f^[c^Za\Xb]Z_ZWRMJ1,)	             			--->>>MKLWVTXTQPMHHE@?<741,1.);74D@=KGDRNKTPM[WT_ZW[VSQIG72/0/-EDBSONWSRYUT`\[]YX^ZY`\Ya]Zb]Z`[X`[Wa\X]XTZUQXSOYTP[VR]XT\WSZUQYTPXSOWRNVQMWRN[VR_ZVa\XZUQWRNXSOZUQYTPYTP\WS]XT_ZVa\Xc^Zd_[a\X^YU`[We`\id`jeaid`hc_hc_c^Z\WSXSO\WS\WS]XTb]Yfa]fa]d_[c^Ze`\id`mhdlgckfbjeahc_fa]gb^d_[^YUYTPZUQ\WSWRNOJFLGDPKHTOLTOLTOLTOLVQNWROXSP[VS\WT\WT\WT\WT\WT[VSZUQ[VR\WS^YU]XT\WS]XT^YU^YUa\Xb]Y`[W`[Wb]Yd_[e`\^YUYTPa\Xa\Xe`\e`\gb^c^Z^YU^YUb]Ye`\d_[^YUXSOVQMWRN]XT_ZV_ZV\WS[VR]XT`[Wa\Xc^Zb]Yb]Yd_[d_\c^[d_\fa^d_\`[X\WT[VSZURXSPVQNUPMVROWSPYUR[WT\XU]YV^ZW_[X^YV\WT]XU`[Xb]Za\Y`[Xb]Z`[X`[X]XU\WT`[Xfa^gb_d_\c^[c^[a\Y^YV^YV`[Xa\Y`[X`[Wc^Ze`\d_[c^Ze`\gb^hc_hc_d_[b]Ya\X`[Ub]We]Zc[X]XT[VR^YV`[XSNK/*'           '''888BBBMKLVUS[WTXUPVSNMJE=:541,:63C?<JFCSOLUQN\XUa\YZURKCA0+("!653LKIZVUYUTWSR`\[\XW^ZY`\Y`\Y_ZW\WT\WS^YUXSOUPLRMITOKXSO[VR[VRYTPVQMUPLSNJUPLXSO\WS]XT]XTXSOTOKTOKVQMVQMWRNZUQ]XT^YU^YUa\Xd_[a\X\WS[VR_ZVd_[e`\c^Zc^Zd_[`[W[VRYTP\WS[VR[VR_ZVb]Yb]Ya\Xb]Yd_[hc_lgcjeahc_id`jeakfblgcfa]\WSUPLWRN\WSXSOQLHNIFQLITOLTOLTOLTOLTOLUPMUPMXSPYTQWROXSP[VS^YV^YV_ZV]XT]XT]XT\WS[VR\WS]XT^YU`[Wa\X`[W_ZVa\Xc^Zc^Z\WS[VRc^Za\Xd_[c^Zd_[a\X_ZVb]Yd_[e`\d_[a\X[VRVQMSNJYTP]XT_ZV_ZV^YU^YU_ZV_ZV\WS_ZVb]Yc^Zb]Z`[X`[Xa\Ya\Y_ZW]XU[VSXSPWROWROYTQWSPXTQVROUQNZVS^ZW]YV\XUYTQXSPYTQ\WT_ZW_ZW_ZW`[X]XU[VS[VS\WT_ZWd_\fa^c^[_ZW^YV[VSWROVQNWROZUR[VS[VRZUQ\WS]XT\WSZUQ]XTb]Yd_[d_[a\X^YU]XR\WQaYVh`]^YUZUQ`[X]XUQMJ0,)            555???FFFPNOQPNZVS]ZU]ZUURMHE@@=8B?:HE@ROJSPKVQN\WTa\YZURE=;-(%"('%=<:RQO]YX]YX\XW\XW\XW]YX`\Ya]Z\WTTOLTOKYTPXSOYTPXSOUPLUPLWRNXSOVQMSNJSNJRMITOKYTP]XT]XT\WSZUQTOKPKGRMIUPLVQMWRNXSOXSOYTP\WS^YU]XTYTPWRNXSO_ZV`[Wa\Xa\X`[W_ZV^YU]XTZUQWRNWRNZUQZUQYTP\WS`[W`[Wc^Zd_[c^Zb]Yb]Yb]Yb]Yc^Z`[WYTPSNJTOKXSOYTPUPLUPMUPMTOLTOLUPMUPMSNKQLIRMJSNKSNKRMJUPMZUR_ZW`[X^YV_ZW_ZW^YV`[Xb]Za\Y]XU[VS^YV_ZW_ZW^YV^YV_ZW_ZW[VR]XTe`\b]Yb]Y^YU^YU\WSZUQ]XT`[Wc^Zd_[b]Y]XTYTPWRNXSOZUQ]XT_ZV_ZV_ZV^YU\WSZUQ^YUb]Yb]Y_ZW]XU_ZWb]Za\Y_ZW\WTYTQVQNVQNXSPZURYURXTQVROVROZVS]YV[WTYURTOLTOLVQNXSPYTQXSPXSPYTQXSPYTQZURYTQYTQ]XU`[X_ZWZURZURXSPUPMTOLUPMXSPYTQYTPXSOZUQ\WS\WSZUQZUQ\WS`[Wa\X^YU\WS[VPYTN]URbZW_ZV]XTa\Y\WTQMJ/+(              555???EEEOMNRQOXTQ[XS]ZUYVQPMHJGBLIDQNIWTOWTOYTQ]XUb]ZYTQB:8(# ($#10.GFDYXVb^]a]\`\[_[Z]YX^ZY`\Y`\Y[VSTOLRMIUPLWRNYTPYTPWRNYTP\WS[VRWRNUPLUPLWRNYTP[VR]XT\WSYTP[VRTOKOJFPKGSNJUPLVQMWRNWRNXSOYTPYTPWRNTOKSNJSNJXSOZUQ^YUa\X`[W^YUZUQWRNUPLUPLWRN[VRZUQWRNXSOZUQ\WS]XT]XT\WS[VRZUQZUQYTPZUQYTPVQMSNJSNJUPLUPLSNJTOLUPMVQNVQNXSPXSPVQNSNKOJGQLISNKUPMWROZUR[VS\WT`[X`[X`[X_ZWa\Yc^[c^[a\Y]XU_ZW`[X_ZW\WTZUR[VS]XU\WS\WSc^Z_ZV_ZV[VR\WSZUQYTPYTP]XTb]Yd_[c^Z`[W]XTZUQVQMXSO\WS`[Wc^Zc^Z_ZV[VRYTP^YUb]Y`[W\WTZUR]XUb]Za\Y`[X^YVZURXSPXSP[VS]XU\XUZVSXTQYUR\XU]YVZVSVROQLISNKVQNVQNUPMUPMTOLTOLTOLUPMVQNVQNUPMYTQ[VSYTQWROXSPXSPVQNTOLTOLVQNWROYTPXSOZUQ^YU_ZV]XTZUQXSOZUQ\WS\WS[VR[VRZUQ[VR_ZVb]Ya\Xa\X[VRRNK1-*            333===CCCNLMRQOVRO[VR_ZV^YUZUQVQMWRNZUQXSOZUQZUQ]XTb]ZYTQ>96&!*&%986POM^][c_^a]\`\[`\[a[[b\\c^[a\Y\XUWSPSPKSPKXSP[VS]XU^YV`[Xc^[`[X\WTZURZUR[VS[VS\WT]XU\WTZUR[VRVQMQLHPKGSNJTOKUPLUPLWRNVQMVQMUPLSNKQLIPKHQLIQLHTOKXSO\WS\WSZUQVQMTOKTOKUPLXSO[VRYTPUPLTOKWRNYTPYTPYTPXSOWRNWRNVQMUPLUPLVQMVQMVQMTOKSNJRMIQLHSNKUPMWROXSPXSPXSPVQNTOLOJGOJGQLISNKUPMWROYTQ[VS`[Xa\Ya\Y`[Xa\Yd_\fa^fa^a\Ya\Yb]Z`[X[VSXSPZUR_ZW_ZV[VRa\X]XT^YU\WS^YU\WSZUQWRN[VRa\Xd_[d_[a\X]XT[VRXSOYTP]XTb]Yhc_jeae`\_ZV[VR^YUa\X`[W\WTZUR]XU`[X_ZW`[X_ZW]XUZURZUR]XU^YV^ZW]YV^ZW^ZW^ZW^ZW[WTVROQLIVQNYTQXSPVQNVQNVQNUPMSNKPKHQLIUPMXSP[VSZURWROZUR]XU_ZW[VSWROTOLUPMWRO[VR[VR]XT`[Wb]Ya\X]XTYTPWRNZUQ\WS[VR[VRZUQ\WSa\Xd_[d_[a\XZUQUQN730       ---888???KIJQPNUPMYTP]XT^YU\WSYTPZUQ[VRWRNZUQYTP[VR`[XUPM<74'# ,('?><TSQ\[Y_[Z^ZY^ZY_[Zc]]d^^d_\c^[_[X]YVYVQVSN[VS_ZWc^[d_\fa^hc`e`]a\Y`[X_ZW^YV\WT[VS\WT]XU]XUZUQXSOVQMUPLTOKSNJSNJSNJVQMUPLUPLTOKSNKRMJRMJSNKPKGQLHSNJTOKUPLUPLTOKSNJUPLVQMXSOYTPVQMRMISNJWRN[VR\WS]XT\WS[VRZUQZUQYTPYTPYTPYTPYTPVQMRMIPKGQLHSNKUPMWROXSPWROWROVQNTOLQLIPKHPKHSNKUPMUPMWROZUR_ZWa\Yc^[a\Y`[Xc^[gb_idae`]c^[b]Z`[X[VSXSP[VSa\Yb]Y^YUd_[_ZV`[Wa\Xb]Y^YUZUQVQM[VRa\Xd_[d_[a\X^YU]XT\WS]XT`[We`\lgcojfkfbfa]`[Wa\Xb]Ya\X`[X_ZW^YV_ZW]XU_ZW_ZW\WTZUR[VS]XU_ZW_[X`\Yc_\a]Z^ZW_[X^ZWXTQSNKXSP[VSZURWROWROVQNUPMRMJNIFQLIYTQ]XU]XU\WT[VSa\Yfa^hc`c^[\WTWROWROXSP[VR\WS^YU`[Wa\Xa\X^YU[VRYTQ^YV^YU[VRYTPWRNYTP^YUc^Zd_[`]X\YT[WT?;8
           $$$222<<<IGHPOMUPMXSO[VR[VRYTNWRLWRLXSMYTN[VPWRNVQMWROKFC72/+'$3/.FECWVTZYW]YX\XW]YX_[Zc]]d^^d_\b]Z`\Y_[X\YTYVQ]XUb]Zfa^gb_gb_hc`fa^c^[b]Zb]Z`[X^YV]XU\WT\WT[VSWRNZUQ\WSZUQWRNSNJRMIQLHUPLUPLUPMTOLRMJRMJRMJSNKQLHQLHQLHQLHQLHQLHPKGPKGQLHRMIUPLVQMTOKQLHRMITOK]XTa\Xc^Zb]Y`[W_ZV`[Wa\Xb]Y_ZV]XT\WSXSOSNJQLHRMIVQMYTPZUQZUQYTPZUQ[VR[VRVQMTOKUPLXSOYTPXSOWRNXSO]XUb]Ze`]d_\a\Yb]Zfa^jebhc`d_\a\Y^YV[VSYTQ\WTb]Zb]Zb]Yfa]a\Xc^Zd_[fa]a\X[VRWRN\WSb]Yfa]fa]d_[b]Ya\X`[Wa\Xc^Zgb^lgcnielgcid`d_[c^Zc^Zb]Yb]Za\Y_ZW^YV\WT_ZW_ZW\WTZUR\WT_ZWb]Z`\Yb^[d`]`\Y[WT_[Xa]Z[WTVQNZUR\WTZURWROUPMUPMUPMTOLSNKYTQ`[X`[X]XU^YVa\Ye`]jeblgdgb__ZWZURYTQZURZUQ\WS^YU]XT]XT^YU]XT[VR]XUa\Ya\X\WSYTPWRNXSO\WS`[Wa\X`]Xa^Yb^[HDA           			)))666ECDQMLWROZUQ\WSZUQVQKTOITOITOIUPJVQKPKGMHDLGD?:71,)/+(;:8MLJWVTXWU[WV[WV[WV^ZYb\\b\\`[X_ZW\XU[WTYVQWTO[VSa\Ye`]e`]d_\e`]c^[a\Y_ZW`[Xa\Y`[X_ZW^YV[VSXSPWRN[VR^YU\WSYTPVQMTOKSNJVQMXSOXSPUPMRMJQLIRMJRMJQLHQLHRMISNJSNJQLHNIEKFBKFBMHDQLHTOKUPLSNJRMIRMIZUQ_ZVb]Yb]Y`[Wa\Xd_[fa]gb^d_[b]Y`[W\WSWRNTOKSNJZUQ\WS^YU]XT]XT_ZVb]Ye`\a\X]XTZUQYTP[VR[VR[VRZUQ\WTa\Ye`]e`]b]Za\Yd_\hc`idae`]a\Y^YV\WT[VS]XUa\Y`[Xb]Ygb^a\Xd_[e`\fa]a\X\WSXSO\WSb]Yfa]fa]e`\d_[d_[c^Zd_[fa]gb^hc_id`hc_fa]d_[c^Za\X`[W_ZW^YV]XU[VSZUR^YV`[X]XU[VS]XUa\Yc^[`\Yb^[c_\\XUVRO_[Xea^^ZW\WT]XU^YV^YV[VSXSPXSPZUR]XU^YVc^[d_\a\Y_ZW`[X`[Xc^[gb_hc`e`]`[X\WTZURZUR[VR^YU_ZV]XT\WS]XT]XT\WS`[Xc^[a\Y]XU[VRZUQZUQ\WS]XT^YU`]Xda\eb]PMH$#      +++<:;KGFUPMZRO\TQXPMRKEOHBMF@NGAKF@LGAHC?GB>E@=61.*&#/+(@?=NMKTSQSRPYUTZVU[UU]WW_YY^XX\WTZURVROTPMTQLTQLYTQ^YVb]Zb]Za\Yb]Z`[X]XU[VS]XU^YV^YV_ZW_ZW]XUZUR[VR]XT^YU\WS[VR\WS\WSZUQ\WS^YU]XUYTQTOLRMJTOLVQNUPLVQMWRNYTPYTPXSOUPLSNJPKGPKGQLHTOKVQMVQMVQMUPL[VR]XT_ZV]XT[VR[VR^YUa\Xc^Zd_[d_[c^Z`[W[VRWRNTOKYTP\WS^YU]XT\WS_ZVd_[gb^hc_b]YZUQWRNYTP^YU_ZV_ZVZUR^YVa\Yb]Z`[X_ZWa\Yd_\e`]c^[a\Y^YV]XU]XU^YV`[X^YVc^Zhc_b]Yc^Zb]Yc^Z^YUYTPVQM[VRa\Xd_[d_[c^Zb]Yb]Yd_[fa]gb^fa]e`\d_[c^Za\Xb]Ya\X^YU\WSZURYTQYTQYTQWRO\WT_ZW]XU[VS]XU_ZWa\Yb^[c_\b^[XTQSOL`\Yidab]Za\Ya\Yb]Zc^[a\Y^YV^YVa\Yfa^gb_hc`e`]b]Zc^[b]Z]XU_ZWa\Yc^[b]Z_ZW]XU[VSYTQ^YUa\Xa\X_ZV^YU_ZV_ZV^YUa\Yc^[a\Y]XU\WSZUQYTPZUQ\WS\WS_\Wda\fc^URM0-(
   
		   """423D@?PKHTOKWOLRJGKD>E>8D=7C<6C>8E@:D?;E@<C>;1,)$ +'$A@>MLJPOMPOMXTSZVUZTT]WW]WW[UUYTQWROSOLPLIQNISPKWRO\WT`[X`[X`[Xa\Y_ZW[VSZURZURYTQYTQ\WT_ZWa\Y`[Xa\X`[W]XT[VR^YUc^Zd_[b]Yb]Yd_[c^[]XUWROVQNXSP[VS\WS\WS]XT_ZV`[Wa\Xa\X`[W[VRWRNTOKSNJVQMYTP[VR\WS`[W`[W^YUYTPUPLTOKUPLWRN\WS`[Wd_[d_[a\X\WSWRNSNJVQMYTP[VRZUQYTP[VR`[Wd_[fa]a\XZUQWRN[VR`[Wa\X^YUXSPZUR\WT]XU]XU]XU^YV`[X_ZW_ZW_ZW]XU\WT^YV^YV^YV\WTfa]hc_^YU^YU_ZVc^Z^YUXSOXSOYTP[VR^YU`[Wa\Xb]Zd_\fa]d_[c^Za\X]XTYTPYTP[VR_ZV]XT\WS\WSZUQWRNUPLUPLUQNXTQXTQXTQ[VS\WT^YV`[Xfa^c^[^YVXSPXSP`[Xh`^e`]d_\c^[b]Zb]Zd_\gb_idaidalgdlgdidafa^d_\d_\b]Z^YVa\Ya\Yb]Za\Y[VSXSPZUR\WTa\Yc^[c^[`[X`[Xb]Zc^[a\Ya\Yc^[b]Z\WTZUR[VSXSPSNKWRO[VS^YV`[X_ZWXSP?:7    			


     )%$:65B>;OKHRMIHC?=842-)/*&61-<73B=9GB>JEAB=:,'$#-)&CB@LKISONTPOVRQYUT[UU^XX^YVYTQTOLSNKUPMUPMTOLSNKWRO]XU]XU^YVa\Ya\Y]XU^YV]XU[VSYTQXSPXSPZUR\WT_ZWe`\]XTVQMXSO^YUc^Zd_[c^Z_ZV`[W`[W^YU[VRYTPYTP[VR^YU`[W`[Wa\Xd_[e`\e`\gb^d_[c^Z`[W[VRYTP[VR^YU_ZV`[W`[W]XTXSOUPLTOKSNJRMITOK[VRb]Yd_[a\X[VRUPLRMIRMISNJUPLXSOXSOWRNWRNYTP[VSYTQYTQYTQZUR^YV^YVYTQUPMWROZUR\WT_ZW`[X]XUYTQXTQ[WTZVSWSPXTQYURZVS\XU[VSgb^id`_ZV]XT^YUd_[`[WZUQUPLWRNZUQ\WS^YU`[Wa\Yb]Zc^Z_ZV\WS[VRZUQWRNUPLUPL\WS\WS\WS\WSZUQWRNUPLVQMTPMVROUQNTPMXSP[VS_ZWc^[e`]b]Z^YVYTQ[SQbZXg_]e][`[X`[X`[X`[Xa\Yc^[e`]fa^idajebhc`fa^e`]e`]d_\a\Ya\Y`[X`[X_ZWYTQWROYTQZUR`[X`[X^YV\WT]XUa\Yc^[d_\fa^e`]b]Z\WTYTQYTQXSPUPMZUR\WT[VSZURYTQVQNE@=($!


  ".*)952C?<DA<;83/*&"!-($;62B=9HC?JEA?:7)$!$2.+IHFQPNWSRWSRXTSXTS[UU^XXZURUPMQLIQLITOLUPMSNKRMJUPMZUR\WT^YVb]Zb]Z_ZW_ZW^YV\WT[VSYTQXSPWROYTQ\WT_ZVZUQTOKTOKYTP]XT_ZV^YU^YU_ZV`[W_ZV]XT\WS]XT]XT^YU]XT\WS^YUb]Yb]Ya\Xb]Yfa]gb^d_[`[W]XT^YU^YU]XT\WS\WS\WSZUQYTPXSOVQMTOKRMIXSO_ZVb]Ya\X]XTXSOTOKTOKTOKUPLVQMVQMTOKUPLWRNWROVQNVQNVQNVQNYTQ\WT[VSZUR[VS\WT]XU^YV]XUZURVQNWSPXTQTPMRNKSOLUQNVROXTQZURgb^kfb`[W\WS[VRb]Ya\X\WSUPLYTP[VR\WS^YUa\Xa\Y`[X`[WZUQUPLVQMXSOXSOVQMVQMZUQ[VR\WS\WSZUQWRNVQMVQMSOLVROUQNSOLWROZUR^YVb]Za\Y_ZW]XUZUR]USc[Ye][aYW[VS]XU^YV^YV^YV_ZWa\Yd_\e`]e`]d_\b]Zb]Zc^[b]Z`[X\WT[VS\WT\WTYTQXSPZUR[VS`[X]XUZURXSPZUR^YVb]Ze`]idafa^a\Y\WTZURZURZURYTQYTQ\WT[VSZURWROVQNJEB2.+
	   			    !%! +'$3/,3/,*&#

"72.?:6HC?HC?941$$ 841MLJTSQZVSXTQVROUQNVQNYTQVQNRMJPKHQLITOLVQNTOLRMJSNKWROZUR]XUa\Ya\Y_ZW_ZW^YV]XU]XU[VSWROUPMUPMWROYTPWRNSNJQLHTOKZUQ^YU_ZV^YU_ZV_ZV`[W`[W`[W_ZV^YU^YU[VRXSO[VR_ZV^YU[VR\WSb]Ye`\fa]b]Y`[Wa\X`[W\WSXSOYTPYTPZUQZUQZUQXSOUPLPKGVQM]XTa\Xc^Za\X]XTYTPXSOXSOYTPXSOVQMUPLVQMXSOVQNTOLUPMTOLRMJSNKXSP[VS]XU]XU\WT\WT\WT\WTYTQUPMUQNTPMOKHNJGQMJTPMTPMUQNWROe`\kfbb]Y\WSYTP_ZV`[W]XTYTP\WS^YU]XT^YUa\Xb]Z`[X\WSVQMQLHSNJVQMYTPZUQ\WS[VR\WS]XT]XT[VRXSOVQMUPLSOLVROWSPWSPYTQZUR[VS]XU[VS[VS[VSZUR^VTbZXbZX]USWROZUR\WT\WT[VS[VS]XU`[Xa\Y`[X_ZW\WT\WT]XU\WT[VSWROWROYTQ[VSYTQZUR]XU_ZWa\Y]XUYTQWROVQNYTQ]XU`[Xb]Z`[X]XU\WT[VSZUR[VS[VSYTQ\WT\WT[VSXSPWROOJG952          $ #%!,(%+'$
  	2-)<73FA=D?;2-*%!>:7NMKUTRZVSXTQVROSOLRMJTOLUPMTOLSNKUPMWROXSPWROVQNTOLVQNXSPYTQ[VS\WT\WT\WT\WT\WT]XU\WTYTQUPMSNKSNKTOKUPLSNJOJFQLHXSO`[Wc^Z_ZV_ZV_ZV`[Wa\Xa\X_ZV]XT^YUZUQXSOZUQ^YU[VRWRNWRN[VR`[Wd_[b]Y`[Wa\X^YUYTPWRNWRNVQMVQMVQMVQMUPLTOKPKGVQM]XTa\Xd_[d_[a\X]XT[VR]XT^YU]XT[VRZUQ\WS]XTZURVQNVQNVQNSNKSNKVQNXSP\WT\WT[VS[VS[VS\WTZURXSPRNKPLILHELHEQMJSOLSOLTPMUPM`[Wid`c^Z]XTYTP]XT_ZV]XT]XT_ZV_ZW]XU]XU`[Xa\Y_ZWYTPUPLRMIRMISNJUPLZUQ^YU^YU_ZV_ZV^YU]XTZUQVQMSNJSNKXSPZURZUR\WT[VSYTQYTQYTQYTQ[VS[VS]XU_ZW]XUVQNSNKVQNYTQYTQWROWROYTQ[VS^YV\WTZURXSPWROXSPXSPWROWROVQNXSPXSPWROYTQ^YVa\Ya\Y_ZW\WTWROSNKSNKUPMXSPUQNTPMVROYURZVSZVSYURZVS]YV]YVYURWSPVROWSPTPMD@=      "! +'$2.+0,) 
#3.*=84FA=@;7*&#'# B>;POKUTPZVS[WTZVSXTQVQNVQNXSPYTQYTQZUR[VS\WT[VRZUQXSPWROWROVQNTOLUPMWROYTQYTQZUR\WT]XU[VSVQNSNKQLIRMIUPLTOKPKGPKGUPL\WS^YU^YU]XT^YU_ZV`[W_ZV^YU\WS]XT[VRYTP[VR]XTYTPUPLUPLWRN]XTa\X`[W_ZV^YUZUQUPLWRNVQMTOKQLHPKGQLHSNJUPLRMIXSO^YUa\Xb]Yb]Y`[W]XT\WSa\Xc^Zb]Y_ZV_ZV`[Wa\X_ZWZURXSPYTQWROVQNXSPXSPZUR[VS[VS[VS\WT]XU]XU\WTRNKPLILHELHEPLIRNKQMJRNKUPM]XTfa]b]Y_ZVZUQ]XT^YU^YU_ZV`[W_ZW]XU\WT^YV_ZW_ZW\WSYTPWRNUPLRMIRMIWRN]XTb]Ya\X`[W_ZV]XTZUQUPLQLHRMJWROYTQZUR[VSZURYTQYTQ[VS[VS\WT\WT\WT]XUZURTOLSNKUPMWROWROWROVQNXSPYTQ[VSZURXSPWROWROXSPXSPXSPVQNSNKSNKSNKSNKWRO]XU`[X_ZW`[X]XUVQNPKHPKHRMJSNKOKHQMJTPMXTQ[WT\XU[WT[WT^ZW]YVZVSYURXTQZVSYURKGD       	%$"&%#3/,;74952%!
-($940A<8FA=<73$ +'$FB?QPLUTP[WT]YV^ZW]YV[VS\WT[VS\WT]XU]XU^YV_ZW_ZV^YU[VSXSPWROVQNRMJSNKVQNWROWROXSPZUR\WT[VSXSPUPMSNKUPLWRNVQMSNJRMISNJUPLVQMYTPZUQZUQ[VR\WS\WS[VRZUQYTPYTPXSOYTP[VRYTPUPLUPLUPLZUQ^YU^YU]XT\WSYTPVQMWRNUPLRMIQLHPKGQLHUPLXSOYTP^YUb]Yb]Yb]Yb]Y_ZV[VR]XTb]Ye`\d_[b]Yb]Ya\X_ZV^YV[VS[VS[VSYTQYTQ[VS[VS[VS]XU^YV]XU\WT]XU]XU]XUVROUQNQMJPLISOLRNKPLIQMJUPM]XTd_[`[W_ZV[VR\WS\WS\WS\WS\WS\WT\WT\WT\WT]XU^YV_ZV^YU\WSZUQVQMTOKWRN\WSb]Yb]Ya\X^YU\WSYTPUPLQLHRMJVQNXSPYTQZURZURZUR[VS]XU\WT[VSZURYTQZURZURUPMUPMUPMVQNWROWROXSPXSPXSPZURYTQXSPYTQZURZURZURZURTOLPKHPKHRMJSNKVQNYTQYTQ]XU_ZW[VSTOLPKHRMJUPMUPMTPMUQNWSPYUR[WT]YV^ZW]YV\XU]YV\XU\XU[WT]YV[WTNJG('%        -,*431=98C?>B>;-)&50,>95C>:C@;52-/.*IHDQPLUTPYUR[WT]YV\XU\WT^YV\WS\WS\WS\WS^YU`[W`[W^YU\WSXSOXSOYTPVQMWRNYTPXSOVQMWRNYTP[VRZUQXSOWRNWRNYTPXSOWRNUPLTOKSNJSNJRMITOKUPLVQMVQMUPLUPLVQMWRNUPLWRNUPLTOKWRNXSOVQMVQMUPLWRNZUQ[VRZUQXSOVQMUPLVQMUPLTOKUPLVQMWRNZUQ\WSa\Xd_[fa]d_[c^Za\X]XTWRNZUQ]XT`[W_ZV`[Wb]Y_ZVZUQYTQ[VS_ZW\WTVQNWRO\WT_ZW_ZWa\Yc^[`[X]XU[VSZURZURYURZVSYURYURYURUQNQMJRNKSOL_ZVc^Z^YU^YU[VR[VRYTPYTPXSOXSOXSPYTQZURYTQZUR\WT_ZV^YU^YU]XTZUQWRNXSO[VRa\Xb]Ya\X]XTZUQXSOTOKRMIRMJWROXSPYTQZURZURZUR[VS]XU[VSZURXSPWROYTQZURWROUPMUPMUPMVQNWROXSPWROWROYTQYTQYTQ[VS\WT\WT[VSZURVQNRMJRMJUPMWROXSPVQNRMJ[VS]XUZURRMJPKHVQNZURYTQYURZVSYURYURZVS]YV^ZW^ZW^ZW^ZW]YV]YV[WT\XU\XURNK/.,
	 			   320?><HDCMIHKGD51.	83/?:6C>:@=8/,'32.LKGQPLUTPYURYURYURXTQYTQ\WT[VRZUQYTPZUQ]XTa\X`[W^YU\WSWRNYTP\WS[VR\WS]XTZUQWRNXSOYTPZUQYTPXSOXSOZUQ[VRXSOUPLTOKSNJSNJSNJTOKPKGRMISNJRMIPKGOJFQLHSNJRMITOKRMIPKGTOKWRNWRNVQMWRNWRNXSOYTPWRNSNJQLHQLHVQMUPLWRNZUQ\WS]XT]XT^YUe`\gb^fa]c^Zb]Y`[WZUQTOKUPLWRNXSOYTP\WS_ZV\WSUPLTOL[VSa\Y\WTRMJRMJ[VSa\Ya\Yd_\e`]b]Z\WTYTQXSPXSPXTQ[WT^ZW`\Y_[XXTQQMJQMJQMJ^YUc^Z]XT[VRXSOYTPXSOWRNVQNVQNWROXSPWROVQNXSP[VS_ZW`[X`[X_ZW]XUYTQXSP\WT`[X`[Xa\Y_ZW]XU[VSYTQWROWROYTQZURXSPYTQ\WT]XU]XU^YV_ZW\WTXSPYTQ\WT[VSXSPXSPUPMTOLVQNWROUPMTOLTOLVQNVQNXSP]XU`[X_ZW]XU\WTZURWROVQNXSPZURYTQTOLQLIYTQ]XU^YVYTQWROYTQ\WT\WT^ZW\XU[WT[WT[WT[WT]YV_[X`\Y`\Y_[X_[X^ZW\XUZVSXTQ986   


     653DCAKGFPLKRNKC?<"	841>:7;742.+!
984IHDQPLVUQ[WTZVSYURYUR[VSZUR]XT\WS\WS]XT_ZV^YU^YU]XTZUQ[VR]XT_ZV`[W^YU]XT]XTWRNSNJTOKXSOYTPZUQ[VRZUQ]XT^YU\WSXSOUPLTOKVQMXSORMIRMISNJSNJPKGLGCMHDQLHTOKUPLSNJPKGSNJZUQ[VRWRNXSOXSOXSOWRNUPLRMIQLHPKGWRNWRNYTP\WS^YU^YU_ZVb]Ye`\d_[e`\d_[b]Ya\X^YUZUQTOKRMIQLHUPL\WSa\X[VRSNJQLIWRO_ZW\WTRMJRMJZUR]XU_ZWa\Ya\Y]XUXSPUPMTOLTOLRNKXTQ`\Yd`]`\Y[WTVRORNKSOLb]Ye`\]XT\WS[VR]XTZUQWRNWROVQNVQNWROVQNUPMVQNXSPYTQ[VS[VS\WT\WTYTQYTQ]XU`[Xa\Y`[X_ZW\WT[VS[VS[VS]XU]XU[VSXSPXSP[VS]XU]XU]XU^YV]XUZURZUR\WT\WTYTQWROUPMTOLVQNVQNTOLSNKTOLTOLUPMWROZUR_ZWa\Y`[X_ZW\WTYTQWROYTQ\WT[VSXSPUPM]XUa\Yc^[^YV[VS\WT^YV^YV^ZW]YV[WTYURYUR[WT]YV^ZWa]Za]Z`\Y_[X^ZW\XU[WTZVS?><   





    /.,@?=IEDPLKVROMIF1-*0,)<8540-%!984FEAPOKVUQ\XU[WT[WT\XU\WTZUR[VR\WS]XT_ZV`[Wa\X`[W^YU]XT^YU`[Wa\X`[W_ZV^YU^YUVQMSNJTOKXSOYTPZUQ\WS\WSb]Yc^Zb]Y_ZVZUQWRNWRNXSOVQMUPLUPLTOKQLHNIEOJFSNJXSOWRNUPLRMIVQM\WS]XTXSOYTPZUQZUQYTPXSOWRNVQMVQMYTPXSOYTP]XT^YU]XT]XT_ZV_ZV^YU_ZV^YU\WS]XT^YU\WSWRNTOKSNJVQM]XTa\X\WSTOKPKHVQN^YV]XUSNKPKHUPMWROXSP[VS]XUZURUPMRMJQLIQLIRNKWSP^ZWb^[`\Y^ZW[WTWSPWSPb]Yd_[[VR\WS^YUb]Y`[X\WTWROVQNUPMUPMTOLSNKTOLTOLVQNWROWROXSP[VSZUR[VS`[Xa\Ya\Y`[X^YV\WT[VS]XU_ZWd_\b]Z^YV[VSZUR]XU^YV^YV[VS[VS[VS[VS[VS[VSZURZURXSPVQNVQNWROWROUPMUPMVQNUPMVQNVQNWRO[VSa\Yc^[a\Y_ZW\WTZUR\WT^YV]XU\WTZUR_ZWc^[d_\^YVYTQYTQ[VS\WT^ZW]YV[WTXTQXTQ[WT]YV]YVa]Za]Za]Z_[X]YV\XU[WT\XUEDB   						


   '%&=<:IEDOKHXTQUQN?;8$ %!2.+($! 997DDBKJFSRN[WT\XU\XU]YV\WTXSPXSP[VS_ZW`[Xa\Yb]Z_ZV]XT[VS^YVa\Yb]Za\Y`[X_ZW^YVXSPUPMVQNZURZUR\WT^YV^YVb]Yc^Zd_[a\X]XTYTPWRNWRNYTPWRNWRNVQMSNJQLHQLHSNJXSOWRNTOKSNJXSO_ZV_ZVZUQZUQ[VR[VR[VRZUQZUQZUQZUQZUQXSOYTP\WS]XT]XT[VR[VRWRNWRNWRNVQMTOKVQM[VR\WSYTPWRNVQMXSO^YU`[W\WSUPLRMJVQN\WT\WTUPMOJGPKHRMJRMJWROZURYTQTOLQLIOJGOJGPLITPMZVS\XU\XU_[X_[X\XUZUR^YUa\XYTP[VR^YUc^Zc^[a\YYTQWROVQNTOLTOLSNKRMJRMJUPMUPMSNKTOLXSPZUR\WTa\Y`[X`[X`[X^YV[VSZUR\WT_ZWe`]c^[`[X]XU^YV_ZW^YV\WTXSPWROXSP[VS[VSYTQXSPZURZURXSPXSPXSPWROWROXSPZURZURZURXSPUPMXSP_ZWb]Za\Y_ZW^YV^YV^YV^YV]XU\WT\WT`[Xc^[b]Z[VSUPMUPMXSP[VS]YV]YVZVSWSPWSPZVS]YV]YV`\Y`\Y`\Y^ZW]YV\XU\XU]YVMIH  			    <;9NJIPLITPMSOLA=:)%"
  886BB@DCAONJYUR[WT\XU]YV[VSVQNVQNZUR]XU^YV^YV^YV[VRXSOUPMYTQ_ZWa\Yb]Za\Y_ZW\WTYTQVQNWROZUR[VS\WT]XU]XU[VR\WS]XT]XT[VRXSOVQMVQMVQMVQMVQMVQMTOKRMIQLHRMIVQMTOKRMIRMIXSO^YU_ZV\WSZUQZUQ[VR[VR[VRZUQZUQ[VRXSOVQMUPLXSO[VR[VRZUQYTPTOKSNJSNJQLHNIERMIWRNYTPZUQZUQYTPZUQ]XT^YU[VRWRNVQNWROZUR[VSVQNPKHPKHRMJQLIVQNYTQYTQVQNSNKQLIPKHOKHSOLWSPXTQXTQ]YV`\Y]YVYTQYTP^YUYTQZUR[VS`[Xa\Ya\Y[VSZURXSPVQNUPMSNKRMJPKHQLIQLIPKHRMJVQNXSPZUR^YV_ZW_ZW`[X_ZW\WTYTQZUR]XUe]ZbZW_WT^VS]XT]XT[VRYTPVQMTOKUPLYTPXUPVSNURMWTOZURYTQWROVQNVQNWROYTQ[VS^YV^YVZURTOLUPM\WT`[X`[X^YV_ZW`[X`[X]XUZURZUR[VSa\Yc^[a\YZURTOLTOLXSP[VS\WT\WTZURXSPXSP[VS]XU]XUa\Y`[X_ZW_ZW^YV^YV^YV]YVQML($#            =<:PLKQMJQMJMIF>:7)%"
	 555>><?><JIGVROZVS\XU^ZW]XUWROWROXSPXSPVQNVQNVQNUPMSNKQLIVQN[VS]XU_ZW`[X^YV[VSVQNRMJRMJUPMXSPZURZURWROVQMTOKTOKUPLVQMUPLTOKTOKSNJSNJSNJSNJRMIQLHQLHRMITOKSNJRMIQLHTOKXSOYTPXSOUPLVQMWRNXSOXSOYTPZUQZUQWRNTOKSNJUPLXSOYTPXSOWRNTOKRMIQLHPKGNIEQLHVQMVQMYTPZUQ[VR[VR[VR[VRYTPWRNXSPXSPXSPXSPVQNSNKQLITOLQLITOLWROXSPXSPWROTOLRMJRNKUQNYURXTQUQNYUR\XU[WTXSPTOK[VRWROYTQYTQ]XU`[Xa\Y^YV^YV]XUZURWROUPMSNKQLIOJGQLIQLISNKVQNXSPYTQ\WT^YV^YV_ZW`[X]XUZURYTQ[VSd\Y`XU]UR[SPZUQ[VRZUQXSOTOKQLHRMIUPLURMSPKQNISPKZURXSPVQNUPMVQNWROYTQ[VS\WT]XUZURUPMTOLYTQ]XU^YV\WT^YV`[X`[X[VSWROWROYTQ^YV_ZW^YVXSPSNKRMJVQNYTQZURZURYTQYTQZUR[VS[VS\WT_ZW_ZW_ZW_ZW_ZW_ZW_ZW_ZWVRQ510              >><PLIRNKPLIHDA952($!
    444<<<;:8EDBRNKXTQ[WT]YV\WTYTQYTQVQNSNKPKHOJGPKHQLIQLIQLIVQNYTQYTQZUR]XU^YV\WTSNKOJGNIFQLIUPMYTQYTQVQNSNJPKGNIEOJFPKGPKGPKGQLHRMISNJSNJRMIQLHQLHRMISNJSNJRMIQLHPKGOJFOJFPKGOJFNIEOJFPKGQLHRMITOKVQMXSOVQMSNJRMITOKWRNYTPXSOVQMTOKRMIQLHPKGOJFRMIVQMUPLXSOZUQ\WS\WSZUQYTPXSOWRNVQNWROVQNVQNWROUPMRMJTOLRMJSNKUPMVQNWROWROVQNTOLSOLVROYURXTQUQNUQNWSPWSPXSPQLHXSOUPMXSPXSP]XU_ZW_ZW^YV`[X`[X]XUZURYTQWROVQNSNKUPMUPMUPMWROXSPYTQ\WT]XU]XU_ZWa\Y_ZW\WT[VS\WTaYV]URZROYQNXSOZUQZUQZUQWRNTOKRMITOKTQLSPKQNIQNIXSPVQNUPMUPMVQNWROXSPYTQVQNYTQYTQVQNTOLWROZUR[VSZUR\WT^YV^YVZURVQNVQNXSPYTQZURXSPTOLOJGPKHTOLWROYTQXSPYTQ[VS[VSZURYTQZUR\WT]XU^YV_ZW_ZW^YV_ZW_ZW[WV@<;     


         >><NJGROJPMHB?:2/*%"   224===<;9DCAPLKWSRZVUZVUZTTXRRYTQTOLPKHOJGPKHOJGOJGPKHRMJXSPZURWROWROZUR]XU]XUUPMPKHOJGQLITOLYTQ[VSYTQSNJPKGNIEMHDLGCKFBMHDOJFRMIUPLWRNWRNTOKSNJSNJTOKSNJRMIQLHPKGNIEMHDMHDMHDMHDMHDLGCKFBLGCNIERMITOKTOKSNJSNJUPLYTP[VRZUQXSOVQMTOKTOKSNJRMIUPLXSOWRNWRNYTP[VR[VRZUQXSOWRNVQMVQNXSPVQNUPMWROWROTOLTOLUPMVQNVQNUPMVQNVQNVQNUPMRNKSOLWSPZVSWSPUQNVROVROZURSNJYTPVQNXSPYTQ]XU\WT[VS]XU_ZWa\Y_ZW]XU\WT[VSZURYTQZURWROUPMUPMWROYTQ\WT]XU\WT^YVa\Ya\Y^YV\WT]XU[SPYQNWOLXPMXSOZUQ[VR[VR]XTYTPVQMWRNWTOVSNTQLSPKTOLSNKSNKSNKUPMVQNVQNUPMRMJVQNXSPWROUPMUPMWROYTQZUR[VS\WT\WTYTQWROWROXSPZURYTQVQNQLINIFOJGTOLYTQXSPWROXSP\WT]XUYTQXSPYTQYTQ[VS^YV_ZW^YV]XU^YV_ZW\XUGCB                >=;KJFSPKNKF<94+(#"
	
    002???A@>GFDRNMXTSZVUYUTXRRXRRVQNQLIPKHRMJTOLQLIOJGOJGPKHXSP\WTXSPUPMYTQ]XU]XUXSPSNKQLIQLISNKXSP\WT[VSUPLSNJPKGOJFLGCKFBMHDQLHSNJWRN\WS\WSYTPVQMTOKSNJTOKSNJSNJSNJRMIQLHPKGQLHRMIPKGMHDJEAJEAKFBOJFQLHRMIRMITOKWRN\WS^YU]XT[VRZUQYTPYTPWRNVQMXSO[VRZUQWRNXSOZUQ[VR[VRYTPWRNUPLXSP[VSWROTOLWROXSPVQNVQNZURZURYTQVQNUPMUPMVQNUPMPLIPLIVRO\XU[WTYURYURYUR[VSYTQ`[X[VS]XU\WT\WTZUR[VSZUR]XU_ZW_ZW_ZW_ZW_ZW]XU_ZW\WTYTQTOLQLIXSP^YV\WT\WT\WT[VS\WT\XU]YV\XUZVSZURWROTOLSNKSNKUPMYTQ]XU]YV[WTYURYURZVSZVSYURXTQSOLQMJPLISOLWSPXTQUQNRNKRMJQLIWROWROOJGOJGTOLSNK[SQ^VT^YV\WT[VS[VSZURXSP]XUZURVRORNKOKHOKHRNKTPMWSPWSPWSPXTQYTQYTQYTQXSPYTQZUR\WT]XU]XU\WT]XU_ZW_[XMIF         >=;MLHQPKKJF651%$   
-+,IGHMLJLKIRQOXWUXTSWSRYUTXTSTOLPKHPKHSNKQMJPLINJGLHEOJGTOLYTQZURYTQYTQ[VS]XUYTQXSPVQNUPMUPMWROXSPYTQWROWROSNKPKHNIFMHELGDOJGWRO\WT^YV^YV]XUYTQUPMUPMTOLQLIQLIUPMWROTOLSNKTOLUPMTOLRMJPKHPKHPKHQLIRMJSOLSOLTPMWSP\WT_ZW`[X`[X`[X`[X^YV\WT[VS]XU]XU\WT[VSYTQZUR\WT]XUZURXSPWROZUR[VS[VSZUR\WT^YV\WTXSP]US\TR^VT_WU\WT\WT\WTYTQUQNSOLUQNYURWVRVUQWVRYURYTQ^YVc^[]XU_ZW`[X`[X]XU]XUYTQ\WT^YV_ZW_ZW_ZW^YV]XUa\Y^YV[VSVQNTOLZUR_ZW]XUZURZUR[VS[VS[WT\XUZVSWSPVQNUPMUPMTOLSNKSNKWRO[VS[WT[WTYURXTQYUR[WT\XUZVSVROSOLQMJSOLVROXTQWSPTPMSNKRMJVQNWROPKHOJGSNKQLIXPN\TR^YV^YV]XU^YV]XU\WT\WTZURVROSOLQMJQMJRNKSOLWSPVROVROVROXSPYTQYTQYTQWROXSPZUR\WT]XU]XU_ZWa\Y`]XSPK*&#
      <;9ONJPOJGFB21-! 
	'%&ECDPOMPOMUTRWVTVRQVRQXTSVRQSNKPKHPKHSNKRNKQMJPLIOKHTOLWROZURZURYTQXSPXSPZURYTQYTQYTQWROUPMVQNYTQ[VSYTQZURXSPUPMQLINIFNIFRMJYTQ_ZWb]Zb]Z_ZWYTQUPMUPMVQNQLINIFQLIUPMVQNUPMTOLTOLTOLSNKSNKTOLUPMWROXSPWSPWSPWSPWSPZUR]XU_ZW`[Xa\Yb]Zb]Z`[X^YV^YV_ZW_ZW\WTZURZUR\WT]XU\WTXSPVQNWRO[VS_ZWb]Zb]Za\Y_ZW]XU^VT]US_WUaYW^YV_ZW_ZW^YVWSPUQNUQNVROPOKNMIPOKSOLUQNb]Ze`]]XU_ZWa\Ya\Y^YV]XUZUR\WT^YV^YV^YV^YV^YV]XU^YV]XU\WTYTQWRO[VS_ZW]XUWROXSPXSPYTQYURYURVROTPMRMJTOLWROWROUPMSNKUPMXSPYURYURXTQWSPYUR]YV^ZW[WTWSPTPMQMJRNKUQNXTQXTQWSPVQNTOLXSPXSPRMJRMJTOLRMJVQN[VS^YV_ZW^YV^YV]XU\WT\WT[VSXTQVROUQNTPMSOLSOLUQNTPMTPMUQNWROXSPWROVQNUPMUPMWROZUR]XU^YV_ZW`[Xa\XZUQ952           542NMIMLHCB>0/+ ! " ! B@APOMSRPVUSTSQSONUQPWSRUQPTOLQLIRMJUPMSOLRNKSOLSOLXSPYTQZURZURYTQVQNUPMUPMUPMXSPZURYTQUPMTOLWRO[VS[VS]XU]XUZURUPMNIFMHESNKYTQ_ZWc^[d_\b]Z\WTWROVQNWRORMJNIFNIFRMJVQNVQNUPMTOLTOLTOLUPMWROYTQ[VS\WT[WTZVSXTQVROWROXSP\WT_ZW`[Xa\Yb]Z_ZW]XU\WT]XU]XUYTQYTQYTQZUR]XU^YV[VSWROWRO\WTb]Ze`]d_\`[X]XU]XU]XU\WT^YV_ZW_ZW`[Xa\Y`[X[WTWSPVROTPMNJGKGDNJGPLISOLb]Ze`]\WT]XU_ZW`[X]XU]XU]XU]XU]XU\WT[VS[VS[VS\WTXSPZUR[VSZURYTQZUR[VSZURTOLUPMUPMUPMUQNUQNSOLQMJQLIUPMYTQ[VSXSPUPMTOLVQNUQNXTQXTQVROXTQ\XU\XUXTQTPMSOLQMJPLIRNKUQNWSPXTQZURYTQ[VSZURUPMUPMWROWROYTQ[VS]XU\WT\WT\WT\WT[VS\WT[VSYURXTQXTQWSPVROUQNSOLSOLSOLTPMUPMUPMSNKQLIRMJRMJTOLXSP[VS\WT\WT]XU^YU\WSEA>%!	 




      	
+*(EDBFEA=<8.-) 0./1/0B@ANMKSRPVUSRQOQMLUQPXTSVRQVQNTOLVQNXSPUQNUQNWSPXTQ[VSZURZURZURYTQVQNSNKRMJQLIUPMYTQZURVQNUPMWROZUR\WT^YV_ZW^YVXSPNIFJEBNIFSNKXSP\WT`[Xb]Z_ZWZURYTQVQNUPMRMJOJGPKHUPMXSPYTQSNKTOLUPMVQNWROYTQ[VS[VS[WTZVSXTQTPMRMJSNKXSP]XU]XU^YV^YV[VSWROUPMVQNWROTOLUPMWROYTQ]XU_ZW]XUZURZUR\WT_ZW`[X\WTVQNUPMXSPZURYTQ[VS]XU\WT]XU_ZW_ZW\XUXTQVROSOLMIFLHEOKHQMJSOL_ZWb]ZZURZUR[VS\WTZUR\WT]XU[VSXSPVQNUPMVQNXSP[VSWROYTQZURYTQXSPXSPWROXSPSNKSNKRMJQLIQMJRNKRNKQMJRMJUPMYTQ[VS[VSWROTOLSNKSOLVROVROUQNVROYURWSPRNKNJGPLIPLIOKHOKHRNKUQNWSP[VS\WT]XU[VSWROVQNYTQ[VSYTQYTQXSPWROXSPZUR[VS[VS[VSZURXSPXSPXTQXTQWSPWSPTPMTPMSOLRNKRMJQLIOJGMHENIFOJGRMJWROZURZURYTQYTQ[VRYTPLHE0,)  			


   ! <;9=<8651('#)'(+)*A?@KJHTSQWVTRQORNMVRQYUTYUTWROUPMWROYTQWSPWSP[WT]YV_ZW\WTYTQXSPWROUPMSNKRMJQLITOLWROXSPWROWROYTQ[VS]XU]XU^YV^YV[VSRMJKFCLGDMHEPKHRMJXSP`[Xa\Y]XUZURVQNUPMSNKQLISNKYTQ[VS[VSTOLTOLTOLUPMVQNWROXSPXSPXTQYURWSPSOLOJGOJGUPMZUR\WT[VSZURWROSNKPKHPKHQLIPKHRMJTOLWRO[VS]XU]XU[VS[VSZURYTQWROSNKOJGOJGRMJTOLRMJTOLXSPYTQ[VS^YV^YVZVSWSPTPMQMJMIFMIFOKHPLIPOKZUR^YVUPMUPMUPMWROWROZURYTQVQNSNKQLIPKHRMJUPMYTQXSPZURYTQWROVQNSNKRMJUPMSNKSNKQLIPKHOKHQMJRNKRNKTOLUPMWROZURZURWROTOLRMJRNKTPMUQNTPMUQNUQNRNKMIFJFCNJGPLINJGNJGPLITPMWSPZUR\WT\WTZURWROVQNXSPZURYTQXSPVQNTOLTOLVQNXSPXSPWROWROVQNVQNVROWSPXTQYURXTQWSPUQNRNKPKHOJGNIFNIFLGDMHEPKHUPMXSPXSPXSPXSPZUQWRNOKH51.     :97984-,(
;9:HGERQOVUSQPNRNMUQPWSRYUTWROTOLUPMWROVROWSP[WT^ZW_ZWZURVQNTOLSNKRMJQLIQLIRMJSNKTOLTOLUPMVQNXSPZUR[VS\WT\WT]XU]XUXSPQLIOJGPKHOJGOJGTOL]XUa\Y_ZW]XUXSPTOLPKHQLIXSP^YV^YVZURTOLTOLTOLTOLTOLUPMUPMVQNVROXTQXTQTPMOJGNIFQLIVQNYTQYTQYTQVQNRMJNIFLGDMHEMHENIFPKHTOLWROWROVQNVQNWROVQNTOLSNKQLIOJGOJGPKHNIFLGDNIFSNKVQNYTQ[VS\WTXTQUQNSOLPLILHEMIFPLIPLISOLWRNZUQRMIQLHRMITOKUPLXSOWRNUPLRMIQLHPKGQLHSNJVQMZUR\WT[VSYTQWRORMJOJGSNKVQNUPMSNKQLIPLIRNKSOLTPMVQNVQNXSPYTQZURXSPUPMTOLSOLSOLTPMTPMTPMSOLOKHKGDJFCNJGOKHNJGNJGRNKVROXTQYTQZURZURYTQXSPVQNUPMVQNYTQYTQWROUPMSNKRMJRMJTOLUPMUPMVQNVQNWROYTQ[VS\WTZVSZVSYURVROSNKPKHPKHPKHNIFOJGQLITOLVQNWROWROWROYTPWRNRNK62/  		0/-/.,! 			
	423CB@ONLTSQPOMRNMSONUQPXTSVQNRMJSNKTOLRNKRNKVROYUR\WTXSPUPMUPMUPMSNKQLIQLIRMJRMJRMJRMJSNKTOLVQNWROYTQ[VS[VSZUR\WT[VSWROUPMUPMSNKPKHRMJYTQ]XU^YV_ZWZVSTPMOKHRNKYUR^ZW\XUWSPTPMSOLRNKQMJQMJQMJQMJQMJTPMXTQZVSVROQLIMHENIFRMJVQNXSPYTQXSPSNKNIFLGDMHEMIFJFCLHEPLISOLQMJOKHOKHQMJRNKRNKQMJQMJRNKRNKQMJMIFHDAIEBNJGQMJRNKSOLSOLTOLRMJQLIOJGLGDNIFSNKSOLSOLWRNZUQQLHQLHRMIUPLVQMYTPWRNVQMTOKSNJRMIQLHSNJUPL[VS^YV^YV]XU\WTTOLPKHSNKWROWROUPMSNKRNKSOLUQNTPMYTQXSPYTQZURZURXSPWROVQNTPMSOLSOLSOLSOLQMJNJGKGDLHENJGOKHNJGOKHTPMXTQYURXSPZURZURYTQYTQVQNSNKSNKWROXSPYTQWROSNKPKHPKHRMJTOLUPMWROXSPYTQ[VS]XU_ZWZVS\XU\XUZVSWROSNKQLIQLIRMJRMJRMJTOLUPMUPMVQNWROWRNXSOUQN730   

	   0./A@>NMKSRPQPNSONSONUQPYUTVQNRMJQLIQLINJGNJGQMJSOLYTQWROWROZUR[VSWROTOLSNKQLIRMJTOLTOLUPMTOLTOLTOLWROZURZURXSPYTQZURYTQYTQWROVQNQLIPKHUPMYTQ[VS_ZW[WTVRORNKTPMXTQZVSYURVROTPMSOLQMJPLINJGMIFMIFMIFTPMXTQ[WTXTQRMJMHELGDNIFTOLXSP\WT\WTVQNPKHMHENIFOKHKGDKGDQMJSOLPLIMIFNJGPLIRNKSOLRNKRNKTPMTPMRNKOKHIEBHDALHEMIFMIFLHEIEBMHELGDMHELGDIDAMHETOLXSPQMJYTP]XTVQMQLHTOKVQMZUQ[VR[VRXSOWRNYTPXSOTOKRMITOKWRO]XUb]Za\Y[VSWROVQNWRO[VS[VSYTQUPMQMJRNKTPMUQNYTQ\WT]XU\WT[VS[VSYTQVQNUQNUQNTPMSOLSOLPLINJGPLIQMJPLIPLIQMJRNKUQNVROWSPXSPWROWROYTQ[VSZURVQNQLIQLIUPMWROSNKPKHPKHRMJTOLXSPYTQYTQYTQXSPYTQ[VS]XU\XU\XU]YV^ZW]XUXSPTOLTOLTOLTOLTOLSNKTOLVQNWROWROXSOZUQSOL;74  

		 			


   ,,,CB@MLJONLPOMTPOUQPXTSXTSVQNSNKRMJPKHKGDLHEQMJRNKWSPZVS[WT[WTZVSYURXTQVROWSPVROVROWSPWSPUQNRNKQMJVQNXSPXSPYTQYTQ[VS\WT[VS]XUZURUPMQLIPKHRMJXSP\WT`\Y[WTXTQXTQXTQXTQWSPWSPTPMVROVROTPMRNKPLINJGLHEUQNWSPXTQWSPVQNSNKPKHLGDPKHVQNZURYTQTOLQLIPKHPKHQMJLHELHESOLVROQMJLHEJFCQMJRNKTPMUQNSOLSOLUQNWSPMIFMIFLHELHELHELHEKGDJFCMHEMHEKFCJEBNIFTOLVQNUPMOJGXSO\WSVQMTOKXSOYTP\WS]XT^YU[VRXSOYTPXSOVQMUPLVQMUPMXSP\WT^YV]XUZURYTQZUR_ZW_ZW\WTXSPUQNTPMTPMSOLYTQ\WT^YV]XU]XU]XU\WTYTQXTQWSPSOLQMJPLIOKHOKHSOLRNKQMJQMJRNKTPMUQNTPMSOLTOLUPMVQNXSP\WT\WTXSPRMJSNKVQNVQNTOLQLIRMJTOLUPMYTQYTQZURYTQYTQYTQZUR[VS]YV\XU\XU]YV]XU[VSYTQXSPVQNVQNVQNUPMUPMWROWROVQNWRNYTPUPM?;8   	 


,,,GFDNMKONLQPNVRQWSRYUTYUTWROTOLQLIOJGKGDMIFRNKSOLXTQZVS[WT[WTYURXTQXTQYURYURXTQYURZVSZVSXTQUQNTPMUPMUPMVQNVQNWROXSPYTQ[VS]XU[VSXSPTOLRMJTOLWROZUR\XUZVSZVSZVSZVSXTQWSPWSPUQNWSPWSPUQNTPMTPMTPMSOLVROXTQZVSYURXSPVQNSNKQLIQLIUPMWROWROUPMUPMUPMUPMSOLOKHMIFPLIQMJNJGJFCJFCMIFOKHSOLVROVROUQNTPMUQNPLIOKHOKHOKHPLIQMJRNKRNKPKHPKHOJGNIFPKHUPMVQNUPMNIFUPMYTQTOLUPMYTQXSPZUR]XU^YV\WTZURZURZURZURYTQXSPRMJQLITOLZUR]XU\WTZUR[VS^YV^YV\WTZURXTQWSPUQNSOLYTQ[VS]XU]XU^YV^YV]XU[VSYURWSPRNKNJGMIFNJGPLIUQNTPMSOLSOLTPMUQNUQNQMJNJGQLIRMJSNKWRO]XU`[X[VSTOLRNKTPMTPMRNKTOLWROXSPXSPYTQYTQYTQYTQYTQZUR[VS\WT]YV\XUZVSZVS\WT]XU]XU^YV]XU]XU\WTZURZURZURYTQXSPYQNYTPWROGC@     		   			+++KJHONLONLSRPZVUZVU[WV[WVWRORMJOJGMHEKGDNJGRNKRNKVROWSPZVS[WTYURUQNUQNXTQWSPXTQYUR[WT[WTYURWSPWSPRNKQMJQMJRNKSOLTPMVROZVS[WT[WTYURUQNSOLTPMUQNVROWROYTQ\WT^YV\WTYTQXSPXSPVQNWROXSPWROWROXSPYTQZURWSPXTQYURXTQWROVQNUPMTOLSNKTOLUPMVQNWROYTQYTQXSPSOLQMJPLINJGMIFLHELHELHEKGDNJGSOLWSPYURWSPUQNTPMSOLRNKQMJQMJRNKTPMVROXTQUPMUPMTOLRMJTOLVQNVQNTOLQIGRMJVQNRMJSNKVQNSNKTOLYTQ\WT\WT\WT\WT]XU^YV\WTXSPQLIMHENIFVQN[VSYTQWROXSP[VS[VS[VSZURXTQWSPUQNTPMWROYTQZURZUR[VS\WTZURXSPWSPUQNPLILHELHEMIFOKHSOLSOLSOLTPMVROVROTPMOKHKGDNIFOJGPKHTOL\WTa\Y]XUVQNPLIQMJQMJQMJVQNZUR\WT[VSWROWROWROXSPYTQ[VS]XU^YV^ZWZVSWSPWSPYTQZUR^YVb]Ze`]c^[a\Y^YV^YV^YV[VSYTQ[SP]UR[VSOKH+'&   	
	   


+++JIGMLJMLJSRPZVUYUTYUTYUTVQNPKHLGDKFCKGDOKHRNKRNKQMJRNKVROZVSWSPQMJPLISOLRNKSOLUQNWSPXTQXTQXTQXTQRNKNJGMIFOKHQMJQMJTPMXTQYUR[WTYURUQNRNKSOLTPMTPMTOLXSP\WT]XU\WTYTQWROVQNTOLUPMVQNUPMUPMVQNXSPZURXTQXTQXTQUQNUPMUPMVQNVQNUPMTOLTOLVQNYTQZURXSPVQNSOLTPMSOLPLIOKHOKHPLIQMJOKHPLITPMWSPYURXTQVROUQNRNKRNKQMJQMJSOLUQNWSPXTQYTQXSPWROVQNVQNVQNUPMSNKRJHUPMXSPTOLTOLTOLPKHRMJXSP\WT^YV^YV]XU_ZW`[X^YVYTQRMJMHENIFUPMXSPUPMSNKUPMZUR[VS\WTZURVROSOLSOLSOLVQNVQNVQNVQNVQNVQNTOLRMJQMJQMJNJGLHEMIFMIFMIFOKHQMJRNKTPMVROUQNRNKMIFJFCFA>GB?IDAOJGXSP^YV[VSSNKOKHOKHOKHPLISOLXTQZURYTQVQNUPMUPMVQNXSPZUR\WT^YV\XUWSPTPMUQNUPMTOLZURc^[fa^c^[^YV]XU^YV^YV[VSWRO\TQ_WT^YVUQN3/.
   	
	  


			   			+++HGELKILKIQPNWSRTPOTPOTPOUPMOJGLGDLGDMIFQMJTPMSOLNJGMIFPLIUQNTPMOKHMIFPLINJGPLIQMJSOLTPMWSPYURZVSSOLNJGKGDMIFOKHOKHPLISOLVROXTQWSPSOLPLIQMJRNKRNKSNKVQNYTQZURZUR[VSYTQWRORMJRMJSNKTOLTOLTOLTOLUPMYURYURWSPUQNUPMVQNYTQZURVQNTOLSNKTOLXSPZURYTQWROUQNVROVROTPMSOLTPMTPMTPMSOLSOLTPMWSPXTQXTQWSPWSPRNKRNKRNKSOLTPMUQNVROWSPYTQYTQXSPWROVQNVQNTOLRMJPKHZUR]XUXSPVQNVQNRMJTOLZUR^YV_ZW_ZW]XU^YV_ZW]XU[VSRMJOJGPKHUPMWROSNKRMJTOLWROYTQZURXSPSOLOKHPLISOLVQNTOLSNKSNKSNKRMJOJGMHELHENJGNJGMIFOKHOKHMIFNJGOKHQMJSOLUQNTPMQMJLHEIEBA<9@;8A<9HC@RMJWROUPMOJGOKHPLIPLIOKHQMJUQNVQNUPMUPMTOLTOLTOLVQNWROXSPXSPWSPSOLRNKSOLSNKQLIVQN^YV_ZW\WTYTQYTQ\WT^YV[VSWROZRO_WT^YVWRO954  	
	  			   			)))HGEMLJLKIONLTPORNMRNMQMLQLILGDJEBLGDNJGRNKTPMRNKNJGLHEMIFQMJQMJOKHNJGPLIOKHPLIQMJRNKSOLVROYUR[WTSOLPLIMIFMIFNJGMIFMIFNJGRNKRNKRNKPLINJGMIFNJGOKHTOLUPMUPMTOLWROZURZURVQNOJGPKHRMJUPMVQNTOLRMJQLIWSPWSPVROTPMUPMWROYTQ[VSVQNSNKQLIRMJUPMXSPZUR[VSVROWSPXTQVROUQNTPMTPMTPMTPMTPMTPMUQNVROVROVROWSPVROVROWSPVROUQNTPMTPMSOLXSPWROVQNVQNUPMUPMSNKRMJPKHXSP\WTVQNTOLUPMSNKUPMYTQ[VS\WT\WT\WT\WT[VS[VSZURQLIPKHRMJVQNVQNSNKRMJTOLUPMVQNWROUPMPLINJGQMJVROWROUPMSNKSNKRMJQLINIFLGDLHENJGNJGMIFPLIQMJPLIPLIQMJQMJSOLTPMTPMQMJLHEHDAD?<?:7<74A<9JEBOJGOJGNIFMIFOKHPLIPLIQMJTPMVQNUPMSNKSNKSNKSNKTOLTOLSNKQLIOKHOKHQMJRNKRMJQLITOLWROVQNVQNVQNXSP[VS\WTZURVQNVNK\TQ\WTWRO?;:   	     						   &&&FECKJHIHFKJHQMLRNMTPORNMMHEIDAIDALGDNJGRNKSOLPLIQMJOKHNJGPLIPLIOKHNJGOKHQMJSOLSOLRNKRNKTPMWSPXTQSOLSOLRNKPLIOKHNJGNJGNJGNJGOKHQMJRNKOKHKGDKGDMIFSNKRMJPKHMHEPKHUPMTOLPKHLGDNIFRMJWROZURXSPTOLQLISOLUQNUQNTPMSNKTOLVQNWROUPMSNKQLIQLIRMJSNKWROZURWROWROWROVQNSNKQLIRMJTOLVQNTOLRMJRMJQLIQLISNKUPMXTQXTQXTQWSPUQNRNKQMJPLIUPMTOLTOLTOLTOLSNKSNKSNKRNKSNKVQNQLIOJGSNKRMJTOLVQNUPMWROYTQ[VS[VSYTQXSPXSPPKHPKHRMJUPMTOLRMJQLIRMJWROWROWROUPMPLINJGRNKWSPYTQVQNTOLTOLTOLRMJOJGMHENJGOKHNJGMIFPLISOLSOLTPMSOLSOLSOLUQNUQNRNKMIFIEBKFCB=:;63=85C>;IDALGDNIFKGDNJGQMJQMJRNKUQNXSPXSPQLIQLIQLIRMJSNKRMJOJGLGDIEBNJGQMJQMJRMJSNKSNKRMJPKHRMJUPMWROZURZURXSPTOLTLIZROZURWROD@?%! 	       			


			      $$$BA?GFDDCAEDBMIHQMLUQPSONKFCHC@IDAMHEPLISOLTPMPLISOLRNKRNKRNKQMJOKHMIFLHERNKTPMTPMRNKPLIQMJSOLTPMSOLUQNVROTPMRNKQMJRNKRNKOKHOKHSOLVROTPMNJGLHENJGRMJQLILGDHC@JEBNIFNIFIDAJEBLGDRMJYTQ^YV[VSVQNRMJRNKTPMUQNTPMSNKRMJRMJRMJUPMTOLRMJQLIPKHOJGRMJVQNVQNUPMUPMSNKPKHMHEOJGSNKXSPUPMPKHMHEKFCLGDOJGRMJTPMTPMUQNTPMSOLQMJPLIPLISNKRMJRMJRMJSNKSNKSNKTOLTPMNIFRMJNIFMHEQLITOLUPMQLIQLIQLIRMJTOLWROXSPWROUPMRMJNIFNIFQLISNKQLIQLISNKWROWROXSPVQNRMJQLITOLYTQWROTOLSNKUPMUPMSNKQLIPKHRMJRMJQLIOJGPKHSNKVQNWROUQNVROXTQZVSXTQSOLOKHNJGOKHKGDB>;:63>:7HDANJGNJGMHEOJGRMJSNKUPMVQNWROXSPSNKOJGNIFPKHQLIOJGLGDKFCMHEOJGPKHQLIQLIQLIQLIOJGMHERMJVQNVQNVQNYTQXSPRMJQLIRMJYTQYTQLGD730    						      			


   $$$<<<@@@;:8986@?=MLJXTQSOLLHEJFCJFCNJGRNKSOLRNKRNKSOLVROVROVROVROSOLOKHOKHRNKUQNVROSOLPLIPLIQMJPLIOKHRNKSOLPLIPLISOLTPMRNKOKHOKHTPMZVSXTQPLILHEOKHTPMOKHIEBD@=EA>KGDJFCC?<C>;HC@NIFUPMZUR[VSWRORMJQMJSOLUQNUQNTPMRNKPLIPLITPMRNKPLIOKHNJGNJGNJGOKHRNKSOLVROTPMNJGJFCMIFPLIXTQTPMNJGKGDLHENJGNJGMIFPLIOKHMIFNJGOKHPLIPLIPLITOLQLIPKHQLIRMJQLIPKHQLISOLJEBPKHNIFNIFQLIQLIRMJOJGNIFNIFOJGPKHSNKTOLTOLTOLRMJNIFMHEOJGOJGNIFNIFPKHSNKSNKTOLTOLSNKSNKUPMXSPVQNTOLTOLVQNWROUPMTOLTOLUPMVQNVQNTOLSNKSNKUPMVQNTPMUQNWSPZVSYURUQNQMJPLIRNKNJGFB?>:7?;8HDAPLIQMJRMJRMJSNKTOLVQNXSPYTQZURVQNRMJOJGPKHQLIOJGLGDKFCMHEOJGQLIRMJSNKSNKRMJQLIRMJSNKTOLUPMVQNZURZURUPMTOLRMJTOLVQNOJGC>;-)&    





   


			      !!!;;;>>>986764?><LKIXTQUQNPLINJGNJGPLISOLTPMTPMUQNVROXTQXTQZVS[WTXTQSOLRNKVROVROUQNRNKPLIQMJQMJOKHMIFOKHNJGMIFNJGQMJSOLSOLTPMRNKTPMXTQWSPSOLQMJSOLTPMOKHJFCGC@JFCOKHNJGHDAD?<E@=IDANIFTOLXSPWROTOLQMJQMJRNKTPMVROVROTPMQMJSOLQMJOKHQMJQMJPLINJGMIFOKHPLITPMTPMNJGLHEOKHRNKZVSVROPLIMIFMIFOKHOKHMIFMIFKGDIEBJFCMIFOKHOKHNJGRMJPKHQLIRMJQLIOJGOJGQLISOLHC@NIFOJGQLISNKQLIRMJQLIOJGNIFMHENIFPKHQLIRMJRMJQLIOJGOJGQLIQLINIFMHEOJGPKHOJGOJGQLISNKUPMUPMVQNVQNUPMUPMWROWROVQNVQNWROXSPZURZURXSPVQNUPMUPMUPMTPMUQNWSPYURYURWSPSOLQMJSOLSOLNJGFB?FB?MIFTPMWSPVQNTOLSNKTOLXSPZUR[VS[VSZURUPMQLIPKHPKHOJGNIFNIFPKHTOLWROXSPXSPXSPVQNTOLSNKSNKUPMWROWROZUR[VSYTQVQNSNKSNKTOLPKHLGD@;80+(








			         ===@@@;:8986BA?LKIVROVROTPMSOLRNKRNKSOLTPMWSPYURXTQXTQWSPYUR\XUZVSWSPVROZVSXTQUQNQMJQMJRNKRNKPLIPLIOKHNJGLHEMIFNJGQMJSOLTPMRNKQMJTPMVROVROVROVROTPMOKHKGDLHEOKHTPMUQNQMJKFCIDAHC@JEBPKHUPMWROVQNSOLQMJQMJTPMYUR[WTYURUQNSOLPLIOKHQMJSOLSOLPLIMIFMIFNJGRNKSOLOKHNJGRNKUQN[WTXTQSOLPLIOKHPLIOKHMIFLHEJFCHDAIEBLHENJGMIFKGDOJGOJGQLIRMJPKHNIFNIFPKHQMJHC@MHENIFRMJUPMSNKUPMVQNSNKPKHMHEMHEOJGPKHOJGOJGNIFNIFQLIUPMTOLQLINIFOJGNIFMHELGDOJGRMJTOLUPMUPMUPMUPMVQNWROWROVQNVQNYTQYTQ[VS\WTZURXSPWROVQNVQNUQNUQNVROXTQXTQWSPTPMQMJRNKUQNTPMPLIOKHSOLWSPYURWROTOLQLISNKXSP[VS[VSZURZURYTQXSPWROUPMSNKQLIRMJUPMYTQ]XU_ZW^YV[VSYTQVQNRMJSNKXSP[VSYTQXSPZURZURVQNUPMVQNTOLPKHNIFIDA?:740-%!				         999@@@>=;>=;FECMLJTPMUQNUQNTPMRNKPLIPLIRNKVROWSPVROUQNSOLUQNYURYURXTQZVS\XUZVSVRORNKRNKTPMTPMSOLUQNSOLQMJOKHMIFLHEMIFPLIPLIOKHNJGPLISOLVROWSPXTQTPMOKHMIFOKHQMJVROYURZVSXSPUPMPKHNIFPKHTOLWROWROWSPTPMSOLUQNXTQ[WTZVSXTQUQNQMJOKHPLIRNKSOLQMJOKHNJGNJGPLIQMJOKHPLISOLTPMXTQWSPUQNQMJOKHNJGNJGMIFMIFLHEKGDLHEMIFMIFKGDJFCMHEMHEOJGPKHOJGNIFOJGQLIOKHMHEPKHOJGTOLWROUPMWROYTQTOLPKHNIFOJGQLIQLIOJGMHEJEBLGDPKHTOLTOLRMJPKHPKHPKHNIFMHENIFPKHQLISNKUPMUPMUPMWROYTQYTQWROWROZURZUR[VS[VSZURZURZURYTQXSPTPMTPMUQNUQNUQNUQNTPMRNKQMJTPMUQNSOLSOLVROXTQXTQWROSNKPKHSNKXSP[VSZURZURXSP\WT_ZW`[X\WTWROVQNWRO[VS^YVa\Y`[X^YV\WTZURYTQRMJRMJVQNZURYTQXSPXSPXSPUPLVQMYTPWRNRMIRMINIFD?<>:71-*$          000<<<>=;A@>HGELKISOLUQNVROTPMQMJMIFMIFOKHQMJQMJOKHOKHOKHQMJUQNTPMTPMXTQ[WTZVSWSPTPMSOLTPMUQNUQNTPMTPMTPMRNKOKHLHELHEOKHLHELHELHEMIFPLISOLVROXTQVRORNKQMJQMJQMJTPMZVS^ZWb]Z^YVYTQTOLSNKSNKUPMVQNVROUQNSOLSOLTPMUQNWSPXTQWSPSOLPLIPLIRNKRNKQMJQMJQMJOKHNJGNJGNJGPLIRNKQMJTPMUQNUQNQMJNJGLHELHEMIFNJGNJGOKHOKHOKHMIFKGDJFCLGDLGDLGDMHENIFOJGQLISNKOKHWROYTQWROYTQ[VSYTQYTQYTQUPMRMJPKHSNKUPMUPMSNKRMJNIFNIFOJGQLIRMJRMJRMJSNKSNKRMJPKHOJGNIFOJGRMJUPMUPMUPMXSPZURZURXSPXSPYTQYTQZURYTQYTQZUR[VSZURYTQRNKRNKRNKQMJQMJRNKSOLSOLSOLUQNUQNSOLSOLVROWSPWSPVQNRMJQLITOLWROYTQYTQYTQZUR\WT]XUZURVQNUPMXSP\WT_ZWa\Yb]Z_ZW\WT[VS[VS[VSVQNQLIQLITOLVQNXSPWROSNKUPLVQMYTPYTPXSOZUQTOLGB?:63/+(($##					         (((;;;A@>BA?HGEJIGPLIUQNVROUQNQMJMIFLHENJGNJGKGDHDAJFCLHEPLIRNKOKHNJGQMJVROUQNTPMRNKPLIPLIQMJRNKQMJSOLVROVROSOLQMJQMJQMJKGDJFCIEBIEBJFCMIFQMJUQNVROUQNTPMSOLOKHQMJXTQ\XUa\Y^YVYTQUPMRMJQLIRMJSNKSOLTPMTPMRNKPLIPLITPMWSPUQNRNKQMJRNKRNKRNKQMJQMJRNKOKHNJGNJGNJGQMJRNKOKHPLISOLTPMRNKOKHMIFMIFNJGOKHPLIRNKRNKQMJOKHNJGMIFMHELGDKFCLGDOJGQLIRMJSNKPLI`[Xc^[`[Xa\Ya\Y]XU[VSXSPVQNSNKSNKVQNYTQXSPWROWROUQNSOLPLIPLIQMJRNKSOLTPMUQNTPMRNKPLINJGNJGQMJTPMVQMVQMXSO[VRZUQWRNTOKTOKTOKUPLUPLVQMWRNYTPYTPXSOQMJQMJPLIMIFMIFOKHQMJSOLSOLTPMSOLQMJRNKUQNWSPVROVQNRMJPKHRMJTOLTOLTOLVQNXSPWROSNKOJGMHEPKHUPMYTQ\WT_ZWa\Y_ZW\WTZURZURZURUPMQLIOJGPKHRMJUPMUPMPKHSNJVQM[VR[VRZUQ]XTXSOKFB4/,&!         :::EDBFECIHFIHFNJGSOLUQNVROSOLOKHOKHQMJOKHKGDHDAJFCNJGQMJRNKLHEIEBLHEQMJPLIPLIOKHMIFKGDKGDKGDNJGRNKVROWSPWSPWSPUQNSOLKGDIEBHDAHDAGC@HDAKGDNJGRNKSOLUQNSOLOKHQMJVROXTQZURWROSNKQLIOJGNIFOJGQLIPLIRNKSOLQMJNJGMIFPLITPMRNKPLIPLIQMJSOLRNKRNKQMJPLIOKHOKHPLIPLISOLTPMQMJOKHRNKTPMSOLQMJPLIPLIPLIQMJQMJRNKRNKQMJPLIOKHOKHNIFMHEMHEMHEOJGQLIRMJRMJPLIc^[hc`fa^e`]d_\^YVZURVQNUPMTOLTOLWROXSPWROXSPZUR[WTWSPSOLQMJQMJRNKSOLTPMVROUQNTPMRNKOKHNJGQMJTPMVQMVQMXSOZUQYTPTOKPKGNIEMHDOJFQLHSNJTOKVQMWRNXSORNKRNKOKHKGDJFCLHEOKHQMJPLIPLIPLIOKHPLITPMUQNUQNUPMRMJOJGPKHPKHOJGPKHSNKRMJPKHNIFMHENIFOJGOJGOJGVQN[VS_ZW_ZW\WTYTQWROVQNRMJQLIPKHOJGNIFQLIRMJPKHQLHWRN^YU\WSXSO[VRYTPOJF0+(



      666FECHGEKJHJIGNJGRNKTPMVROUQNRNKRNKTPMSOLOKHMIFOKHQMJTPMTPMNJGJFCMIFPLIPLIOKHOKHMIFJFCHDAGC@MIFRNKUQNVROXTQYURVROQMJMIFJFCIEBJFCIEBGC@GC@IEBLHEPLITPMSOLPLIQMJUQNUQNUPMQLIMHELGDLGDLGDMHEOJGNJGPLIQMJOKHLHEJFCLHENJGQMJOKHNJGPLIRNKSOLSOLRNKNJGOKHQMJSOLSOLUQNVROTPMOKHRNKTPMUQNTPMTPMSOLRNKQMJQMJPLIOKHOKHOKHNJGNJGOJGOJGNIFOJGPKHQLIQLIPKHOKH`[Xe`]c^[b]Zb]Z_ZW[VSVQNRMJSNKVQNZUR[VSYTQWROWROWSPVROWSPXTQVRORNKQMJTPMWSPVROTPMQMJOKHPLIRNKTPMXSOZUQ[VRXSOSNJOJFNIEPKGOJFPKGQLHOJFPKGRMITOKUPLRNKPLINJGKGDJFCJFCMIFPLIPLIOKHNJGNJGPLIQMJSOLSOLTOLPKHLGDJEBLGDMHELGDJEBIDALGDPKHRMJSNKRMJOJGMHERMJVQNZUR]XU]XUZURUPMPKHOJGQLIRMJQLIOJGMHEMHEMHEQLHXSOZUQZUQZUQYTPUPLKFB+&#
      444GFDHGEJIGJIGLHESOLTPMSOLSOLTPMWSPZVSYURVROUQNTPMTPMUQNSOLOKHLHELHEOKHPLIPLIPLIPLILHEKGDOKHSOLPLIPLIRNKSOLPLINJGNJGKGDKGDKGDKGDKGDKGDJFCJFCKGDMIFQMJRNKPLIQMJSOLSOLOJGJEBGB?JEBNIFNIFLGDKFCMHENIFQLIQLILGDGB?HC@KFCMHELGDLGDNIFQLIRMJQLIPKHOJGMHEOJGTOLZUR[VSYTQWROPKHPKHQLISNKUPMTOLSNKSNKQMJOKHNJGPLIPLIOKHPLISOLRMJQLIQLIRMJTOLVQNUPMTOLPLIYTQ\WTWROWROYTQYTQYTQVQNTOLTOLVQNYTQ[VSYTQVQNUPMTPMTPMVROVROTPMRNKRNKUQNVROVROUQNTPMSOLTPMVROWSPXSOWRNVQMTOKRMIPKGPKGPKGOJFPKGQLHPKGOJFPKGRMIRMIOKHOKHNJGMIFLHEKGDLHENJGPLIOKHOKHOKHQMJRNKRNKSOLSNKPKHLGDKFCLGDLGDKFCHC@JEBMHEQLITOLVQNUPMRMJNIFPKHTOLXSPYTQZURZURUPMQLILGDOJGRMJUPMUPMSNKPKHNIFPKGVQMWRNXSOYTPXSORMIFA='"  			      222GFDIHFKJHJIGLHEQMJSOLSOLTPMVROYURZVSYURWSPVROTPMSOLTPMSOLPLINJGOKHPLIRNKPLIOKHQMJRNKQMJRNKPLIOKHNJGOKHOKHNJGMIFMIFMIFLHEKGDKGDLHEMIFLHEKGDIEBJFCNJGPLIOKHQMJRNKPLIKFCIDAHC@KFCNIFMHEJEBHC@KFCNIFQLIQLINIFJEBIDAJEBJEBKFCMHEOJGRMJRMJQLIPKHMHELGDMHEQLIVQNXSPWROVQNRMJOJGOJGQLIRMJQLIQLISNKRNKPLIPLIQMJQMJPLIQMJTPMTOLTOLTOLVQNWROXSPVQNUPMRNKRMJSNKNIFNIFRMJTOLWROVQNVQNUPMUPMWROXSPXSPUPMSNKRMJRMJSNKSNKRMJQLIRMJVQNUPMWROXSPXSPXSPXSPYTQYTQXSPUPMQLIPKHPKHQLIQLIPKHPKHQLIQLIPKHOJGOJGOJGOJGLHEMIFOKHOKHNJGLHEKGDLHEPLIPLIPLIQMJQMJRNKRNKRNKSNKOJGLGDLGDNIFOJGLGDJEBMHEOJGRMJUPMXSPWROSNKNIFNIFRMJUPMUPMWROXSPVQNPKHJEBMHERMJXSP\WTZURSNKNIFOJFUPLUPLWRNYTPVQMMHE>96!	     
				         ...FECIHFKJHLKIMIFOKHSOLUQNWSPXTQYURYURXTQVRORNKRNKRNKTPMSOLPLIOKHPLIPLIRNKPLIOKHSOLUQNSOLPLILHEMIFNJGNJGNJGOKHOKHNJGPLINJGMIFMIFOKHPLIPLIOKHKGDIEBJFCLHEMIFOKHPLILHEIDAJEBKFCLGDNIFMHEIDAE@=IDALGDOJGPKHOJGMHEKFCIDAFA>IDANIFRMJSNKSNKRMJQLIMHELGDLGDOJGSNKUPMVQNWROTOLPKHNIFPKHOJGMHEOJGSNKRNKQMJPLIRNKRNKRNKSOLUQNTOLTOLSNKTOLUPMVQNVQNUPMTPMNIFQLILGDMHEQLISNKVQNVQNWROVQNUPMTOLUPMUPMUPMTOLRMJPKHPKHPKHOJGOJGQLISNKTOLVQNXSPYTQYTQWROVQNVQNUPMRMJNIFMHEOJGPKHQLIQLIRMJRMJRMJPKHOJGNIFNIFOJGLHEMIFOKHOKHNJGLHELHEMIFQMJQMJQMJQMJQMJQMJRNKSOLRMJPKHNIFOJGRMJRMJPKHNIFPKHQLISNKUPMVQNUPMPKHLGDNIFRMJSNKRMJSNKWROUPMPKHLGDMHERMJYTQ^YV]XUVQNPKHQLHUPLUPLXSOZUQTOKFA>50-              )))BA?HGELKINMKOKHPLITPMVROXTQWSPVROTPMRNKPLILHENJGQMJTPMTPMQMJOKHNJGQMJRNKQMJQMJTPMTPMOKHLHEKGDNJGPLIPLIQMJSOLTPMSOLRNKQMJPLIQMJRNKSOLSOLRNKOKHLHEKGDJFCJFCMIFMIFJFCJEBMHENIFNIFOJGNIFKFCFA>JEBLGDMHEMHENIFOJGMHEIDAGB?JEBOJGSNKUPMTOLSNKRMJNIFMHELGDNIFPKHSNKUPMWROUPMQLIOJGPKHNIFKFCMHERMJRNKQMJQMJQMJRNKSOLTPMVROSNKQLIPKHOJGPKHRMJTOLUPMUQNOJGRMJOJGNIFPKHPKHSNKUPMVQNUPMRMJPKHPKHQLISNKUPMTOLRMJOJGNIFNIFNIFOJGPKHRMJTOLVQNVQNUPMRMJPKHOJGMHEMHELGDLGDLGDNIFPKHQLISNKSNKRMJQLIPKHOJGPKHQLIPLIPLIOKHOKHOKHNJGOKHPLIQMJRNKQMJPLIOKHOKHQMJRNKRMJPKHOJGPKHRMJSNKRMJPKHRMJSNKTOLSNKRMJQLINIFKFCOJGRMJRMJPKHRMJUPMUPMRMJPKHPKHRMJWRO]XU^YVZURTOLTOLXSPWROZURZURRMJA<9-(%            $$$>=;GFDLKIONLPLIQMJSOLUQNVROTPMRNKOKHMIFLHEHDAKGDPLITPMUQNSOLRNKQMJTPMTPMSOLTPMTPMQMJMIFMIFQMJTPMTPMRNKRNKTPMUQNUQNRNKRNKSOLSOLTPMTPMTPMSOLQMJOKHNJGNJGMIFMIFMIFIEBLGDNIFOJGNIFOJGPKHNIFKFCMHEMHEMHELGDMHEOJGNIFLGDJEBLGDPKHSNKUPMUPMTOLSNKOJGNIFLGDLGDMHEPKHTOLUPMTOLPKHOJGOJGMHEIDAJEBNIFQMJQMJOKHNJGNJGPLIRNKSOLQLIOJGNIFNIFNIFPKHRMJUPMVROOJGRMJOJGMHEMHELGDPKHRMJQLIPKHMHEJEBJEBMHEPKHSNKUPMRMJOJGNIFMHEMHEMHEMHEOJGPKHQLIQLIOJGLGDJEBIDAIDAJEBKFCKFCKFCMHEPKHRMJTOLSNKRMJRMJQLIQLIRMJTOLTPMRNKQMJQMJQMJQMJQMJQMJQMJQMJQMJOKHMIFMIFOKHQMJQLIPKHNIFNIFOJGQLIQLIPKHSNKUPMVQNSNKQLIOJGNIFMHENIFPKHQLIPKHQLITOLUPMTOLSNKRMJSNKVQN[VS]XU\WTYTQWROZURYTQ[VSZUROJG=85*%"   


			      !!!;:8GFDKJHMLJOKHPLIRNKSOLRNKPLIMIFLHELHEKGDHDAKGDPLISOLTPMTPMVROXTQYURXTQVROUQNTPMOKHNJGQMJWSPWSPTPMQMJOKHPLIRNKSOLRNKSOLSOLSOLSOLSOLSOLSOLQMJPLIRNKSOLQMJPLINJGJFCKFCLGDLGDMHEOJGPKHPKHOJGOJGOJGMHELGDMHENIFOJGNIFNIFNIFPKHRMJSNKTOLTOLSNKQLIOJGMHEKFCLGDOJGRMJSNKPKHOJGNIFOJGMHEJEBIDAJEBNJGNJGLHEJFCIEBKGDLHELHEMHELGDLGDNIFNIFNIFPKHSNKTPMNIFQLINIFMHEMHEKFCNIFPKHNIFNIFKFCIDAJEBMHEQLISNKTOLSNKQLIOJGMHEMHEMHEMHENIFOJGOJGOJGMHELGDKFCKFCMHEMHEMHEMHENIFOJGQLIRMJSNKRMJRMJSNKRMJRMJSNKUPMTPMSOLRNKSOLTPMSOLPLINJGOKHPLIPLINJGKGDKGDLHEOKHPKHOJGNIFMHEMHENIFPKHRMJUPMWROWROUPMQLIOJGNIFMHENIFOJGPKHPKHPKHQLISNKTOLTOLTOLUPMWROZUR[VSZURYTQYTQ\WTZURZURWROLGD:63($!   			


      986HGEKJHJIGMIFQMJQMJQMJOKHLHEKGDLHEMIFMIFLHENJGPLIQMJQMJSOLVROYURXTQYURWSPSOLQMJNJGMIFPLIRNKPLINJGNJGNJGOKHQMJSOLTPMSOLRNKRNKRNKRNKRNKRNKQMJQMJRNKSOLRNKRNKOKHJFCJEBIDAJEBMHEOJGOJGNIFNIFOJGOJGNIFNIFMHELGDMHENIFNIFOJGPKHQLIQLIQLIRMJSNKRMJQLIMHEJEBKFCNIFPKHQLIOJGOJGOJGPKHOJGNIFLGDJEBLHEMIFMIFKGDKGDLHELHEKGDKFCJEBKFCMHEMHELGDMHEQLIPLINIFQLIOJGOJGPKHMHEOJGPKHQLIPKHNIFLGDNIFSNKVQNVQNTOLUPMUPMRMJOJGOJGPKHQLIPKHQLIRMJRMJQLIPKHQLIQLITOLRMJPKHPKHQLIRMJRMJRMJQLIQLIRMJSNKSNKRMJSNKUPMSOLQMJRNKUQNWSPTPMNJGJFCMIFOKHPLINJGKGDIEBKGDMIFOJGOJGMHELGDLGDNIFQLITOLVQNXSPXSPVQNRMJOJGMHELGDOJGOJGPKHQLIOJGNIFPKHSNKTOLVQNWROXSPXSPXSPWROVQNZUR\WTZURYTQUPMIEB:63*&#   			   875HGEJIGHGEMIFRNKRNKQMJNJGKGDJFCLHENJGOKHOKHPLIQMJQMJPLIQMJTPMVROTPMXTQVROPLIMIFKGDJFCKGDGC@FB?GC@LHEOKHPLISOLVROVROTPMQMJPLIQMJRNKRNKQMJSOLQMJQMJQMJPLIPLINJGJFCJEBIDAJEBMHEOJGNIFLGDKFCNIFNIFOJGPKHNIFKFCJEBLGDMHEOJGPKHPKHOJGOJGQLISNKRMJPKHLGDIDAIDALGDNIFMHEOJGPKHQLIQLIRMJRMJPKHLGDLHEOKHQMJPLIPLIRNKRNKPLILGDKFCKFCLGDKFCJEBMHEQLIOKHOJGTOLSNKUPMUPMQLIPKHPKHQLIPKHPKHPKHRMJTOLUPMUPMUPLXSOYTPUPLQLHQLHRMISNJTOKTOKUPLVQMVQMVQMWRNYTPXSPVQNUPMUPMUPMTOLSNKTOLRMJTOLTOLQLIPKHRMJUPMVQNWROTOLSNKUPMWROTOLOJGKFCMHEMHENIFNIFKFCIDAIDALGDLGDLGDLGDJEBKFCOJGRMJTOLWROYTQZURWROSNKPKHMHEKFCKEEOIIPKHOJGOJGNIFMHEOJGTOLTOLTOLTOLTOLTOLUOOVPPXTSXTSVRQUQPRNKFB?841.-)        


21/EDBGFDHGEKGDRNKSOLQMJNJGLHEMIFOKHOKHNJGPLIQMJRNKQMJOKHOKHPLIRNKRNKQMJOKHNJGLHEKGDKGDMIFIEBEA>D@=GC@JFCLHEMIFOKHSOLRNKOKHMIFMIFOKHQMJRNKRNKQMJMIFKGDKGDMIFNJGMIFMIFKGDKGDNJGOKHMIFJFCIEBNIFNIFOJGOJGNIFKFCLGDMHENJGPLIQMJOKHPLIRNKRNKPLIOJGNIFKFCHC@GB?HC@KFCNIFPKHSNKUPMUPMVQNWROSNKNIFMHEPKHQLIRMJTOLVQNVQNSNKNIFLGDLGDMHEMHEMHENIFPKHNJGQLIVQNUPMVQNVQNRMJRMJRMJRMJRMJQLIPKHPKHRMJSNKSNKUPLZUQ[VRXSOSNJQLHQLHQLHUPLUPLVQMXSOXSOXSOYTP[VR]XU\WTZURZURYTQWROUPMUPMTOLUPMTOLQLIPKHRMJVQNXSPUPMSNKSNKUPMVQNSNKPKHMHEKFCJEBJEBKFCKFCKFCLGDMHELGDMHELGDJEBKFCNIFQLISNKWROXSPWROUPMQLINIFJEBGB?ICCKEEKFCKFCNIFNIFNIFOJGPKHPKHPKHPKHOJGQLISMMUOOWSRUQPSONQMLNJGD@=43/,+'         


   .-+BA?FECHGEKGDOKHRNKQMJNJGLHEKGDMIFNJGNJGOKHPLIQMJQMJQMJPLIOKHOKHLHENJGPLIOKHMIFMIFPLITPMNJGFB?@<9B>;GC@HDAHDAGC@JFCIEBIEBKGDNJGPLIQMJQMJPLIPLIOKHLHEIEBJFCKGDKGDMIFJFCIEBLHEMIFKGDIEBIEBNIFOJGOJGOJGLGDJEBKFCMHENJGPLIQMJPLIPLIQMJPLINJGMHEMHEKFCHC@FA>FA>JEBOJGPKHRMJTOLVQNWROWROTOLQLIMHEOJGPKHQLITOLVQNVQNSNKQLIOJGMHEMHEMHEMHEOJGQLIQMJQLIVQNUPMVQNVQNRMJSNKSNKUPMUPMTOLRMJPKHQLIQLIQLIUPLZUQ]XTYTPTOKRMIQLHQLHUPLVQMWRNXSOXSOXSOYTP[VR]XU\WT\WT\WT[VSYTQVQNUPMWROUPMTOLSNKRMJTOLVQNYTQUPMTOLUPMUPMUPMRMJQLIPKHLGDJEBIDAKFCMHENIFNIFNIFNIFNIFMHELGDLGDNIFPKHQLIVQNVQNUPMRMJPKHMHEIDAE@=F@@E??C>;FA>LGDPKHOJGOJGOJGPKHOJGMHEKFCLGDOIISMMSONQMLOKJNJIKGDB>;21-('#     


      ,+)?><FECIHFLHEMIFOKHOKHMIFJFCIEBKGDMIFNJGNJGOKHPLIRNKSOLRNKOKHNJGMIFPLIRNKQMJRNKTPMUQNUQNOKHGC@A=:A=:D@=FB?EA>EA>EA>EA>GC@LHEPLIRNKQMJOKHMIFPLIQMJNJGIEBHDAIEBJFCLHEIEBHDAJFCKGDJFCHDAHDAMHEOJGPKHOJGLGDIDAJEBMHEMIFOKHQMJQMJQMJQMJOKHLHELGDJEBIDAGB?C>;B=:GB?OJGQLIQLISNKVQNWROVQNTOLSNKPKHQLIPKHPKHRMJUPMVQNUPMTOLQLINIFMHEMHENIFQLITOLSOLOJGTOLSNKSNKSNKQLISNKSNKWROXSPWROTOLQLIQLIQLIPKHTOKXSO\WSZUQUPLRMIRMIRMITOKTOKUPLVQMUPLTOKTOKVQMUPMUPMWROXSPXSPWROVQNUPMVQNTOLSNKTOLUPMTOLUPMXSPVQNUPMUPMTOLSNKQLIPKHOJGQLIOJGNIFOJGRMJSNKQLIPKHQLIQLIQLIPKHOJGNIFNIFOJGSNKSNKRMJPKHOJGMHEIDAFA>E??B<<?:7C>;LGDRMJQLIQLIPKHQLIPKHMHEJEBJEBNHHRLLOKJNJINJIOKJKGDC?<21-#"       


   /.,@?=HGEKJHNJGNJGLHEKGDIEBGC@GC@IEBLHENJGNJGOKHQMJSOLTPMSOLQMJOKHRNKSOLSOLSOLWSPZVSWSPQMJLHEJFCIEBIEBHDAHDAIEBLHEIEBHDAIEBNJGSOLSOLPLINJGMIFOKHQMJPLIMIFKGDJFCJFCJFCHDAHDAKGDLHEIEBFB?EA>KFCNIFQLIPKHLGDIDAJEBLGDKGDMIFOKHOKHOKHPLIOKHMIFMHEJEBHC@GB?D?<A<9FA>NIFPKHNIFOJGSNKUPMTOLRMJSNKRMJRMJOJGLGDLGDOJGRMJTOLTOLRMJOJGMHEMHEOJGRMJUPMTPMLGDSNKRMJRMJRMJPKHSNKTOLYTQ[VSZURVQNSNKSNKRMJQLIRMIWRN[VR[VRWRNTOKRMIRMIRMIRMISNJSNJRMIQLHQLHRMINIFPKHQLIRMJRMJRMJQLIQLIPKHOJGPKHSNKTOLRMJRMJSNKTOLSNKRMJQLIQLIQLIOJGNIFSNKSNKSNKTOLUPMVQNUPMTOLSNKTOLTOLSNKQLIOJGMHEMHEPKHQLIRMJQLIOJGNIFMHELGDLFFHBBD?<FA>OJGTOLSNKSNKOJGPKHOJGMHEKFCLGDOIISMMNJIMIHOKJPLKLHEEA>540$#   			


			   !!!542BA?HGEKJHOKHOKHKGDIEBFB?FB?GC@IEBLHENJGMIFOKHRNKSOLSOLSOLRNKRNKSOLUQNUQNVROYUR[WTWSPPLIMIFPLIRNKSOLQMJOKHPLISOLOKHKGDJFCOKHSOLRNKPLIOKHPLIQMJRNKSOLRNKPLIMIFKGDKGDIEBJFCMIFNJGJFCEA>B>;IDAMHEQLIPKHMHEJEBJEBKFCJFCKGDKGDLHEMIFNJGNJGNJGPKHLGDIDAIDAFA>C>;FA>LGDMHEIDAIDANIFQLIQLIOJGPKHPKHPKHNIFJEBHC@IDAKFCNIFPKHPKHOJGNIFNIFPKHRMJTOLSNKLGDSNKSNKRMJRMJQLITOLUPM[VS]XU\WTXSPVQNVQNUPMRMJPKGUPLYTPYTPWRNSNJQLHPKGOJFOJFQLHSNJRMIQLHPKGQLHMHEOJGOJGNIFMHELGDJEBHC@IDAJEBMHEPKHPKHPKHOJGPKHSNKRMJQLIQLIRMJSNKSNKQLIQLIRMJTOLTOLUPMVQNWROXSPUPMTOLTOLTOLQLIOJGMHEMHEQLITOLVQNUPMSNKRMJSNKTOLVPPSMMOJGNIFSNKVQNUPMUPMQLIPKHOJGLGDKFCLGDNHHPJJOKJMIHOKJOKJLHEHDA;:6+*&   ***;:8CB@GFDIHFMIFMIFKGDHDAFB?FB?GC@JFCMIFOKHNJGPLIRNKSOLRNKQMJRNKSOLSOLVROYURXTQXTQWSPUQNRNKSOLUQNWSPXTQXTQVROTPMSOLPLIKGDHDALHEQMJPLIOKHOKHSOLRNKRNKTPMUQNSOLNJGKGDLHEKGDLHEOKHPLIKGDFB?D@=JEBNIFPKHPKHNIFKFCJEBIDAJFCJFCIEBIEBIEBKGDLHEMIFPKHLGDJEBIDAGB?E@=FA>IDAHC@E@=FA>KFCOJGNIFMHELGDLGDMHENIFMHEJEBHC@HC@HC@LGDNIFOJGNIFNIFOJGPKHPKHPKHLGDTOLTOLSNKRMJQLITOLUPMZUR[VSZURVQNUPMUPMTOLPKHMHDOJFQLHRMIQLHOJFNIENIELGCNIEPKGSNJSNJQLHPKGQLHPKHRMJRMJPKHMHEJEBFA>C>;FA>IDALGDMHEMHEOJGPKHPKHQLIQLIQLIQLISNKVQNVQNUPMPKHQLIQLIPKHPKHRMJUPMWROTOLSNKRMJQLIPKHNIFNIFOJGSNKVQNYTQXSPVQNVQNWROXSP[UUZTTWROUPMUPMUPMUPMWROTOLQLINIFKFCKFCLGDMGGNHHPLKMIHOKJOKJKGDKGDBA=32.      ///?><EDBGFDGFDLHEJFCLHEJFCGC@FB?GC@HDALHEPLIPLIQMJSOLRNKPLINJGOKHPLIPLIRNKTPMTPMSOLRNKSOLTPMUQNUQNWSPWSPXTQVROTPMRNKPLIJFCGC@LHEOKHNJGMIFNJGQMJQMJRNKTPMUQNSOLNJGLHELHEJFCKGDOKHQMJOKHLHEKGDNJGOKHPLIOKHNJGMIFKGDHDAJEBIDAHC@GB?HC@IDAKFCMHEOJGMHEKFCIDAHC@FA>FA>HC@GB?GB?JEBNIFOJGMHEJEBHC@JEBLGDOJGPKHOJGLGDIDAGB?IDALGDNIFNIFMHEMHELGDKFCKFCLGDTOLTOLRMJQLIPKHSNKTOLVQNWROVQNRMJQLIRMJPKHKFCID@ID@ID@JEAJEAJEALGCMHDKFBMHDPKGRMIRMIPKGOJFOJFSNKVQNWROTOLQLIMHEHC@D?<FA>JEBLGDLGDLGDPKHSNKSNKOJGPKHPKHPKHRMJUPMVQNUPMQLIRMJPKHMHEKFCNIFQLISNKSNKQLIPKHOJGNIFNIFOJGRMJTOLVQNXSPWROUPMUPMVQNWRO[UU\VVZURWROUPMTOLTOLXSPUPMQLILGDKFCLGDNIFPJJPJJOKJMIHOKJOKJLHEMIFFEA762 
	          222@?=FECHGEGFDKGDHDAMIFKGDIEBGC@FB?GC@KGDOKHQMJRNKSOLQMJOKHLHEKGDLHEJFCIEBJFCLHEOKHPLIRNKTPMQMJSOLUQNUQNTPMSOLSOLSOLRNKKGDIEBMIFOKHMIFKGDLHENJGNJGQMJTPMTPMRNKOKHNJGKGDIEBIEBMIFQMJRNKRNKSOLRNKSOLRNKPLIPLIOKHMIFIEBIDAHC@FA>FA>GB?IDAKFCMHEOJGOJGMHEKFCJEBIDAIDAIDAHC@KFCOJGRMJQLIMHEHC@E@=IDAJEBMHEPKHQLIOJGKFCHC@HC@KFCNIFMHELGDKFCIDAGB?GB?OJGUPMUPMUPMTOLPKHQLISNKUPMTOLSNKRMJSNKRMJNIFIDAGB?D?<E@=HC@HC@FA>HC@LGDLGDLGDNIFRMJSNKQLIOJGOJGRMJUPMXSPXSPVQNSNKOJGLGDMHENIFMHELGDNIFRMJVQNWROTOLRMJQLIPKHQLIUPMXSPUPMRMJSNKSNKOJGKFCKFCOJGRMJRMJSNKRMJNIFKFCKFCMHENIFOJGOJGOJGNIFNIFPKHSNKUPMVPPXRRZURXSPUPMTOLVQNXSPWROSNKNIFLGDNIFQLIRLLQKKQMLQMLQMLRNMOKHMIFFEA762
         


666BA?CB@JIGKJHLHELHEOKHMIFJFCGC@EA>FB?KGDPLISOLTPMUQNTPMRNKPLIMIFLHEIEBD@=@<9B>;GC@MIFOKHQMJMIFKGDLHENJGQMJQMJQMJPLINJGOKHNJGNJGOKHMIFJFCLHEOKHOKHPLIQMJPLINJGMIFMIFKGDJFCJFCMIFQMJTPMUQNUQNUQNTPMSOLTPMUQNUQNRNKOKHMHEIDAE@=E@=GB?IDAKFCLGDMHENIFNIFLGDKFCMHEMHELGDMHENIFQLISNKRMJNIFGB?B=:B=:E@=HC@JEBLGDNIFKFCHC@FA>HC@JEBKFCJEBGB?FA>GB?IDARMJWROVQNVQNTOLOJGNIFMHERMJSNKSNKSNKSNKRMJOJGKFCJEBIDAJEBNIFPKHNIFMHEOJGLGDKFCLGDQLISNKQLINIFMHERMJTOLUPMTOLRMJRMJTOLVQNTOLSNKQLINIFOJGSNKVQNXSPWROUPMSNKQLIQLIUPMWROUPMTOLUPMTOLPKHLGDMHEPKHSNKUPMTOLRMJNIFKFCKFCLGDLGDLGDKFCIDAHC@HC@KFCNIFQLIRLLTNNUPMSNKQLIQLISNKTOLSNKQLIOJGOJGRMJUPMTNNSMMRNMSONSONSONPLIMIFBA=0/+   			777EDBFECNMKONLPLIQMJQMJNJGKGDJFCHDAFB?IEBNJGUQNWSPXTQVROTPMSOLPLINJGGC@D@=B>;C?<GC@KGDMIFOKHKGDIEBHDAJFCLHEMIFNJGNJGOKHOKHMIFMIFMIFKGDJFCKGDNJGMIFNJGNJGNJGLHELHELHEJFCIEBHDAKGDPLITPMVROWSPVROSOLQMJRNKUQNVROSOLOKHKFCHC@FA>FA>GB?HC@JEBLGDLGDNIFNIFLGDLGDNIFNIFMHEMHENIFOJGPKHOJGLGDHC@E@=D?<E@=FA>GB?IDAKFCJEBHC@FA>FA>HC@IDAGB?FA>FA>HC@JEBRMJVQNTOLVQNVQNQLIMHEJEBOJGRMJTOLUPMUPMTOLRMJQLIPKHOJGQLIUPMXSPVQNSNKSNKPKHNIFMHEPKHQLIOJGKFCIDAMHEPKHSNKSNKRMJRMJVQNZURXSPVQNSNKQLIQLITOLWROYTQYTQXSPWROUPMTOLVQNWROTOLTOLUPMSNKPKHNIFOJGQLISNKSNKQLIMHEIDAHC@IDAIDAIDAHC@GB?FA>E@=E@=GB?IDAKFCMGGNHHNIFLGDKFCLGDOJGPKHNIFMHEMHEPKHTOLVQNUOOSMMQMLSONSONTPOQMJMIF>=9&%!         						777FECIHFONLRQOUQNVRORNKOKHLHEKGDJFCHDAIEBLHERNKUQNWSPUQNTPMTPMRNKOKHIEBIEBIEBIEBIEBJFCMIFOKHLHEIEBFB?FB?HDAIEBKGDMIFNJGNJGMIFLHEMIFKGDIEBKGDMIFLHEKGDKGDJFCJFCJFCLHEJFCIEBIEBKGDOKHSOLVROVROQMJMIFJFCLHEQMJSOLPLILHEJEBIDAIDAIDAHC@HC@JEBLGDLGDMHEMHELGDMHEOJGOJGNIFLGDLGDMHEMHELGDKFCJEBJEBIDAGB?FA>GB?HC@IDAIDAJEBGB?FA>FA>GB?GB?GB?IDAKFCLGDRMJUPMSNKUPMWRORMJNIFKFCNIFPKHSNKTOLTOLTOLTOLUPMUPMSNKSNKVQNXSPXSPWROVQNUPMRMJPKHPKHOJGLGDIDAGB?KFCMHEPKHSNKSNKSNKVQNYTQZURXSPUPMSNKSNKUPMVQNVQNVQNWROXSPXSPVQNWROVQNRMJQLIPKHOJGNIFOJGQLIRMJQLIPKHLGDGB?D?<E@=GB?HC@GB?GB?HC@HC@HC@GB?FA>FA>FA>JDDJDDIDAFA>E@=IDALGDNIFKFCJEBKFCNIFRMJSNKRLLRLLPLKSONSONTPORNKOKH?>:%$ 
       555DCAGFDLKIONLTPMVROQMJPLIMIFJFCIEBIEBJFCJFCKGDOKHRNKRNKRNKSOLRNKNJGLHENJGOKHNJGKGDIEBLHEPLIOKHKGDGC@GC@GC@HDAKGDNJGMIFOKHNJGMIFMIFKGDHDAJFCMIFKGDJFCIEBHDAHDAJFCLHEKGDJFCKGDLHEOKHOKHOKHNJGHDAFB?EA>GC@JFCLHEKGDHDAKFCKFCKFCLGDKFCJEBLGDNIFMHENIFMHELGDMHENIFNIFMHEHC@IDAKFCKFCKFCKFCMHENIFLGDJEBIDAJEBJEBIDAJEBMHEIDAHC@GB?HC@IDAJEBLGDNIFNIFTOLWROUPMUPMUPMQLINIFLGDMHEMHENIFOJGPKHQLISNKUPMVQNSNKQLIPKHRMJUPMVQNWROVQNTOLRMJPKHNIFKFCJEBJEBMHELGDMHERMJUPMVQNYTQ\WT[VSYTQVQNTOLSNKQLIOJGMHENIFOJGRMJSNKRMJSNKRMJNIFKFCJEBJEBLGDQLIUPMUPMSNKQLILGDE@=C>;E@=GB?HC@HC@GB?IDAKFCKFCIDAGB?E@=E@=IEDHDCD@=A=:B>;GC@LHENJGMIFKGDJFCLHENJGOKHPLKQMLQMLSONTPOUQPTPMSOLED@-,(    111A@>CB@FECJIGQMJSOLPLIRNKOKHIEBGC@JFCJFCGC@EA>JFCOKHPLIQMJRNKPLIMIFKGDMIFOKHMIFIEBGC@KGDPLIRMJNIFKFCJEBIDAIDAKFCNIFPKHRMJQLINIFMHEKFCIDAJEBLHEKGDIEBHDAHDAHDAJFCLHEJFCKGDMIFNJGNJGKGDGC@D@=D@=D@=D@=D@=EA>GC@IEBJFCMHELGDLGDNIFNIFNIFNIFOJGPKHOJGMHELGDMHEMHEMHEKFCGB?GB?HC@HC@IDAKFCMHENIFLGDKFCKFCMHEMHEKFCLGDMHEJEBIDAIDAJEBKFCLGDMHENIFOJGUPMXSPVQNUPMTOLPKHOJGOJGNIFMHEKFCKFCLGDNIFQLITOLTOLRMJNIFKFCKFCOJGSNKUPMVQNUPMSNKQLINIFLGDKFCKFCKFCKFCNIFWRO[VSZURYTQYTQUPMRMJPKHOJGNIFLGDIDAGB?GB?HC@KFCLGDLGDNIFNIFJEBGB?GB?GB?JEBQLIVQNXSPWROTOLOJGHC@FA>FA>FA>GB?GB?GB?IDAJEBJEBHC@GB?GB?GB?JFEHDCD@=@<9B>;JFCOKHPLIOKHLHEJFCKGDLHENJGOKJQMLQMLSONSONTPOSOLSOLJIE651      ...@?=BA?CB@GFDOKHPLIPLITPMSOLKGDHDAJFCHDAC?<C?<GC@KGDMIFNJGMIFLHEJFCHDAJFCKGDIEBFB?EA>IEBNJGQLIMHEKFCKFCIDAGB?GB?JEBRMJTOLQLIMHEKFCIDAHC@JEBLHEKGDJFCJFCJFCIEBJFCLHEKGDNJGPLIPLIMIFIEBEA>C?<EA>EA>EA>D@=C?<EA>IEBMIFNIFMHELGDNIFOJGPKHPKHPKHQLIOJGMHELGDMHEMHEKFCIDAIDAGB?E@=E@=FA>IDAJEBKFCIDAIDAKFCLGDLGDLGDLGDMHEJEBJEBKFCLGDLGDKFCKFCMHEMHETOLXSPVQNUPMTOLPKHQLIQLIOJGMHEJEBHC@HC@JEBNIFRMJSNKSNKPKHKFCHC@JEBNIFPKHTOLSNKRMJPKHOJGNIFMHELGDIDAJEBQLIZUR\WTVQNQLIPKHNIFJEBGB?HC@IDAJEBIDAIDAGB?HC@JEBKFCKFCNIFMHEIDAHC@GB?GB?HC@MHESNKVQNWROVQNQLILGDIDAGB?E@=D?<D?<FA>FA>FA>GB?HC@IDAIDAHC@JFEIEDEA>A=:EA>LHEQMJQMJNJGKGDIEBKGDMIFNJGPLKSONRNMSONSONSONQMJQMJLKG>=9%$"
	            ,,,@?=CB@CB@FECNJGOKHPLITPMUQNQMJMIFJFCFB?B>;B>;C?<FB?IEBIEBHDAHDAHDAGC@GC@HDAGC@EA>EA>HDALHEMHEKFCKFCLGDIDAE@=C>;E@=MHEPKHPKHLGDKFCIDAIDAKFCLHELHELHEMIFMIFLHELHELHEMIFOKHPLIMIFIEBFB?FB?GC@FEAFEAGC@FB?FB?HDAKGDMIFMHEKFCKFCLGDNIFOJGRJHRJHQLIOJGMHELGDMHELGDKFCIDAIDAFA>D?<D?<FA>HC@HC@GB?FA>HC@JEBJEBKFCLGDNIFOJGLGDLGDMHENIFLGDJEBJEBKFCJEBTOLXSPVQNUPMTOLPKHPKHQLIOJGLGDIDAGB?E@=FA>KFCOJGSNKUPMSNKLGDGB?GB?IDAKFCNIFNIFOJGPKHQLIQLIPKHNIFKFCLGDQLIXSPVQNNIFIDAIDALGDHC@E@=E@=HC@KFCMHENIFKFCKFCMHEOJGPKHQLIOJGJEBJEBIDAHC@GB?IDANIFRMJUPMVQNSNKOJGLGDIDAE@=C>;C>;C>;C>;D?<FA>IDAKFCJEBIDAJFEIEDFB?C?<GC@NJGRNKRNKMIFKGDJFCLHEOKHPLIRNMVRQTPOUQPUQPTPOPLIPLIOKHBA=+*(
         			   +++A@>EDBDCAGFDOKJOKHOKHRNKVROWSPRNKKGDEA>C?<A=:A=:C?<FB?GC@FB?FB?HDAGC@FB?FB?FB?D@=D@=FB?HDAKFCJEBKFCLGDJEBC>;A<9B=:FA>LGDNIFMHELGDKFCJEBKFCMIFMIFOKHPLIPLINJGMIFMIFMIFNJGMIFIEBD@=B>;EA>HDAGFBGFBIEBJFCKGDLHELHELHEKFCJEBIDAKFCLGDMHEQIGRJHQLINIFLGDLGDMHEMHEKFCIDAHC@E@=C>;E@=IDAJEBGB?D?<FA>IDAJEBIDAIDAMHEPKHQLINIFNIFPKHOJGMHEJEBJEBKFCIDAOJGUPMTOLTOLTOLPKHOJGMHEMHELGDJEBFA>E@=GB?JEBLGDUQNVROTPMOKHIEBHDAIEBJFCKGDKGDLHENJGNJGNJGPLISOLQLIPKHQLIQLINIFIDAGB?IDAJEBKFCJEBJEBJEBLGDNIFNIFKGDMIFOKHPLISNKTOLQLINIFOJGNIFKFCGB?FA>JEBPKHSNKUPMSNKRMJPKHLGDIDAHC@IDAJEBIDAIDAJEBKFCJEBIDAJEBNIFJEBGC@JFCPLIRNKOKHMIFLHEJFCJFCMIFRNKTPMRNKPLIRNMSONUOOQKKOIIQMLPLKKGF40/     						   


&&&===FFFGEFHGENJIQMLRNMRNMSOLWSPXTQSOLKGDEA>C?<C?<EA>GC@FB?D@=EA>IEBJEBJEBIDAIDAHC@HC@IDAIDAKFCLGDLGDKFCJEBHC@C>;?:7D?<D?<HC@MHEOJGMHELGDNIFNIFPKHRMJQLINIFOJGPKHNIFOKHMIFGC@A=:A=:FB?GC@EA>FB?KGDNJGNJGPKHOJGNIFNIFKFCJEBIDAIDAKFCNIFNIFLGDMHEJEBIDALGDMHEKFCHC@E@=KFCE@=C>;GB?MHEOJGKFCFA>E@=FA>IDAJEBJEBLGDOJGNIFOJGNIFNIFOJGPKHNIFLGDLGDKFCNIFTOLTOLUPMTOLOJGMHEJEBMHEMHELGDHC@FA>HC@KFCMHETPMUQNTPMPLIMIFLHEMIFMIFLHEKGDLHEMIFOKHPLIRNKTPMSNKQLIOJGNIFLGDIDAIDALGDMHEMHELGDKFCLGDNIFOJGPKHOKHPLIPLIPLIRMJSNKRMJQLIPKHOJGMHEHC@GB?JEBPKHTOLSNKRMJQLIQLIPKHNIFMHEMHENIFMHEMHEMHELGDLGDMHENIFPKHMHEKGDNJGRNKRNKOKHLHELHEJFCJFCLHEQMJTPMSOLRNKRNMRNMSMMPJJOIIRLLPLKIED40/     


			   """<<<GGGIGHHFGNJIQMLSONRNMSOLXTQZVSVROOKHHDAHDAGC@FB?HDAHDAFB?FB?HDAJEBIDAIDAIDAHC@IDAIDAIDALGDMHENIFMHELGDJEBFA>C>;C>;D?<HC@NIFPKHOJGNIFOJGNIFPKHSNKQLINIFOJGQLIOJGMIFKGDFB?B>;EA>JFCLHELHEJFCOKHQMJQMJRMJPKHMHELGDJEBJEBJEBJEBKFCMHELGDJEBIDAFA>FA>HC@JEBJEBGB?FA>MHEHC@FA>IDAOJGQLINIFJEBHC@HC@IDAJEBIDALGDNIFLGDMHELGDLGDMHEOJGNIFNIFNIFMHEMHESNKSNKUPMUPMPKHLGDHC@JEBKFCKFCJEBIDALGDOJGRMJSOLSOLRNKRNKQMJQMJPLIOKHNJGMIFMIFOKHPLIRNKTPMUQNTOLPKHMHELGDKFCKFCLGDMHEMHEMHEMHELGDMHEOJGQLIQLIQMJQMJPLINJGNIFPKHRMJSNKQLIRMJPKHLGDJEBKFCPKHTOLQLIPKHOJGQLISNKRMJQLIQLIQLIPKHNIFMHELGDLGDMHEOJGOJGNIFOKHRNKTPMSOLPLINJGOKHLHEJFCKGDOKHRNKRNKRNKQMLQMLQMLPLKQMLTPORNMJFE40/  





   999HHHKIJJHINJIQMLRNMPLKQMJVROZVSXTQRNKMIFNJGJFCHDAIEBKGDKGDKGDKGDLGDKFCKFCJEBJEBJEBJEBJEBMHEOJGPKHPKHOJGMHEKFCIDAGB?HC@JEBNIFOJGMHELGDLGDLGDOJGRMJQLINIFOJGRMJRMJLHEHDAEA>FB?JFCNJGOKHOKHLHEPLIQMJPLIRMJOJGJEBIDAJEBJEBJEBJEBJEBJEBIDAHC@E@=C>;C>;E@=HC@IDAHC@HC@MHEIDAGB?JEBNIFPKHNIFLGDLGDJEBIDAHC@GB?JEBLGDKFCJEBIDAIDAKFCMHENIFOJGPKHOJGKFCQLIQLITOLUPMQLINIFJEBHC@IDAJEBKFCMHEQLITOLVQNTPMRNKQMJRNKTPMTPMRNKPLIQMJPLIOKHPLIQMJRNKSOLSOLQLINIFLGDMHENIFMHELGDLGDLGDLGDKFCLGDNIFQLIRMJRMJQMJPLIOKHLHELGDMHEQLITOLRMJTOLTOLQLIMHEMHEPKHRMJOJGMHELGDNIFRMJRMJQLIPKHRMJOJGMHELGDLGDMHEMHEMHELGDMHEOKHSOLTPMSOLRNKQMJSOLPLILHEKGDLHENJGNJGMIFMIHMIHOKJPLKRNMUQPTPOMIH621  			   666IIIMKLLJKNJIQMLPLKNJINJGQMJUQNUQNRNKPLIPLILHEJFCKGDNJGOKHPLIPLIPKHOJGNIFMHELGDLGDKFCKFCNIFOJGQLIQLIPKHOJGOJGOJGLGDLGDLGDMHEMHELGDJEBIDAKFCNIFRMJRMJNIFOJGSNKTOLLHEHDAGC@KGDOKHOKHMIFLHELHEMIFLHEKGDMHEKFCHC@GB?KFCKFCJEBIDAGB?GB?HC@HC@E@=D?<C>;E@=GB?IDAJEBJEBMHEJEBGB?HC@KFCMHEMHEMHENIFLGDKFCIDAGB?HC@KFCJEBGB?GB?HC@KFCLGDMHEOJGQLIQLIIEBNJGMIFQMJUQNSOLQMJMIFKGDJFCKGDMIFPLIRNKSOLTPMUPMSNKQLIRMJUPMVQNTOLQLISNKRMJQLIQLIRMJRMJQLIPKHNIFMHELGDNIFPKHOJGMHEKFCLGDLGDLGDLGDOJGQLIRMJQLIPLIOKHNJGLHEKFCMHEQLITOLSNKVQNWROTOLPKHNIFNIFOJGNIFKFCJEBMHEPKHRMJQLIPKHRMJPKHNIFNIFPKHPKHOJGMHELGDNIFPKHTOLUPMUPMSOLTPMUQNRNKNJGKGDKGDJFCJFCIEBIEDJFEMIHOKJPLKRNMRNMNJI843   111FFFMKLOMNPLKRNMOKJLHGKGDLHEOKHQMJQMJQMJQMJNJGLHELHENJGOKHPLIQMJRMJQLIPKHOJGOJGNIFNIFMHEMHENIFOJGOJGNIFNIFOJGPKHNIFMHEMHEMHENIFNIFMHEKFCLGDOJGSNKRMJNIFMHEQLIRMJOKHKGDJFCNJGQMJOKHKGDHDALHELHEIEBGC@IDAGB?FA>GB?KFCKFCJEBIDAGB?FA>GB?HC@GB?FA>FA>FA>GB?IDAKFCKFCMHEJEBGB?GB?IDAJEBLGDLGDLGDLGDNIFNIFJEBIDAKFCJEBFA>HC@KFCMHELGDLGDOJGQLISNKGC@KGDKGDOKHTPMUQNTPMQMJOKHNJGNJGPLIQMJRNKSOLSOLTOLQLIPKHQLITOLTOLRMJQLIRMJSNKSNKRMJRMJQLIPKHNIFMHELGDKFCLGDNIFNIFLGDKFCNIFNIFMHENIFPKHRMJQLIOJGLHELHELHEJFCJEBKFCNIFRMJSNKVQNXSPUPMQLINIFLGDLGDKFCJEBJEBMHEPKHQLIPKHPKHOJGOJGOJGPKHSNKSNKQLINIFOJGOJGPKHSNKTOLTOLRNKSOLRNKPLIMIFLHEKGDKGDJFCIEBJFEKGFNJIPLKOKJOKJPLKNJI;76      


   ,,,AAAJHIPNOQMLRNMPLKMIHJFCIEBKGDLHENJGPLIRNKQMJOKHMIFLHEKGDLHENJGPKHOJGOJGOJGOJGPKHOJGNIFLGDKFCJEBKFCKFCKFCMHENIFOJGOJGNIFNIFOJGQLIPKHMHEKFCMHEPKHOJGJEBHC@JEBJEBPLILHEKGDMIFOKHNJGJFCHDAJFCJFCGC@EA>FA>D?<D?<FA>IDAIDAJEBJEBHC@FA>FA>GB?HC@HC@HC@GB?GB?IDAJEBKFCLGDIDAGB?GB?HC@HC@HC@IDAIDAKFCOJGQLIMHEKFCKFCKFCJEBKFCNIFNIFMHELGDMHEPKHQLIEA>IEBHDAMIFTPMUQNUQNRNKPLIPLIQMJRNKQMJPLIQMJSOLRMJPKHOJGPKHQLIPKHNIFMHEMHEPKHRMJRMJRMJQLIOJGMHEMHEKFCIDAIDAKFCLGDKFCJEBMHEMHEMHENIFPKHQLIPKHMHEJFCIEBIEBHDAHC@HC@KFCOJGTOLVQNVQNSNKOJGLGDJEBIDAGB?HC@JEBMHENIFMHELGDLGDJEBLGDNIFPKHRMJSNKQLINIFNIFMHEMHEPKHQLIQLINJGNJGMIFLHELHEMIFMIFMIFLHEKGDMIHMIHOKJPLKNJGNJGNJGNJG<87   			      			(((;;;DBCMKLOKJPLKRNMMIHIEBGC@HDAIEBKGDLHEPLIPLIOKHLHEJFCHDAIEBJFCLGDLGDLGDLGDMHENIFMHELGDIDAGB?FA>FA>FA>GB?IDAKFCNIFOJGOJGNIFPKHQLIOJGKFCIDAJEBMHELGDGB?E@=FA>FA>JFCIEBIEBKGDMIFLHEJFCGC@GC@HDAFB?EA>FA>D?<C>;FA>IDAIDAIDAJEBIDAGB?GB?HC@HDAIEBJEBIDAHC@JEBKFCKFCKFCIDAHC@IDAIDAHC@FA>E@=HC@HC@KFCMHEKFCJEBLGDMHEMHEMHENIFNIFLGDKFCLGDMHEMHED@=HDAGC@LHESOLUQNTPMQMJQMJRNKSOLRNKPLIMIFNJGQMJQLIOJGNIFOJGNIFKFCIDAHC@HC@KFCOJGPKHOJGOJGMHELGDKFCJEBIDAHC@IDAJEBJEBIDAKFCKFCLGDMHEOJGQLINIFKFCJFCIEBHDAHDAHC@HC@KFCNIFTOLVQNUPMQLIMHEJEBIDAGB?D?<FA>IDALGDLGDIDAGB?FA>FA>IDAMHEOJGQLIRMJQLIOJGLGDJEBJEBLGDNIFNIFKGDIEBIEBJFCLHEMIFOKHOKHMIFLHENJILHGNJIOKJMIFLHEMIFMIF<87   


   			(((888?=>IGHLHGLHGRNMMIHHDAFB?FB?GC@HDAHDALHEMIFMIFKGDIEBHDAHDAIEBJEBJEBIDAJEBKFCKFCJEBIDAHC@E@=B=:B=:C>;D?<FA>HC@JEBLGDMHEMHEOJGQLINIFIDAHC@IDALGDMHEHC@FA>GB?FA>C?<D@=FB?HDAKGDKGDGC@D@=EA>GC@HDAHDAIDAFA>D?<GB?JEBIDAHC@IDAHC@GB?HC@JEBIEBJFCLGDKFCJEBKFCLGDLGDLGDKFCKFCLGDLGDJEBFA>D?<IDAFA>FA>FA>FA>HC@MHEPKHPKHNIFLGDLGDKFCJEBJEBKFCKFCFB?HDAGC@MIFTPMSOLSOLQMJTPMTPMSOLQMJNJGLHEMIFPLIQLINIFKFCJEBIDAGB?FA>FA>FA>HC@KFCLGDMHENIFMHEKFCKFCLGDKFCHC@HC@IDAIDAGB?KFCJEBJEBMHEOJGOJGMHEKFCIEBHDAHDAIEBHC@GB?IDAMHEQLISNKOJGMHEMHEJEBFA>GB?FA>IDAJEBJEBHC@FA>D?<B=:D?<IDANIFNIFMHEMHELGDKFCHC@HC@HC@HC@GB?GB?HC@HC@FB?FB?IEBNJGQMJQMJOKHOKHOKJOKJOKJMIHMIFMIFOKHPLI;76           


$$$666=;<DBCIEDIEDOKJMIHJFCFB?EA>FB?GC@GC@GC@GC@GC@HDAHDAIEBJFCJFCKFCIDAHC@JEBLGDLGDIDAGB?FA>E@=C>;B=:B=:D?<GB?IDAHC@JEBLGDMHENIFNIFLGDIDAFA>IDALGDMHEJEBHC@FA>E@=C?<A=:B>;GC@LHELHEIEBFB?EA>FB?IEBLHEIDAC>;C>;HC@JEBIDAHC@GB?HC@JEBKFCJEBKGDMIFNJGLHEKGDLHENIFOJGNIFMHEMHEOJGOJGLGDHC@FA>IDAFA>C>;C>;D?<GB?KFCOJGMHEMHELGDJEBIDAIDAIDAIDAJEBIEBKGDHDALHEQMJRNKTPMSOLUQNTPMRNKPLIOKHMIFMIFNJGPKHMHEKFCIDAHC@FA>FA>GB?FA>HC@IDAJEBLGDNIFOJGOJGOJGQLIPKHMHEKFCKFCIDAGB?HC@HC@IDALGDNIFMHELGDKFCKGDIEBIEBIEBJEBHC@IDALGDNIFOJGMHELGDLGDJEBHC@HC@GB?IDAKFCKFCJEBHC@FA>D?<D?<IDALGDLGDLGDLGDLGDJEBHC@GB?GB?FA>FA>FA>FA>GB?FB?FB?HDALHEOKHPLIOKHOKHOKJOKJNJINJINJGOKHPLIQMJ>:9                 


%%%888=;<B@AIEDKGFPLKOKJMIFIEBGC@GC@HDAHDAGC@GC@FB?EA>FB?GC@JFCLHEKFCJEBIDAJEBKFCKFCJEBIDAJEBKFCJEBHC@E@=E@=FA>HC@FA>IDALGDMHEMHEMHEKFCIDAFA>IDALGDMHEKFCHC@FA>FA>C?<A=:A=:EA>JFCKGDHDAFB?GC@FB?IEBLHEKFCE@=E@=HC@HC@IDAJEBIDAJEBKFCKFCJEBMIFOKHPLIOKHMIFMIFOJGOJGNIFMHEMHEOJGOJGLGDIDAHC@HC@FA>D?<C>;C>;C>;GB?JEBJEBJEBJEBJEBJEBJEBJEBJEBJEBLHEPLILHELHENJGPLITPMUQNVROSOLOKHOKHOKHNJGLHEKGDMHELGDJEBHC@GB?FA>FA>GB?GB?HC@IDAJEBLGDNIFPKHQLIQLISNKTOLQLINIFMHEKFCIDAGB?GB?HC@KFCLGDLGDLGDLGDKGDIEBIEBKGDMHELGDLGDMHEMHELGDLGDLGDJEBIDAJEBHC@HC@JEBLGDMHELGDJEBHC@FA>E@=HC@JEBJEBKFCLGDKFCJEBHC@HC@GB?FA>FA>GB?GB?HC@HC@HC@GC@JFCMIFOKHPLIQMJOKJNJINJGNJGOKHQMJRNKSOLB>;              


         


''';;;><=A?@HDCMIHPLKQMLPLIMIFKGDJFCJFCJFCGC@FB?D@=B>;A=:D@=HDALHEKFCKFCJEBIDAIDAJEBJEBJEBMHEPKHQLINIFIDAFA>E@=FA>HC@KFCMHENIFNIFMHELGDKFCHC@JEBMHEMHELGDIDAGB?FA>D@=B>;A=:D@=HDAIEBHDAGC@GC@FB?HDAKGDKFCGB?E@=GB?HC@JEBMHEMHEMHELGDKFCJEBKGDNJGOKHOKHNJGNJGNJGMIFOJGNIFMHEMHEMHELGDKFCJEBHC@HC@GB?E@=C>;A<9C>;FA>FA>GB?HC@IDAIDAIDAHC@HC@HC@MIFSOLQMJNJGNJGNJGRNKRNKRNKOKHLHEMIFNJGMIFKGDIEBKFCKFCKFCKFCJEBHC@GB?FA>IDAJEBKFCKFCKFCMHEPKHRMJRMJSNKSNKRMJQLIQLIPKHPKHJEBJEBJEBKFCLGDLGDMHENIFKGDIEBIEBLHEQLIQLIQLIQLIPKHNIFOJGNIFIDAIDAJEBHC@IDAJEBLGDMHEMHEKFCHC@GB?FA>HC@JEBJEBJEBKFCKFCKFCJEBJEBIDAHC@HC@IDAJEBJEBIDAHC@GC@IEBLHENJGPLIPLIMIHLHGLHEMIFPLIRNKSOLTPMB>;              


			         


)))>>>A?@A?@GCBMIHPLKQMLQMJOKHMIFMIFMIFMIFJFCIEBFB?B>;@<9A=:FB?IEBKFCLGDKFCIDAGB?GB?HC@HC@KFCOJGRMJRMJNIFIDAFA>E@=JEBLGDNIFNIFMHEMHEMHENIFLGDMHENIFOJGMHEIDAGB?GB?EA>D@=C?<EA>HDAIEBIEBHDAHDAFB?GC@KGDLGDHC@E@=FA>IDAMHEPKHPKHNIFMHEKFCJEBFB?HDAKGDLHEMIFNJGOKHOKHPKHOJGMHEKFCKFCKFCLGDMHEKFCJEBIDAGB?D?<C>;C>;D?<FA>GB?HC@HC@GB?FA>FA>FA>E@=LGDTOLTOLQLIOJGMHEMHELGDKFCIDAIDAKFCMHEMHELGDKFCLGDMHEOJGQLIQLIOJGKFCGB?HC@IDAJEBJEBIDAKFCOJGSNKTOLSNKRMJQLIRMJTOLVQNVQNOJGNIFMHEMHENIFNIFOJGPKHLHEKGDLHEOKHTOLUPMUPMUPMSNKPKHQLIOJGIDAHC@JEBHC@IDAJEBKFCLGDLGDJEBGB?FA>E@=HC@KFCJEBIDAIDAKFCMHEMHEMHELGDKFCKFCKFCKFCKFCJEBJEBIDAJEBKFCMHELHELHEIEBIEBIEBKGDNJGQMJRNKSOLA=:               


      			(((@@@CABB@AGCBKGFOKJPLKQMJOKHMIFNJGOKHOKHOKHNJGLHEHDAEA>D@=EA>HDAKFCLGDLGDIDAFA>FA>FA>E@=FA>KFCPKHSNKRMJOJGJEBHC@HC@HC@IDAIDAIDAJEBLGDNIFMHENIFOJGOJGNIFJEBHC@HC@GC@FB?FB?GC@IEBJFCJFCIEBIEBHDAIEBLHEMHEIDAGB?GB?JEBMHEOJGNIFKFCJEBIDAHC@C?<EA>FB?GC@IEBMIFOKHPLIQLIOJGLGDIDAHC@IDAKFCMHEKGDKGDIEBFB?D@=D@=D@=EA>GC@HDAHDAGC@EA>C?<C?<C?<B>;JEBRMJRMJQLIOJGIDAHC@E@=D?<D?<FA>IDAKFCLGDMHEOJGNIFPKHTOLWROXSPVQNPKHKFCGB?GB?GB?FA>FA>GB?MHERMJUPMSNKPKHOJGPKHSNKUPMVQNRMJPKHOJGOJGPKHPKHQLIRMJPLIOKHOKHQMJSNKTOLUPMUPMRMJQLIPKHNIFIDAHC@IDAIDAJEBJEBJEBKFCJEBHC@FA>E@=D?<GB?JEBJEBIDAIDAKFCMHEOJGOJGOJGOJGNIFLGDKFCJEBKFCKFCJEBIDAIDAIDAGC@EA>FB?FB?GC@IEBLHEOKHPLIQMJA=:               


   			(((???DBCCABGCBIEDLHGOKJPLIOKHMIFMIFNJGOKHPLIQMJPLINJGKGDHDAGC@GC@LGDLGDKFCHC@GB?GB?FA>D?<E@=HC@NIFSNKTOLSNKOJGLGDE@=E@=E@=E@=FA>GB?JEBLGDLGDKFCMHENIFMHEJEBIDAJEBHDAHDAGC@GC@HDAJFCJFCIEBHDAGC@HDAKGDMHEKFCHC@HC@IDAKFCKFCIDAGB?FA>FA>FA>C?<C?<C?<B>;D@=HDAKGDLHENIFMHEJEBFA>E@=GB?IDAKFCKGDJFCHDAEA>D@=EA>FB?FB?FB?GC@FB?EA>B>;A=:A=:B>;B>;LGDQLIQLIQLIOJGIDAFA>E@=D?<D?<FA>HC@IDAKFCNIFPKHNIFRMJVQNYTQZURXSPTOLPKHHC@HC@HC@IDAIDAJEBMHEPKHTOLQLIOJGNIFNIFOJGQLIQLIPKHNIFNIFPKHRMJRMJRMJSNKQMJQMJPLIOKHOJGPKHQLIRMJPKHQLIOJGLGDJEBHC@HC@KFCJEBIDAIDAJEBIDAGB?E@=E@=D?<GB?JEBKFCJEBJEBLGDNIFOJGPKHRMJSNKRMJPKHNIFLGDKFCJEBIDAGB?GB?GB?EA>B>;C?<D@=FB?HDAJFCLHENJGPLIC?<            						   			'''===B@ADBCGCBIEDJFENJIPLINJGKGDJFCJFCKGDOKHPLIRNKRNKPLIMIFJFCHDAMHELGDJEBGB?HC@JEBIDAGB?FA>HC@LGDPKHRMJRMJPKHNIFGB?E@=D?<E@=E@=FA>GB?IDAIDAIDAJEBLGDLGDIDAHC@IDAHDAHDAGC@EA>FB?HDAIEBIEBGC@EA>EA>JFCNIFMHEJEBHC@GB?HC@HC@FA>E@=E@=FA>GB?FB?EA>B>;@<9@<9C?<EA>EA>HDAHDAHC@E@=C>;E@=GB?HC@IEBIEBHDAEA>D@=EA>FB?GC@FB?FB?FB?D@=B>;@<9@<9@<9B>;OJGRMJPKHQLIPKHIDAHC@GB?HC@GB?FA>GB?HC@JEBMHEPKHMHEQLIUPMWROXSPXSPUPMSNKMHEMHENIFQLIQLIPKHOJGPKHSNKRMJPKHOJGNIFNIFNIFOJGLGDKFCLGDPKHSNKTOLSNKSNKOKHPLIOKHMIFLGDKFCMHEOJGOJGQLIOJGKFCJEBHC@HC@LGDKFCIDAIDAIDAIDAGB?E@=E@=E@=GB?JEBLGDLGDLGDMHENIFNIFQLITOLVQNVQNTOLRMJPKHJEBJEBHC@FA>FA>GB?EA>C?<B>;C?<EA>GC@HDAKGDMIFOKHFB?            


'''<<<A?@DBCHDCIEDIEDMIHOKHNJGKGDHDAGC@GC@MIFOKHSOLTPMTPMRNKNJGLHENIFLGDIDAGB?IDALGDLGDIDAHC@IDAKFCMHEOJGOJGNIFMHEIDAGB?E@=FA>FA>E@=E@=FA>HC@GB?HC@KFCJEBGB?FA>GB?HDAGC@FB?C?<D@=FB?HDAIEBHDAEA>EA>JFCPKHPKHLGDIDAGB?HC@GB?FA>E@=GB?HC@IDAIEBGC@D@=@<9@<9B>;C?<C?<D@=EA>FA>D?<B=:C>;E@=E@=IEBJFCJFCGC@D@=EA>GC@GC@GC@HDAHDAFB?C?<A=:@<9@<9B>;TPMVROPLIMIFNJGLHEKGDIEBLGDJEBJEBJEBIDAKFCMHELGDMHENIFQLIUPMWROWROWROWROSNKTOLTOLUPMWROXSPTOLPKHMHENIFOJGPKHPKHPKHPKHOJGNIFNIFOJGRMJTOLSNKQLIOJGOJGPKHPKHLGDHC@FA>IDAMHEMHEMHEKFCJEBKFCLGDLGDJEBJEBJEBIDAIDAKFCKFCIDAFA>FA>GB?JEBLGDMHEMHENIFPKHOJGOJGPKHRMJUPMVQNUPMRMJMHEKFCHC@FA>GB?IDAHC@E@=GC@B>;C>;HC@JEBKFCMIFOKHEA>%!                  !!!!!!	     
%%#::8@@>AA?EDBDCAFECHGEKGFJFEHDCFBAGCBHDAMIFPMHQNIPMHNJGOKHQMJQMJQMJLHEGC@FB?GCBIEDLHGNJIJFCJFCIEBJFCKGDMIFNJGMIFKGDFB?EA>EA>C?<C?<EA>FB?FB?GC@HDAIEBHDCFBAC?>B>=C?>D@?EA@EA@C?>A=<B>=EA@FBAEA@GCBKGFNJINJIKGFIEDGC@GC@GC@GC@GC@GC@HDAIEBHDAGC@B>;>:7>:7@<9A=:?;8A=:C?<EA>EA>C?<@<9A=:D@=HC@JEBJEBGB?E@=FA>EA>C?<FB?IEBLHEKGDGC@C?<B>;B>;D?<VROVRONJGJFCJFCKGDMIFKGDJEBHC@IDAKFCKFCMHENIFLGDJEBKFCMHEQLISNKSNKSNKTOLRMJRMJRMJSNKUPMVQNUPMRMJNIFOJGOJGOJGPKHPKHPKHPKHTOLRMJRMJRMJRMJOJGLGDJEBKFCLGDLGDJEBGB?FA>IDALGDMHEMHEKFCJEBKFCLGDLGDKFCIDAJEBJEBJEBKFCKFCIDAFA>FA>GB?IDAKFCKFCKFCMHEOJGPKHPKHPKHQLISNKUPMTOLRMJOJGKFCFA>E@=HC@KFCKFCIDAKGDIEBHC@HC@JEBKFCMIFQMJKGD+'$                  )))+++(&' 	"" 775??=AA?DCACB@EDBFECHDCGCBFBAEA@FBAGC@MIFPMHQNIPMHOKHOKHOKHOKHPLIKGDFB?EA>FBAHDCJFELHGKGDIEBHDAHDAKGDMIFNJGOKHLHEHDAEA>C?<A=:C?<EA>EA>EA>FB?GC@GC@FBAEA@D@?D@?C?>D@?EA@EA@B>=@<;@<;B>=EA@D@?FBAIEDLHGLHGJFEHDCGC@FB?EA>EA>FB?HDAIEBJFCIEBHDAFB?@<9<85;74=96?;8?;8@<9C?<C?<B>;@<9@<9A=:FA>HC@IDAGB?GB?GB?FB?D@=IEBIEBKGDLHEKGDIEBEA>A=:E@=VROUQNKGDEA>GC@IEBNJGNJGJEBHC@IDALGDMHENIFNIFKFCGB?HC@IDAKFCMHEMHEMHENIFMHEMHEMHEMHENIFPKHPKHOJGOJGMHELGDLGDMHENIFNIFNIFRMJPKHNIFNIFMHEKFCHC@GB?GB?HC@HC@GB?E@=E@=FA>HC@LGDLGDJEBIDAJEBLGDLGDKFCIDAIDAJEBJEBJEBJEBIDAGB?FA>FA>GB?HC@HC@IDAJEBLGDPKHPKHOJGOJGPKHRMJSNKRMJQLILGDGB?GB?KFCPKHNJGLHEOKHQMJNJGJFCJFCJFCLHEQMJPLI2.+	                        


   000111/.,&%#"" 664??=AA?CB@BA?CB@DCAGCBGCBFBAFBAFBAFB?JFCMJENKFNKFLHEKGDKGDKGDMIFIEBEA>D@=D@?FBAHDCJFEKGDIEBHDAHDAKGDMIFNJGOKHOKHLHEHDAD@=A=:D@=GC@FB?EA>EA>EA>D@=C?>C?>D@?EA@C?>D@?D@?C?>?;:=98>:9A=<C?>C?>EA@HDCJFEIEDHDCHDCGC@FB?D@=D@=FB?IEBKGDMIFLHEKGDIEBEA>@<9=96=96@<9>:7?;8A=:C?<B>;@<9?;8@<9D?<FA>GB?FA>FA>HC@GC@GC@JFCIEBJFCLHEMIFKGDGC@C?<GB?RNKSOLJFCFB?GC@IEBNJGNJGLGDJEBKFCLGDKFCLGDMHEKFCIDAIDAIDAIDAIDAHC@HC@HC@HC@HC@HC@HC@HC@IDAJEBJEBLGDKFCIDAHC@IDAKFCLGDKFCKFCIDAHC@HC@HC@GB?FA>FA>D?<E@=E@=FA>FA>FA>FA>GB?IDAIDAIDAIDAJEBLGDLGDKFCJEBJEBKFCJEBJEBKFCKFCJEBFA>FA>E@=FA>FA>FA>GB?HC@KFCKFCKFCKFCMHEPKHRMJRMJPKHLGDHC@IDANIFQLIOKHLHEPLIXTQUQNOKHOKHMIFKGDPLIRNK62/                   !!!00011110.,+)"!((&775??=AA?BA?A@>A@>CB@GCBIEDIEDHDCGCBEA@FB?HE@JGBJGBIEBHDAHDAHDAJFCHDAFB?D@=B>=C?>EA@HDCJFCJFCKGDKGDKGDKGDLHENJGPLIPLINJGHDAD@=HDAJFCGC@D@=D@=C?<B>;C?>C?>D@?D@?D@?D@?D@?B>=?;:>:9?;:A=<C?>C?>D@?GCBGCBGCBGCBHDCIEBGC@D@=C?<FB?JFCMIFOKHPLILHEIEBIEBHDAD@=@<9>:7>:7?;8A=:B>;A=:@<9@<9A=:E@=FA>FA>D?<C>;E@=GC@HDAHDAHDAIEBJFCJFCIEBGC@GC@HC@OKHSOLNJGLHELHEKGDMIFMIFMHEKFCKFCKFCHC@IDALGDLGDNIFMHELGDJEBIDAGB?FA>FA>FA>FA>FA>GB?GB?GB?HC@HC@JEBIDAGB?GB?IDAJEBKFCKFCKFCIDAHC@HC@GB?GB?FA>FA>E@=FA>GB?HC@HC@HC@GB?FA>C>;D?<FA>HC@KFCMHEMHEKFCKFCKFCKFCJEBKFCLGDLGDLGDHC@GB?FA>FA>FA>E@=E@=FA>D?<FA>GB?HC@JEBNIFQLIRMJNIFKFCIDAIDAKGDMIFLHEKGDPLIZVS[WTWSPVRORNKMIFPLIRNK;74             """///00010.0/-*)'%$"##!((&//-775?><BA?A@>@?=A@>BA?DCAFECIEDIEDGCBFBAD@=EA>FB?GC@GC@GC@HDAIEBGC@HDAGC@C?<?;8>:7@<9C?<FB?IEBKGDJFCGC@D@=HDALHENJGQMJRNKMIFIEBKGDMIFIEBD@=C?<A=:B>;D@?EA@EA@D@?D@?FBAGCBGCBEA@D@?C?>C?>C?>C?>D@?FBAFBAFBAGCBHDCKGDGC@C?<B>;C?<GC@LHEOKHOKHKGDIEBLHENJGIEBB>;>:7>:7?;8A=:A=:?;8>:7@<9C?<HC@IDAHC@E@=A=:A=:C?<EA>GC@FB?EA>EA>EA>FB?FB?FB?E@=OKHUQNSOLSOLSOLPLINJGKGDKFCJEBJEBJEBGB?HC@LGDMHEPKHPKHOJGLGDJEBIDAGB?E@=D?<D?<E@=GB?IDAIDAIDAIDAJEBIDAJEBKFCLGDMHEMHEMHEOJGMHELGDKFCKFCJEBIDAIDAJEBJEBKFCKFCIDAFA>C>;A<9@;8B=:E@=IDALGDNIFMHEKFCIDAJEBIDAIDAJEBKFCLGDKFCIDAGB?GB?GB?GB?FA>E@=D?<A<9C>;D?<E@=GB?KFCNIFPKHNIFLGDJEBJEBJFCKGDKGDKGDOKHWSP[WTZVSYURUQNQMJRNKPLI=96       


!!!......10.10.+*(&%#&&$//-442775=<:A@>A@>@?=@?=A@>BA?CB@FBAGCBGCBGCBC?<C?<D@=EA>FB?FB?GC@HDAFB?GC@FB?A=:=96;74<85>:7@<9B>;EA>C?<>:7<85A=:HDAKGDNJGQMJNJGKGDLHENJGKGDD@=C?<B>;C?<D@?FBAFBAEA@D@?GCBJFELHGLHGKGFHDCFBAD@?D@?D@?EA@FBAEA@GCBHDCJFCGC@C?<A=:@<9C?<GC@JFCKGDKGDLHENJGNJGJFCEA>B>;@<9A=:C?<C?<A=:@<9C?<FB?KFCMHELGDIDAD@=A=:A=:B>;HDAD@=A=:B>;D@=FB?D@=B>;@;8OKHTPMSOLUQNWSPTPMQMJLHEIDAHC@KFCKFCIDAJEBMHEMHENIFNIFNIFLGDJEBIDAGB?E@=E@=D?<E@=HC@IDAIDAIDAJEBIDAJEBMHEOJGPKHPKHPKHOJGPKHOJGNIFNIFNIFMHELGDLGDMHENIFNIFNIFLGDHC@C>;@;8C>;E@=HC@JEBLGDMHELGDIDAHC@HC@HC@IDAKFCLGDKFCIDAHC@FA>FA>GB?HC@FA>D?<C>;B=:D?<D?<C>;D?<GB?KFCNIFMIFKGDJFCKGDLHELHELHELHELHEPLIUQNVROVROTPMSOLTPMNJGA=:      			   ...---0/-10.+*($#!$$"11/875764;:8@?=A@>@?=@?=@?=A@>BA?BA?CB@DCAEDBC?<C?<D@=FB?GC@FB?FB?GC@GC@EA>B>;@<9?;8?;8>:7<85;74=96>:7>:7;74952>:7D@=IEBJFCLHELHEJFCMIFOKHLHEGC@FB?EA>D@=D@?D@?EA@FBAD@?FBAIEDKGFMIHMIHKGFHDCEA@D@?D@?EA@EA@FBAGCBIEDJFCHDAEA>B>;@<9@<9C?<EA>GC@HDAJFCKGDKGDJFCHDAFB?B>;C?<EA>EA>D@=D@=FB?IEBJFCJFCJFCHDAFB?C?<A=:A=:FB?D@=B>;C?<FB?EA>B>;?;8=96MIFQMJPLISOLWSPVRORNKMIFHC@HC@LGDNIFMHEMHENIFMHEJEBKFCKFCJEBIDAIDAGB?E@=GB?FA>FA>HC@JEBJEBIDAJEBHC@KFCNIFQLISNKRMJQLIPKHPKHOJGNIFOJGNIFMHELGDLGDLGDNIFPKHRMJQLINIFJEBHC@HC@IDAJEBKFCLGDLGDIDAGB?HC@IDAJEBLGDNIFNIFLGDIDAFA>E@=E@=GB?GB?FA>C>;B=:E@=FA>E@=B=:B=:E@=IDALGDKGDJFCJFCMIFOKHMIFKGDJFCIEBJFCNJGQMJQMJQMJSOLTPMMIFEA>$#!
	   


!!!...---10.21/,+)$#!!!11/:97764;:8A@>A@>@?=?><@?=BA?CB@CB@DCADCAEDBFB?EA>FB?IEBIEBHDAGC@HDAGC@D@=@<9?;8C?<EA>B>;>:7;74;74=96?;8>:7=96@<9D@=HDAGC@HDAIEBIEBMIFOKHNJGKGDJFCIEBFB?C?>B>=C?>EA@EA@EA@EA@FBAIEDLHGKGFIEDEA@D@?D@?D@?EA@FBAGCBHDCJFCJFCHDAEA>B>;@<9A=:B>;C?<D@=D@=D@=GC@KGDKGDHDAC?<C?<EA>FB?FB?EA>FB?HDAFB?EA>D@=C?<C?<B>;A=:@<9C?<D@=GC@HDAFB?D@=A=:?;8@<9KGDPLIMIFRNKTPMUQNQMJNJGIDAKFCOJGRMJQLINIFLGDKFCIDAJEBKFCLGDKFCJEBHC@HC@FA>IDAJEBJEBHC@HC@IDAJEBKFCLGDNIFOJGOJGMHELGDLGDNIFOJGNIFMHEMHEMHEKFCIDAKFCMHERMJVQNVQNSNKQLIPKHMHELGDKFCJEBJEBIDAGB?FA>FA>KFCOJGPKHRMJSNKOJGIDAFA>GB?GB?E@=E@=E@=E@=D?<GB?GB?E@=B=:C>;GB?IEBJFCJFCLHEJFCJFCMIFOKHMIFMIFJFCGC@HDALHEMIFLHENJGSOLOKHGC@.-+      331664431542.-)"!! *)'875<;9<;9?><@?=CB@@?=A@>CB@CB@CB@CB@DCAEDBHDAHDAHDAIEBIEBIEBHDAGC@GC@FB?D@=B>;B>;D@=D@=C?<B>;?;8?;8B>;C?<A=:B>;D@=HDAFB?FB?IEBJFCKGDKGDLHEIEBHDAHDAHDAD@??;:@<;D@?EA@D@?B>=A=<B>=FBAHDCHDCFBAFBAEA@D@?B>=C?>EA@GCBIEBIEBIEBHDAFB?D@=B>;A=:B>;@<9A=:C?<EA>HDAJFCIEBGC@FB?D@=D@=D@=D@=EA>GC@HDAEA>A=:>:7?;8B>;B>;A=:GC@FB?GC@IEBGC@C?<B>;D@=B>;JFCOKHLHEQMJRNKSOLPLINJGLGDNIFQLISNKRMJNIFKFCKFCIDAJEBKFCLGDKFCJEBIDAIDAIDAKFCMHELGDKFCJEBKFCMHEMHELGDMHEMHEMHELGDLGDKFCLGDMHELGDJEBJEBJEBIDAGB?JEBMHERMJUPMUPMRMJOJGNIFLGDLGDKFCKFCIDAHC@FA>FA>HC@LGDOJGQLITOLUPMQLIKFCFA>GB?HC@HC@GB?FA>E@=FA>IDAIDAHC@FA>FA>IDAJFCJFCJFCLHEKGDKGDMIFNJGKGDKGDIEBHDAHDAJFCIEBIEBLHEQMJQMJKGD21/      553997764875/.*! &%#764=<:>=;?><@?=DCAA@>BA?BA?CB@CB@CB@DCADCALHEKGDJFCHDAGC@FB?FB?FB?FB?FB?D@=C?<D@=FB?FB?EA>EA>B>;A=:C?<D@=D@=D@=EA>HDAGC@HDAHDAHDAGC@HDAIEBGC@GC@HDAHDAC?>>:9?;:D@?EA@C?>A=<>:9?;:B>=D@?EA@EA@EA@D@?C?>A=<B>=D@?FBAHDAHDAGC@FB?EA>D@=C?<B>;A=:?;8@<9B>;C?<FB?HDAGC@GC@EA>EA>FB?FB?EA>FB?HDAHDAFB?C?<A=:A=:D@=D@=D@=GC@FB?GC@IEBHDAEA>EA>GC@EA>JFCOKHLHEPLIPLIRNKPLIOKHQLIQLISNKTOLRMJNIFKFCJEBHC@JEBLGDLGDKFCJEBJEBJEBJEBKFCLGDLGDKFCJEBKFCLGDMHELGDKFCJEBKFCKFCKFCJEBKFCMHEMHEJEBHC@HC@HC@FA>IDALGDPKHSNKSNKPKHMHEKFCJEBKFCKFCJEBHC@FA>E@=E@=HC@LGDPKHSNKVQNWROSNKMHEGB?GB?HC@JEBHC@E@=E@=FA>IDAJEBJEBHC@FB?HDAJFCIEBJFCMIFMIFMIFOKHMIFJFCIEBJFCIEBIEBHDAGC@HDALHEQMJRNKMIF431      664<<:;:8:970/+ ! 431>=;?><@?=@?=CB@BA?BA?BA?BA?CB@DCACB@CB@HDAHDAHDAGC@EA>D@=D@=EA>D@=D@=C?<B>;D@=FB?GC@GC@IEBFB?C?<B>;C?<D@=D@=D@=GC@HDAIEBHDAEA>C?<C?<EA>D@=FB?HDAIEBD@??;:?;:B>=FBAD@?A=<>:9>:9@<;B>=C?>D@?D@?C?>B>=A=<A=<C?>EA@GC@GC@FB?EA>D@=D@=D@=D@=B>;@<9B>;C?<C?<EA>HDAGC@FB?EA>EA>GC@HDAFB?GC@IEBHDAHDAFB?D@=D@=EA>EA>EA>D@=C?<EA>HDAJEBHC@HC@IDAIDAHDANJGLHEQMJQMJRNKQMJQMJSNKRMJPKHPKHOJGLGDJEBIDAHC@KFCLGDKFCJEBIDAIDAJEBIDAJEBJEBJEBIDAIDAIDAJEBKFCLGDKFCIDAIDAIDAIDAIDAJEBMHENIFJEBGB?GB?HC@GB?HC@IDALGDNIFOJGLGDJEBIDAIDAIDAIDAHC@GB?E@=D?<D?<GB?KFCOJGSNKVQNWROTOLQLIKFCIDAJEBKFCJEBFA>D?<E@=GB?HC@GB?E@=C?<EA>GC@HDAJFCMIFNJGNJGOKHMIFIEBGC@KGDLHEKGDIEBHDALHEPLISOLRNKLHE320            664==;<;9;:832."!0/-=<:?><?><?><@?=A@>A@>A@>A@>BA?BA?BA?BA?C?<D@=EA>EA>D@=B>;B>;C?<B>;B>;B>;B>;D@=GC@IEBIEBLHEJFCFB?C?<A=:B>;B>;B>;EA>FB?GC@FB?C?<A=:B>;C?<EA>FB?HDAJFCGCBC?>A=<B>=EA@C?>@<;>:9?;:A=<C?>C?>D@?D@?D@?B>=A=<A=<C?>D@?FB?EA>D@=D@=D@=D@=EA>EA>D@=B>;C?<EA>D@=D@=GC@GC@FB?C?<C?<FB?GC@FB?EA>FB?GC@GC@GC@FB?EA>D@=C?<C?<@<9?;8A=:FB?JEBJEBJEBIDAKFCEA>MIFKGDPLIPLIQMJQMJQMJRMJOJGLGDKFCKFCJEBIDAIDAJEBLGDMHEKFCIDAIDAIDAIDAIDAJEBJEBJEBIDAIDAIDAJEBJEBLGDLGDJEBGB?FA>FA>FA>E@=JEBLGDHC@E@=FA>HC@HC@IDAHC@HC@JEBJEBIDAHC@HC@HC@GB?GB?FA>FA>E@=C>;B=:FA>JEBNIFQLISNKTOLTOLTOLRMJNIFKFCLGDLGDHC@FA>FA>GB?FA>B>;?;8?;8B>;FB?HDAHDALHEMIFMIFMIFKGDHDAGC@LHEMIFLHEKGDLHEPLITPMUQNSOLJFC0/-         553<<:<;7<;7873'&"+*(<;9@?=@?=?><?><?><@?=A@>A@>A@>A@>BA?BA?D@?C?>D@?D@?B>;@<9@<9A=:C?<B>;B>;C?<EB=HE@JGBKHCLHELHEIEBEA>B>;B>;B>;B>;C?<D@=FB?EA>D@=C?<C?<C?<GC@GC@HDAKGDLHGIEDEA@B>=A=<?;:>:9>:9@<;B>=C?>C?>D@?EA@D@?C?>A=<A=<B>=C?>EA>EA>D@=D@=D@=D@=EA>FB?D@=B>;C?<D@=B>;B>;D@=D@=FB?B>;A=:C?<FB?EA>C?<A=:D@=D@=FB?FB?EA>C?<B>;B>;@<9?;8@;8C>;HC@KFCLGDLGDLGDD@=KGDJFCNJGNJGOKHNJGNJGPKHMHEIDAHC@GB?HC@IDAJEBLGDNIFNIFKFCIDAIDAIDAHC@JEBJEBJEBJEBIDAIDAJEBJEBJEBMHENIFJEBFA>E@=E@=D?<B=:HC@JEBGB?E@=HC@JEBKFCKFCHC@GB?GB?HC@HC@HC@IDAGB?GB?FA>FA>FA>E@=D?<C>;GB?IDALGDOJGOJGPKHRMJTOLUPMOJGJEBJEBKFCJEBHC@GB?IDAGB?C?<@<9>:7A=:FB?IEBIEBMIFOKHOKHOKHMIFIEBHDALHELHEKGDKGDMIFPLIRNKSOLRNKD@=('%         !!!442<<:=<8>=9=<8,+'&%#<;9BA?CB@BA?A@>@?=@?=A@>A@>A@>A@>BA?BA?D@?B>=@<;@<;?;8>:7?;8A=:B>;A=:A=:C?<EB=FC>IFAKHCIEBIEBIEBFB?C?<A=:A=:B>;A=:C?<EA>EA>EA>FB?EA>EA>HDAHDAJFCLHEOKJNJIJFEEA@@<;?;:?;:@<;B>=C?>D@?EA@EA@FBAFBAD@?B>=A=<B>=C?>EA>EA>EA>EA>EA>EA>EA>EA>D@=A=:B>;D@=B>;B>;C?<C?<EA>C?<A=:A=:D@=FB?D@=@<9A=:A=:C?<D@=D@=D@=C?<C?<D@=A=:@;8A<9E@=JEBNIFPKHLGDFB?LHEIEBMIFLHEMIFLHELHENIFLGDJEBHC@FA>FA>IDALGDNIFOJGOJGLGDJEBKFCJEBIDAKFCJEBJEBIDAIDAIDAJEBJEBIDALGDMHEIDAFA>E@=FA>E@=D?<JEBLGDIDAHC@KFCNIFNIFMHEIDAFA>FA>GB?GB?HC@HC@GB?GB?GB?GB?GB?FA>FA>E@=HC@IDAJEBJEBJEBKFCNIFRMJSNKNIFHC@FA>HC@JEBKFCKFCNIFLGDHDAD@=B>;C?<GC@JFCJFCOKHRNKSOLSOLPLIKGDJFCKGDJFCIEBIEBJFCKGDMIFOKHOKH<85	        !!!331<<:?>:A@<@?;-,(%$"=<:DCADCADCADCABA?BA?BA?BA?CB@CB@CB@CB@B>=?;:=98=98>:7?;8@<9B>;B>;A=:A=:B>;C@;DA<FC>IFAFB?FB?GC@HDAEA>A=:?;8@<9B>;D@=FB?GC@GC@HDAGC@FB?GC@IEBLHENJGOKJOKJLHGIEDEA@D@?D@?EA@D@?D@?FBAIEDGCBHDCHDCFBAC?>B>=B>=C?>FB?FB?FB?FB?FB?EA>EA>D@=D@=A=:B>;D@=D@=C?<C?<C?<D@=EA>C?<A=:D@=HDAGC@D@=B>;A=:A=:C?<D@=D@=EA>GC@EA>C?<B=:A<9B=:GB?MHEPKHLGDIEBNJGJFCMIFLHELHEKGDKGDMHEMHEMHEJEBFA>E@=IDANIFOJGPKHOJGLGDKFCLGDKFCIDAKFCKFCJEBJEBJEBJEBJEBJEBHC@JEBKFCHC@FA>GB?HC@HC@GB?MHEOJGKFCIDAMHEOJGOJGMHEJEBGB?FA>GB?GB?GB?GB?HC@HC@IDAIDAHC@GB?GB?GB?JEBHC@GB?GB?GB?HC@KFCPKHQLINIFHC@E@=GB?KFCOJGOJGQLIPKHMIFIEBFB?EA>GC@JFCJFCPLITPMUQNUQNQMJKGDIEBKGDIEBHDAHDAGC@FB?HDAKGDMIF730  !!!220<<:A@<CB>A@<+*&&%#?><EDBEDBEDBEDBEDBDCACB@CB@EDBEDBDCABA?B>=?;:=98?;:A=:@<9A=:B>;C?<B>;B>;C?<DA<DA<FC>HE@GC@FB?HDAJFCHDAB>;?;8@<9C?<FB?HDAHDAHDAHDAHDAGC@EA>JFCMIFOKHOKJOKJNJIKGFIEDIEDIEDHDCEA@D@?GCBLHGIEDIEDIEDGCBEA@C?>C?>D@?FB?GC@GC@GC@FB?FB?D@=D@=D@=@<9@<9D@=D@=C?<D@=C?<D@=FB?EA>B>;D@=JFCKGDGC@FB?C?<A=:B>;D@=EA>GC@IEBC?<D@=D?<B=:A<9D?<IDANIFLGDIEBMIFLHEMIFMIFJFCKGDLHEJFCKGDLGDJEBHC@FA>HC@JEBKFCNIFNIFKFCJEBKFCKFCJEBJEBJEBJEBKFCMECNFDMECMECHC@HC@IDAIDAJEBKFCKFCKFCLGDKFCNIFOJGMHELGDMHENIFJEBHC@GB?HC@HC@FA>GB?IDAKFCKFCJEBIDAIDAIDAIDAJEBHC@IDAHC@E@=C>;E@=HC@JEBMHEMHEKFCHC@HC@LGDPKHSNKRNKQMJOJGLGDLGDMHELGDJEBIDAKFCQKKVPPTPOOKJLHGLHGKGFIEDGCBFBAEA>B>;D@=KGDNJG841   320<;9?><DCA?;8)%"

-,*?><DCAEDBEDBFECIEDGCBEA@EA@GCBHDCGCBFBA@<9B>;B>;C?<C?<?;8?;8C?<GC@EA>D@=EA>FB?FB?FB?FB?GC@GC@GC@HDAHDAGC@C?<?;8C?<HDAKGDLHEKGDJFCHDCFBAFBAIEDMIHNJIMIHLHGKGFLHGKGFJFEHDCFBAD@?D@?FBAJFEGCBEA@D@?D@?EA@EA@EA>EA>EA>GC@HDAIEBHDAFB?EA>EA>FB?EA>D@=C?<C?<C?<D@=D@=FB?HDAHDAFB?EA>FB?HDAIEBGC@EA>B>;A=:B>;D@=FB?GC@D@=C?<B>;B>;@<9@<9D@=JFCJFCHDAMIFKGDLHEMIFKGDLHEKGDHDAIEBJEBIDAGB?FA>GB?IDALGDNIFOJGLGDIDAJEBJEBIDAJEBJEBJEBIDAKCAKCAKCAKCAIDAIDAHC@HC@JEBMHEMHEKFCIDAIDALGDNIFLGDKFCLGDKFCIDAHC@GB?GB?HC@HC@IDAKFCLGDLGDKFCJEBJEBIDAJEBJEBKFCKFCIDAE@=C>;D?<FA>GB?JEBLGDMHEKFCKFCMHEPKHRMJRNKPLIOJGMHELGDLGDKFCIDAGB?GB?KEEOIIPLKNJIMIJNJKLHGJFEGCBFBAEA>B>;C?<HDANJG:63   320<;9@?=A@>:63'# 	-,*=<:CB@EDBEDBEDBJFEHDCGCBGCBHDCIEDIEDHDCFB?GC@GC@GC@FB?A=:?;8B>;EA>D@=D@=EA>FB?FB?FB?GC@IEBIEBHDAGC@HDAHDAFB?C?<EA>IEBLHEMIFLHEKGDHDCFBAEA@HDCKGFLHGJFEHDCHDCHDCKGFHDCFBAEA@D@?D@?FBAHDCEA@D@?C?>C?>D@?D@?EA>GC@EA>GC@IEBIEBHDAFB?EA>EA>HDAGC@FB?EA>D@=D@=C?<C?<D@=FB?HDAGC@GC@GC@GC@GC@GC@FB?D@=C?<B>;C?<D@=EA>C?<B>;A=:B>;A=:A=:D@=HDAHDAIEBOKHMIFMIFOKHNJGNJGKGDFB?GC@GB?GB?GB?GB?GB?GB?JEBMHENIFLGDIDAHC@IDAHC@JEBJEBIDAHC@FA>FA>GB?HC@JEBJEBHC@GB?JEBNIFNIFKFCHC@GB?JEBMHELGDLGDKFCIDAIDAIDAHC@GB?GB?IDAKFCKFCLGDKFCKFCJEBJEBJEBKFCKFCMIFKGDHDAEA>C?<D@=D@=D@=EA>IEBKGDJFCHDAIEBMIFPLIPLIPLIPKHNIFMHEMHEKFCIDAHC@FA>GAAJDDLHGLHGMIJNJKMIHKGFHDCGCBFB?C?<B>;FB?LHE;74  			!!!431;:8?><;:8/+( 
-,*;:8A@>CB@EDBDCAGCBGCBFBAFBAGCBGCBGCBGCBIEBJFCIEBIEBHDAB>;>:7?;8A=:A=:B>;D@=D@=EA>FB?HDAJFCJFCHDAFB?EA>EA>EA>D@=EA>GC@JFCKGDJFCIEBHDCFBAD@?FBAIEDJFEHDCGCBGCBGCBIEDFBAD@?C?>C?>C?>D@?FBAEA@D@?D@?D@?C?>C?>EA>HDAGC@IEBJFCIEBHDAFB?EA>EA>IEBHDAGC@FB?FB?FB?D@=B>;B>;D@=FB?GC@GC@HDAHDAGC@GC@GC@FB?FB?EA>D@=D@=D@=FB?D@=C?<C?<B>;@<9A=:C?<FB?IEBPLIOKHMIFNJGNJGNJGJFCFB?EA>FA>FA>GB?GB?FA>E@=HC@LGDMHELGDIDAHC@IDAIDAIDAIDAHC@FA>D?<D?<E@=GB?IDAJEBHC@FA>HC@MHENIFKFCHC@GB?IDALGDLGDMHELGDIDAIDAJEBIDAGB?HC@JEBKFCJEBJEBJEBIDAIDAIDAJEBKFCKFCMIFJFCGC@EA>EA>EA>EA>D@=D@=GC@HDAEA>B>;C?<HDAMIFNJGNJGOJGNIFMHEMHELGDKFCKFCIDAHBBJDDJFEJFEKGHLHILHGKGFIEDHDCHDAD@=B>;EA>IEB:63     ###431;:8=<:10.!
	/.,:97>=;@?=BA?A@>D@?D@?EA@D@?D@?D@?EA@FBAGC@HDAHDAHDAHDAC?<>:7>:7>:7=96>:7@<9A=:C?<EA>GC@IEBJFCIEBFB?D@=C?<B>;A=:A=:B>;D@=D@=D@=D@=C?>C?>B>=D@?FBAGCBFBAFBAFBAFBAEA@C?>B>=B>=A=<A=<B>=EA@GCBGCBGCBFBAD@?C?>D@=GC@IEBIEBIEBHDAGC@EA>EA>EA>GC@FB?EA>EA>FB?GC@EA>C?<A=:B>;C?<D@=FB?GC@HDAHDAFB?FB?GC@GC@GC@GC@FB?FB?GC@EA>D@=D@=D@=A=:@<9@<9EA>HDAPLINJGLHEKGDJFCKGDHDAGC@FB?FB?FB?HC@GB?FA>E@=GB?KFCMHELGDIDAGB?HC@IDAHC@GB?FA>FA>D?<C>;E@=HC@HC@JEBIDAFA>GB?KFCLGDKFCJEBHC@HC@JEBJEBLGDLGDIDAHC@JEBJEBIDAIDAKFCLGDJEBJEBJEBIDAIDAIDAIDAJEBJEBJFCHDAFB?FB?GC@GC@FB?D@=EA>FB?FB?B>;=96=96A=:FB?JFCKGDLGDKFCKFCKFCKFCJEBIDAJEBKEEKEEJFEHDCHDEIEFKGFJFEIEDIEDIEBFB?D@=FB?GC@:63    %%%653;:8;:8)(&	0/-986<;9<;9A@>@?=C?>D@?EA@D@?D@?D@?EA@FBAFB?HDAGC@HDAIEBFB?@<9?;8?;8<85:63;74=96?;8A=:C?<EA>GC@IEBGC@EA>C?<A=:@<9@<9?;8?;:?;:?;:>:9>:9>:9?;:@<;A=<B>=A=<A=<A=<A=<@<;A=<B>=B>=?;:>:9A=<D@?HDCHDCIEDHDCFBAD@?D@=FB?HDAHDAGC@FB?EA>EA>FB?GC@GC@FB?D@=C?<EA>GC@FB?D@=B>;B>;C?<D@=D@=EA>FB?FB?EA>EA>FB?FB?GC@GC@FB?EA>EA>C?<C?<EA>FB?D@=B>;B>;FB?IEBOKHMIFKGDJFCHDAIEBHDAHDAHDAHDAHDAIDAIDAGB?E@=HC@KFCMHELGDIDAGB?GB?GB?GB?FA>FA>FA>E@=D?<E@=HC@HC@JEBJEBHC@GB?HC@JEBLGDLGDIDAHC@GB?GB?IDAJEBHC@GB?HC@HC@IDAJEBLGDMHELGDMHELGDKFCJEBIDAHC@HC@HC@GC@EA>EA>GC@HDAGC@D@=B>;B>;C?<D@=A=:=96:63;74>:7GC@HDAJEBIDAHC@HC@HC@GB?D?<GB?JDDKEEIEDGCBHDEIEFIEDJFEJFEJFEJFCGC@FB?HDAHDA=96%$"
	      %%%764<;9:97'&$  .-+986<;9;:8@?=@?=C?>D@?D@?D@?C?>D@?EA@FBAFB?GC@GC@HDAIEBGC@B>;A=:@<9<85952841952:63;74<85?;8B>;FB?GC@FB?EA>B>;@<9C?<A=:?;:>:9=98<87;76;76>:9>:9>:9>:9>:9=98=98=98>:9@<;A=<A=<?;:=98@<;D@?EA@D@?EA@EA@EA@D@?D@=EA>D@=D@=EA>D@=D@=EA>GC@IEBHDAGC@EA>C?<C?<EA>EA>C?<A=:A=:B>;D@=C?<B>;A=:B>;D@=EA>FB?FB?EA>D@=B>;A=:EA>C?<C?<FB?GC@EA>C?<C?<FB?KGDOKHLHEJFCJFCIEBJFCJFCJFCJFCJFCJFCJFCIEBHDAFB?HDAIEBKGDKGDIEBFB?FA>FA>GB?FA>E@=GB?GB?E@=FA>HC@JEBKFCLGDKFCIDAHC@IDALGDOJGLGDIDAGB?E@=GB?GC@EA>E@=E@=E@=GB?HC@JEBLGDNIFNIFMHELGDJEBIDAHC@GB?GB?EA>D@=EA>GC@HDAEA>@<9=96=96?;8A=:B>;@<9=96;74<85C?<FB?JEBJEBIDAHC@GB?E@=C>;FA>IEDIEDHDCGCBGCDHDEIEDKGFKGFKGFKGDHDAGC@IEBIEBB>;10.       $$$542<;9;:8+*(  ,+)875=<::97>=;?><A=<B>=B>=B>=B>=C?>D@?EA@D@=FB?FB?GC@IEBGC@D@=C?<B>;?;8<85:63952952952:63;74?;8C?<FB?GC@FB?EA>C?<FB?C?<A=<A=<@<;>:9<87;76>:9>:9>:9=98=98=98=98=98>:9>:9?;:@<;?;:?;:@<;B>=@<;>:9=98?;:A=<B>=C?<D@=A=:B>;D@=D@=D@=EA>FB?GC@HDAHDAEA>B>;A=:B>;B>;@<9>:7?;8@<9A=:@<9?;8?;8@<9C?<EA>HDAHDAFB?C?<A=:@<9D@=C?<C?<EA>FB?D@=C?<D@=D@=KGDMIFIEBIEBJFCIEBKGDKGDKGDKGDKGDLHELHEKGDIEBHDAGC@HDAJFCKGDJFCGC@GB?GB?HC@FA>FA>HC@HC@GB?FA>HC@LGDKFCLGDMHEKFCHC@IDALGDQLINIFLGDIDAFA>GB?GC@D@=E@=B=:B=:D?<FA>GB?JEBMHENIFMHELGDJEBHC@HC@GB?GB?D@=D@=EA>HDAGC@C?<<85952:63<85@<9D@=D@=B>;@<9@<9B>;EA>JEBLGDKFCJEBHC@GB?E@=HC@IEDIEDGCBFBAGCDGCDIEDLHGLHGKGFKGDHDAGC@IEBIEBEA>;:8         """320;:8<;9/.,+*(875>=;:97=<:=<:A=<A=<A=<B>=B>=C?>D@?D@?C?<FB?FB?GC@IEBHDAFB?FB?D@=C?<A=:?;8=96<85<85=96;74?;8C?<FB?HDAIEBHDAGC@FB?D@=C?>C?>C?>@<;>:9=98>:9=98=98=98=98>:9>:9>:9?;:=98=98>:9@<;A=<@<;@<;=98954732954=98?;:A=:A=:A=:B>;D@=EA>D@=D@=D@=D@=FB?GC@EA>A=:?;8@<9@<9>:7=96=96>:7>:7=96=96?;8B>;B>;FB?KGDKGDHDAC?<A=:B>;B>;A=:B>;EA>FB?EA>EA>FB?D@=HDAMIFIEBHDAJFCJFCKGDJFCIEBKGDLHEMIFMIFMIFLHEJFCEA>GC@IEBJFCJFCJFCKGDKGDIEBHDAHC@HC@HC@HC@IDAKFCKFCJEBLGDPKHNIFJEBIDANIFRMJPKHLHEIEBGC@FB?FB?FB?FA>FA>D?<A<9A<9E@=IDAKFCLGDLGDJEBHC@FA>E@=E@=FA>EA>GC@HDAHDAGC@EA>@<9:63952952=96C?<FB?EA>C?<D@=A=:EA>JEBKFCJEBIDAHC@FA>HC@JEBIEDFBAEA@FBAIEFIEFKGFLHGMIHNJILHEHDAEA>EA>C?<KGDA@>!    320>=;;:8320"	,+)653:97:97;:8=<:@<;A=<B>=A=<A=<B>=A=<@<;B>;C?<D@=D@=FB?IEBIEBGC@D@=C?<D@=EA>D@=B>;A=:A=:@<9A=:C?<EA>HDAJFCIEBGC@EA@EA@EA@D@?D@?EA@B>=>:9?;:?;:?;:>:9>:9>:9>:9>:9>:9=98=98>:9@<;A=<@<;>:9=98954621510843;76=96>:7>:7@<9B>;B>;A=:A=:@<9?;8C?<EA>EA>EA>EA>D@=@<9=96>:7>:7<85952952<85?;8A=:C?<EA>IEBKGDJFCFB?C?<@<9A=:>:7=96@<9B>;B>;C?<D@=EA>FB?LHEJFCIEBJFCJFCKGDIEBIEBKGDLHEMIFNJGNJGLHEJFCFB?GC@IEBJFCJFCJFCJFCJFCKGDKGDKFCKFCIDAHC@IDALGDLGDKFCMHEQLIOJGKFCKFCOJGSNKQLIMIFJFCGC@FB?EA>EA>HC@HC@E@=B=:A<9C>;GB?IDALGDLGDJEBGB?D?<B=:A<9B=:D@=EA>GC@HDAIEBHDAEA>A=:=96=96@<9FB?IEBGC@EA>D@=C?<FB?IDAJEBKFCKFCJEBHC@IDAJEBIEDFBAD@?EA@HDEJFGLHGMIHNJINJILHEHDAEA>EA>C?<JFCA@>#"           0/-;:8:97542%!
	/.,875;:8;:8;:8=<:@<;A=<B>=B>=B>=C?>C?>C?>B>;C?<D@=EA>FB?HDAIEBHDAD@=C?<C?<EA>EA>D@=D@=D@=D@=D@=D@=D@=FB?HDAHDAGC@FBAFBAFBAFBAFBAEA@B>=?;:>:9?;:@<;A=<A=<@<;>:9=98>:9>:9?;:@<;A=<B>=B>=B>=@<;=98:65954;76=98=96<85<85>:7?;8@<9@<9A=:A=:@<9C?<EA>FB?GC@FB?FB?C?<A=:A=:A=:@<9>:7=96?;8A=:A=:B>;D@=HDAJFCKGDIEBFB?D@=A=:=96:63<85@<9B>;C?<C?<FB?E@=LGDKFCKFCKGDJFCKGDJFCIEBJFCKGDKGDMIFMIFLHEIEBFB?GC@IEBJFCJFCJFCJFCJFCKGDLHEKGDKGDHDAGC@HDAJFCKFCJEBLGDOJGNIFJEBJEBNIFOKHNJGKGDIEBHDAGC@GC@GC@IDAIDAGB?D?<B=:D?<FA>HC@IDAIDAHC@FA>B=:@;8>96>96B>;D@=FB?GC@IEBKGDKGDJFCEA>C?<D@=GC@JFCIEBFB?EA>FB?FB?HC@JEBLGDMHELGDKFCJEBJEBKEEJDDFBAD@?GCDLHIMIHNJIPLKOKJKGDFB?EA>FB?EA>JFCA@>&%#

                -,*986:97764)%"
 320986;:8<;9<;9=<:A=<B>=B>=A=<B>=C?>C?>C?>C?<D@=EA>EA>FB?GC@HDAHDAD@=C?<C?<D@=EA>EA>EA>FB?FB?EA>D@=C?<C?<EA>FBAFBAFBAFBAFBAHDCGCBFBAC?>B>=A=<A=<B>=D@?D@?C?>@<;>:9>:9@<;A=<B>=B>=C?>D@?EA@EA@B>=@<;@<;A=<A=<@<9>:7=96>:7?;8?;8@<9B>;B>;A=:B>;EA>GC@HDAHDAHDAGC@FB?FB?FB?EA>C?<C?<C?<C?<B>;A=:B>;EA>HDAJFCJFCIEBGC@EA>A=:;74:63>:7C?<EA>D@=FB?D?<JEBJEBLGDLHEKGDMIFMIFJFCIEBIEBHDAIEBJFCIEBGC@EA>FB?HDAJFCKGDJFCJFCJFCIEBJFCIEBIEBHDAGC@HDAHDAHC@GB?HC@KFCKFCHC@IDAKFCKGDJFCIEBHDAGC@GC@HDAHDAIDAHC@GB?FA>FA>GB?HC@HC@GB?GB?GB?FA>C>;@;8?:7>96A=:C?<FB?GC@IEBKGDMIFOKHLHEIEBGC@HDAIEBHDAGC@FB?FB?FB?HC@JEBMHENIFNIFLGDJEBJEBLFFMGGHDCC?>FBCLHILHGNJIOKJMIHIEBEA>EA>FB?HDAJFCA@>)(&             +*(764:97875+'$	"!431986;:8=<:>=;>=;B>=A=<A=<@<;A=<A=<A=<A=<D@=EA>FB?FB?EA>EA>FB?FB?D@=D@=C?<C?<C?<C?<C?<D@=C?<D@=C?<A=:?;8?;8A=<C?>D@?D@?EA@FBAFBAEA@EA@FBAFBAEA@D@?D@?EA@D@?C?>B>=A=<B>=C?>C?>C?>D@?EA@GCBGCBFBAFBAFBAFBAFBAEA>EA>C?<C?<B>;B>;C?<D@=D@=C?<C?<D@=FB?GC@IEBIEBHDAGC@IEBIEBGC@FB?FB?GC@FB?D@=B>;B>;B>;C?<FB?HDAHDAHDAIEBGC@A=:=96>:7C?<FB?EA>D@=B=:HC@IDAKFCLGDKFCMIFNJGJFCJFCHDAGC@FB?GC@FB?EA>C?<D@=GC@JFCKGDJFCJFCJFCIEBIEBHDAHDAHDAHDAGC@FB?E@=E@=E@=GB?HC@GB?GB?IDAHDAHDAGC@GC@FB?FB?FB?FB?GC@FB?FB?GC@IEBIEBHDAFB?EA>FB?FB?EA>C?<A=:?;8?;8B>=D@?FBAGCBGCBHDCKGFOKJNJIMIHKGFKGFKGFIEDHDCGCBD@=EA>HC@JEBLGDLGDLGDLGDLGDKFCLFFLFFEA@@<;C?@JFGJFEKGFLHGKGFGC@D@=D@=FB?IEBIEB@?=+*(                *)'653:97986+'$	#" 542:97<;9>=;?><@?=B>=A=<A=<A=<A=<A=<A=<A=<D@=EA>FB?FB?EA>D@=D@=EA>D@=EA>D@=B>;@<9?;8?;8@<9?;8A=:B>=@<;<87954;76=98@<;A=<B>=C?>C?>C?>EA@HDCIEDGCBD@?B>=B>=C?>D@?EA@D@?EA@EA@EA@EA@EA@FBAGCBGCBHDCHDCHDCGCBGCBGC@HDAGC@GC@FB?FB?FB?GC@GC@EA>EA>D@=D@=GC@IEBIEBHDAGC@JFCJFCHDAGC@GC@IEBHDAGC@FB?D@=B>;A=:C?<FB?GC@HDAIEBJFCGC@A=:?;8C?<FB?FB?EA>B=:GB?GB?IDAKFCIDAJFCKGDKGDKGDJFCHDAFB?FB?EA>D@=B>;C?<GC@KGDLHEJFCJFCKGDJFCJFCIEBHDAIEBJFCHDAFB?D?<C>;C>;D?<E@=E@=FA>FA>EA>EA>EA>FB?FB?GC@GC@HDAHDAGC@FB?HDAIEBHDAFB?EA>EA>EA>EA>D@=B>;?;8>:7>:7C?>D@?FBAGCBGCBFBAHDCKGFLHGLHGMIHMIHMIHKGFHDCGCBB>;C?<FA>IDAJEBIDAIDAJEBNIFLGDKEEHBBA=<<87?;<GCDIEDHDCHDCGCBEA>D@=D@=EA>HDAFB??><.-+            )(&542986875,(%
"!542;:8=<:>=;?><@?=C?>A=<A=<B>=C?>B>=B>=B>=B>;B>;C?<D@=D@=D@=D@=EA>D@=EA>EA>B>;?;8>:7=96=96=96?;8A=<@<;<87732621843=98@<;B>=A=<A=<B>=FBAHDCJFEGCBC?>@<;?;:A=<C?>EA@FBAEA@D@?D@?EA@FBAGCBGCBFBAGCBGCBGCBEA@D@?D@=EA>GC@GC@HDAGC@GC@HDAHDAGC@EA>C?<C?<EA>HDAIEBHDAGC@JFCIEBHDAGC@GC@IEBJFCIEBIEBGC@C?<B>;B>;D@=FB?HDAHDAKGDJFCEA>B>;D@=GC@HDAGC@C>;GB?FA>IDAJEBGB?FB?FB?JFCLHEMIFKGDHDAFB?D@=C?<@?;A@<GC@KGDLHEJFCIEBJFCJFCJFCJFCIEBJFCKGDJFCHDAE@=E@=D?<D?<D?<E@=D@=C?<B>;C?<D@=FB?GC@IEBJFCJFCIEBHDAHDAIEBHDAGC@FB?FB?FB?FB?EA>C?<A=:?;8>:7>:7E??E??F@@ICCICCHBBGAAHBBHBBICCJDDKEELFFKEEICCGAAB>;C?<FA>HC@HC@HC@HC@IDAMHELGDKEEHBBA=<<87?;<EABHDCFBAD@?D@?D@=D@=D@=D@=EA>D@=@?=542		         )(&431764764+'$	21/;:8>=;?><?><A@>C?>A=<A=<B>=C?>C?>B>=B>=A=:A=:A=:C?<D@=D@=D@=D@=EA>FB?EA>C?<B>;B>;@<9>:7<85=96@<;A=<>:9:65732621;76A=<C?>A=<@<;C?>EA@FBAHDCGCBEA@B>=@<;A=<B>=D@?B>=B>=A=<A=<C?>D@?FBAFBAEA@EA@EA@EA@D@?B>=A=:@<9C?<D@=EA>EA>EA>EA>EA>D@=C?<A=:A=:C?<FB?GC@GC@GC@HDAHDAGC@EA>EA>FB?HDAHDAHDAGC@D@=B>;B>;C?<EA>GC@HDAIEBIEBFB?D@=D@=FB?GC@GC@E@=HC@GB?IDAJEBFA>C?<B>;IEBMIFOKHMIFJFCFB?D@=B>;A@<A@<GC@KGDLHEJFCIEBJFCGC@IEBIEBIEBJFCLHEKGDJFCHC@HC@GB?FA>FA>GB?EA>D@=C?<D@=EA>FB?HDAIEBJFCJFCJFCIEBIEBIEBHDAFB?FB?HDAHDAHDAGC@EA>B>;@<9@<9@<9F@@E??E??ICCKEEICCGAAE??F@@E??D>>E??HBBJDDICCGAAD@=C?<E@=HC@HC@HC@HC@IDAJEBKFCLFFJDDD@?@<;A=>EABHDCEA@B>=C?>D@=D@=C?<C?<B>;B>;BA?:97$#!         )(&320653542*&#	/.,:97?><?><?><BA?C?>A=<@<;B>=B>=A=<@<;@<;B>;@<9@<9B>;D@=C?<B>;C?<EA>EA>EA>EA>EA>FB?C?<@<9;74<85?;:A=<A=<>:9:65843;76B>=FBAB>=@<;C?>EA@D@?GCBHDCHDCFBAD@?B>=C?>D@?>:9=98=98>:9?;:A=<C?>EA@EA@D@?D@?D@?D@?C?>@<9=96?;8A=:C?<C?<B>;A=:@<9@<9@<9?;8?;8B>;D@=EA>EA>GC@FB?FB?FB?D@=C?<D@=EA>FB?FB?EA>D@=B>;B>;B>;D@=EA>GC@GC@FB?D@=C?<C?<C?<D@=D@=EA>JFCHDAHDAIEBFB?EA>B>;GC@KGDOKHNJGJFCEA>C?<C?<EA>EA>GC@IEBJFCHDAHDAHDAGC@FB?GC@JFCLHELHEKGDJFCJEBIDAGB?HC@JEBJEBIDAGB?C?<D@=EA>GC@IEDKGFKGFJFEKGFKGFIEDGCBFBAFBAGCBHDCGCBHDCHDCGCBFBAEA@D@?B>=EA@D@?EA@GCBJFEKGFHDCD@?C?>B>=B>=D@?FBAGCBHDCHDCD@?EA@HDCJFEJFEHDCFBAFBAFBAGCBIEDHDCD@?@<;B>=FBAHDCEA@B>=@<;B>=D@?D@=B>;?;8A=:EA>@<9-)&          ('%431431764,+'-,(;:6>=9?>:B>;B>;C?<C?<C?<B>;B>;B>;@<9>:7?;8@<9A=:B>;A=:A=:B>;B>;EA>D@=C?<EA>GC@FB?B>;?;8841=96C?<GC@FB?A=:<85:63=98C?>FBAB>=?;:A=<EA@FBAIEDIEDHDCGCBFBAFBAC?>@<;@<;>:9=98<87=98?;:A=<C?>C>;D?<C>;B=:B=:C>;B=:A<9C>;A<9@;8A<9A<9@;8>96=85<85=96=96>:7A=:C?<D@?C?>C?>D@?D@=B>;A=:A=:C?<FB?C?<B>;A=:?;8>:7?;8B>;D@=B>;C?<D@=D@=C?<B>;B>;B>;D@=FB?KGDIEBIEBJFCHDAFB?C?<D@=HDALHEMIFJFCFB?C?<B>;EA>EA>FB?HDAIEBHDAGC@HDAHDAGC@GC@IEBKGDJFCHDAHDAHC@GB?GB?HC@JEBJEBIDAHC@D@=FB?GC@HDAIEDKGFKGFKGFJFEJFEIEDGCBFBAFBAGCBGCBHDCIEDJFEIEDHDCGCBFBAD@?B>=C?>D@?GCBJFELHGJFEIEDD@?B>=A=<D@?FBAFBAEA@D@?FBAGCBIEDKGFKGFIEDGCBGCBHDCHDCHDCFBAB>=@<;B>=EA@FBAD@?B>=@<;A=<C?>C?<B>;>:7@<9EA>D@=3/,           


"!10.431764+*& +*&:95>=9?>:C?<C?<B>;D@=D@=D@=C?<A=:?;8<85>:7>:7?;8A=:B>;B>;B>;B>;D@=C?<C?<D@=FB?EA>C?<A=:=96A=:EA>HDAJFCHDAC?<?;8?;:C?>EA@B>=@<;A=<EA@GCBHDCIEDIEDHDCGCBFBAB>=>:9>:9>:9=98>:9>:9?;:A=<B>=C>;D?<C>;A<9@;8A<9A<9A<9@;8?:7?:7?:7?:7?:7>96=85>:7>:7>:7>:7@<9B>;C?>B>=B>=C?>D@=C?<B>;A=:C?<EA>B>;B>;@<9>:7<85=96?;8A=:A=:B>;C?<D@=C?<C?<C?<C?<D@=HDALHEIEBIEBJFCHDAFB?B>;A=:D@=GC@IEBHDAFB?D@=C?<FB?FB?FB?GC@HDAGC@GC@HDAIEBHDAHDAJFCIEBGC@FB?EA>E@=E@=FA>HC@JEBKFCJEBIDAFB?GC@HDAIEBIEDJFEKGFKGFIEDIEDHDCGCBFBAFBAFBAGCBHDCIEDJFEIEDIEDIEDHDCGCBC?>C?>D@?GCBIEDKGFKGFKGFFBAC?>C?>EA@GCBGCBD@?B>=FBAGCBIEDKGFKGFIEDHDCGCBIEDIEDGCBD@?A=<A=<B>=D@?C?>C?>B>=A=<A=:C?<D@=D@=?;8A=:D@=EA>952        --+653986,+' )($:95>=9?>:B>;B>;C?<EA>EA>D@=B>;@<9>:7<85=96=96>:7@<9C?<D@=D@=C?<D@=C?<C?<D@=EA>FB?EA>D@=B>;EA>GC@IEBMIFOKHKGDEA>D@?EA@EA@D@?B>=B>=EA@HDCHDCHDCIEDHDCHDCFBAC?>@<;?;:@<;A=<A=<B>=B>=B>=A=<C>;C>;C>;@;8>96>96?:7@;8>96?:7?:7?:7>96>96>96>96>:7?;8?;8?;8?;8A=:B>=B>=B>=D@?EA>EA>D@=C?<D@=FB?C?<B>;A=:>:7=96<85=96>:7?;8A=:B>;C?<C?<C?<D@=D@=D@=HDALHEIEBHDAJFCHDAFB?C?<A=:A=:A=:C?<EA>EA>EA>FB?HDAGC@GC@GC@HDAHDAHDAIEBIEBIEBIEBJFCHDAFB?D@=D@=C>;C>;D?<GB?JEBKFCKFCJEBFB?GC@GC@IEBJFEKGFKGFJFEGCBGCBGCBGCBFBAEA@FBAGCBGCBHDCHDCGCBGCBIEDIEDIEDHDCFBAD@?EA@FBAGCBHDCHDCGCBEA@C?>EA@GCBFBAD@?C?>EA@FBAHDCIEDIEDGCBGCBGCBHDCHDCFBAC?>A=<B>=C?>C?>D@?D@?D@?C?>D@=FB?GC@GC@B>;C?<C?<D@=<85   


   ))'764:97+*& ('#984=<8>=9A=:A=:EA>EA>D@=B>;@<9@<9>:7=96<85=96?;8A=:C?<D@=D@=D@=D@=C?<B>;C?<FB?HDAHDAHDAFB?IEBIEBHDAKGDOKHNJGIEBIEDHDCGCBFBAC?>B>=C?>GCBGCBFBAFBAFBAGCBHDCGCBFBAC?>D@?EA@EA@EA@EA@D@?C?>C>;C>;A<9?:7=85=85>96?:7?:7@;8A<9?:7>96=85>96?:7=96?;8@<9@<9@<9A=:B>=B>=B>=D@?EA>EA>D@=D@=EA>FB?EA>EA>C?<A=:?;8>:7>:7>:7>:7?;8A=:B>;B>;C?<D@=EA>EA>FB?KGDIEBHDAIEBHDAHDAFB?B>;@<9?;8A=:D@=D@=EA>FB?IEBIEBIEBIEBIEBIEBJFCJFCIEBIEBIEBJFCHDAFB?D@=D@=B=:B=:C>;FA>IDALGDKFCJEBEA>EA>EA>HDAKGFLHGJFEHDCFBAEA@FBAGCBFBAEA@EA@FBAGCBGCBFBAFBAFBAHDCJFEJFEKGFFBAB>=B>=D@?EA@FBAFBAFBAD@?C?>C?>D@?D@?D@?D@?D@?EA@GCBHDCHDCGCBGCBGCBHDCHDCFBAD@?B>=C?>C?>C?>HDCIEDHDCFBAFB?HDAIEBHDAD@=EA>EA>GC@B>;'#    			


      $$"431764('# ('#984=<8>=9A=:A=:EA>EA>C?<A=:@<9@<9?;8=96<74>96@;8B=:C>;D?<D?<E@=E@=C>;B=:C>;GB?JEBKFCKFCKGDLHEHDAB>;A=:FB?IEBHDAIEDGCBFBAEA@C?>@<;A=<D@?D@?D@?D@?EA@GCBIEDIEDIEDFBAGCBGCBGCBFBAGCBFBAEA@D?<C>;@;8?:7>96>96>96?:7?:7A<9B=:?:7=85=85>96?:7>:7@<9B>;B>;B>;B>;A=<A=<B>=C?>C?<D@=D@=D@=EA>FB?HDAGC@EA>C?<A=:?;8>:7=96=96>:7@<9A=:A=:A=:B>;C?<EA>C?<IEBGC@HDAJFCJFCKGDJFCFB?D@=D@=GC@IEBHDAFB?FB?IEBJFCJFCJFCJFCKGDKGDJFCHDAHDAIEBJFCIEBGC@EA>EA>C>;C>;C>;E@=HC@JEBKFCKFCFB?EA>EA>HDALHGLHGIEDGCBEA@D@?EA@GCBGCBEA@EA@FBAHDCHDCGCBFBAFBAHDCJFEJFEIEDD@?@<;A=<D@?FBAFBAGCBFBAD@?C?>C?>D@?D@?EA@EA@D@?EA@FBAHDCIEDIEDIEDJFEIEDHDCFBAEA@D@?B>=B>=C?>MIHLHGJFEHDCGC@HDAIEBIEBD@=HDAKGDNJGJFC3/,    


   		10.542%$ 
 &%!873=<8>=9A=:B>;C?<D@=C?<B>;@<9?;8>:7<85<74>96@;8A<9B=:A<9B=:B=:C>;A<9A<9B=:E@=GB?IDAIDAKGDJFCC?<:6362/952?;8B>;EA@D@?C?>C?>A=<>:9>:9@<;A=<A=<B>=EA@GCBGCBGCBFBAFBAGCBFBAEA@D@?FBAFBAEA@E@=C>;B=:A<9@;8@;8@;8A<9@;8B=:C>;@;8=85>96?:7@;8A=:C?<D@=D@=C?<B>;A=<?;:C?>C?>D@=D@=EA>FB?FB?GC@GC@GC@EA>C?<A=:?;8=96<85=96>:7?;8?;8>:7>:7?;8?;8B>;C?<GC@FB?FB?IEBJFCKGDJFCHDAFB?HDALHENJGKGDHDAGC@HDAIEBJFCJFCKGDKGDKGDJFCGC@GC@HDAIEBIEBGC@FB?EA>E@=E@=E@=FA>GB?IDAKFCLGDJFCGC@FB?HDAKGFKGFIEDGCBD@?C?>EA@GCBGCBEA@EA@FBAGCBGCBGCBFBAEA@FBAFBAFBAFBAC?>A=<D@?FBAFBAFBAGCBFBAD@?C?>D@?FBAFBAFBAEA@C?>D@?FBAHDCIEDIEDJFEKGFIEDFBAFBAGCBEA@C?>C?>FBAMIHMIHKGFGCBEA>FB?HDAJFCGC@KGDOKHQMJNJG>:7!  			   /.,320"!
&%!762<;7=<8@<9B>;C?<EA>EA>B>;>:7=96<85<85=85>96@;8A<9A<9@;8?:7?:7?:7?:7@;8@;8A<9B=:D?<FA>GC@EA>?;884140-51.:63=96B>=C?>D@?B>=@<;=98=98>:9?;:>:9?;:B>=C?>D@?C?>C?>D@?EA@EA@B>=C?>EA@FBAEA@EA>D@=C?<C?<C?<A=:B>;C?<C?<EA>EA>A=:?;8@<9A=:A=:D@=EA>EA>D@=D@=C?<A=<?;:B>=C?>D@=EA>FB?GC@GC@GC@E@=E@=E@=D?<C>;A<9?:7>96>96?:7?:7>96=85<74<74<74>96D@=GC@D@=EA>IEBIEBJFCHDAFB?EA>GC@LHENJGLHEIEBIEBGC@HDAJFCJFCKGDKGDJFCIEBGC@FB?GC@HDAIEBGC@FB?EA>FA>GB?HC@GB?FA>GB?KFCNIFLHEJFCHDAIEBJFEJFEIEDHDCC?>C?>EA@HDCHDCFBAEA@GCBFBAFBAFBAEA@D@?D@?C?>B>=FBAC?>D@?FBAGCBFBAEA@FBAEA@B>=A=<C?>FBAFBAEA@D@?B>=C?>EA@GCBIEDIEDJFELHGHDCEA@D@?GCBFBAD@?EA@JFEJFEKGFIEDFBAC?<D@=HDAKGDKGDMIFPLIOKHMIFD@=*&%
  


			   ,+)10.&%!762;:6;:6?;8@<9D@=FB?FB?A=:<85:63;74=96?:7?:7?:7@;8A<9@;8>96=85<74>96?:7?:7=85=85@;8C>;EA>C?<@<9=96:63:63;74=96C?>EA@FBAC?>@<;>:9=98=98>:9<87<87>:9@<;A=<B>=C?>C?>D@?D@?B>=B>=EA@GCBFBAEA>EA>FB?FB?EA>C?<D@=EA>IEBJFCIEBD@=A=:B>;C?<B>;EA>EA>D@=D@=D@=D@=C?>A=<@<;A=<C?<EA>FB?FB?EA>EA>B=:C>;D?<D?<D?<D?<B=:B=:?:7?:7?:7=85;63:52:52:52:52C?>HDCEA@EA@GCBHDCFBAA=<@<;?;:A=<EA@IEDKGFKGFIEDGCBIEDJFEJFEKGFLHGKGFIEDD@?C?>D@?GCBHDCFBAFBAFBAFA>GB?HC@IDAIDAHC@IDAKFCIEBGC@FB?FB?HDCJFEJFEIEDD@?C?>EA@GCBIEDHDCGCBGCBHDCFBAEA@EA@EA@EA@C?>B>=EA@D@?EA@GCBHDCFBAEA@EA@EA@EA@B>=B>=EA@FBAD@?EA@B>=C?>D@?EA@FBAHDCIEDJFEHDCGCBFBAFBAGCBHDCHDCHDCFBAJFEIEDEA@B>;@<9B>;HDAJFCLHELHEKGDHDAFB?621    -,*0/- ('#540=<8<;7=96A=:C?<EA>EA>A=:<85:63=96A=:D?<A<9@;8A<9B=:A<9>96<74:52>96A<9?:7<74;63>96A<9C?<B>;@<9>:7=96=96>:7?;8B>=FBAHDCFBAA=<=98=98>:9A=<?;:=98=98>:9>:9>:9>:9=98>:9>:9?;:A=<D@?EA@EA@GC@GC@GC@FB?D@=C?<EA>FB?JFCJFCIEBHDAEA>C?<C?<C?<EA>FB?GC@FB?EA>C?<B>=B>=A=<B>=D@=FB?FB?EA>B>;@<9?:7@;8B=:C>;D?<D?<C>;C>;@;8?:7=85<74<74;6394172/830B>=GCBEA@D@?GCBGCBFBAB>=@<;?;:?;:A=<D@?GCBHDCGCBGCBHDCHDCHDCHDCIEDHDCGCBEA@D@?D@?FBAGCBFBAFBAFBAGB?FA>HC@JEBKFCJEBJEBJEBHDAGC@EA>EA>GCBIEDJFEIEDFBAEA@FBAIEDJFEJFEJFEJFEIEDHDCGCBGCBHDCGCBEA@D@?FBAEA@D@?EA@EA@EA@FBAGCBHDCHDCEA@C?>C?>B>=A=<B>=C?>C?>D@?C?>C?>D@?FBAGCBFBAFBAFBAEA@EA@EA@EA@FBAEA@GCBFBAC?>A=:?;8?;8C?<GC@IEBIEBHDAEA>FB?;76"     +*(.-+ *)%762>=9<;7=96A=:D@=EA>EA>B>;>:7=96?;8B>;D?<B=:@;8@;8@;8?:7?:7?:7>96@;8A<9@;8>96>96@;8C>;D@=C?<A=:@<9?;8?;8A=:C?<B>=D@?EA@C?>?;:=98=98>:9B>=@<;=98=98>:9?;:>:9<87=98>:9>:9=98>:9?;:@<;?;:EA>GC@HDAFB?C?<A=:C?<EA>KGDKGDKGDJFCHDAEA>B>;A=:C?<D@=FB?GC@GC@EA>C?>B>=B>=C?>C?<C?<B>;A=:?;8>:7=85=85?:7@;8A<9A<9A<9B=:@;8@;8?:7>96>96>96<74:52941B>=GCBEA@D@?FBAGCBGCBD@?A=<@<;?;:?;:A=<C?>EA@FBAHDCHDCGCBFBAGCBGCBGCBFBAEA@D@?D@?EA@EA@EA@FBAFBAGB?FA>GB?JEBMHELGDJEBHC@HDAFB?D@=D@=EA@GCBHDCHDCFBAEA@FBAHDCJFEKGFLHGLHGJFEJFEJFEJFEJFEIEDGCBEA@GCBFBAEA@D@?C?>C?>FBAHDCMIHMIHIEDEA@C?>@<;?;:@<;D@?EA@D@?C?>A=<A=<C?>EA@FBAGCBGCBEA@C?>A=<B>=C?>D@?EA@C?>A=<A=:?;8=96?;8D@=FB?EA>D@=C?<EA>?;:,('        ('%+*( -,(984>=9<;7=96A=:C?<D@=EA>D@=A=:@<9A=:B>;C>;B=:A<9@;8?:7?:7B=:E@=FA>FA>E@=D?<D?<D?<E@=FA>D@=D@=B>;A=:@<9@<9C?<EA>C?>C?>B>=@<;?;:=98>:9>:9C?>@<;=98>:9@<;A=<@<;>:9A=<B>=A=<>:9=98<87<87;76B=:E@=HC@FA>B=:@;8A<9D?<HC@IDAJEBKFCJEBGB?D?<A<9@<9A=:C?<D@=EA>D@=B>=A=<A=<A=<@<9?;8>:7=96=96=96<85<85<85=96>:7?;8A=:A=:@<9B>;B>;B>;A=:A=:@<9>:7<87C?>HDCEA@D@?FBAFBAGCBEA@D@?C?>B>=B>=C?>D@?EA@FBAGCBGCBFBAFBAFBAFBAFBAEA@EA@EA@EA@D@?EA@EA@EA@EA@E@=E@=GB?JEBMHELGDIDAGB?GC@EA>C?<C?<D@?EA@FBAFBAD@?C?>C?>EA@GCBIEDJFEKGFKGFKGFKGFKGFKGFJFEIEDHDCIEDHDCGCBFBAD@?C?>EA@HDCNJIOKJKGFFBAC?>?;:?;:A=<D@?D@?C?>A=<@<;@<;A=<C?>D@?EA@EA@C?>A=<?;:>:9?;:B>=D@?C?>B>=B>;@<9=96>:7A=:EA>D@=B>;A=:B>;@<;2.-			          %$"('% /.*;:6=<8;:6=96@<9A=:C?<D@=EA>EA>D@=C?<B>;B=:B=:B=:A<9@;8A<9E@=JEBKFCIDAHC@HC@HC@HC@HC@GB?C?<C?<C?<A=:?;8@<9B>;EA>C?>B>=A=<@<;@<;@<;?;:?;:A=<?;:>:9?;:A=<C?>C?>C?>FBAFBAD@?A=<>:9<87;76:65=85@;8D?<D?<A<9?:7?:7A<9@;8A<9D?<FA>HC@GB?E@=C>;@<9?;8?;8?;8@<9A=:A=<A=<?;:=98;74:63;74<85=96>:7>:7=96<85;74<85>:7@<9B>;C?<EA>GC@FB?EA>EA>D@=C?<A=<D@?HDCEA@D@?FBAFBAGCBFBAEA@FBAFBAGCBGCBFBAFBAEA@D@?D@?D@?EA@FBAEA@EA@D@?D@?EA@FBAD@?D@?EA@EA@D@?C>;C>;E@=HC@JEBIDAGB?FA>D@=B>;B>;D@=EA@EA@FBAFBAEA@C?>A=<B>=C?>D@?EA@FBAHDCIEDIEDIEDIEDJFEJFEKGFKGFJFEHDCFBAD@?C?>FBAJFEMIHMIHJFED@?A=<>:9>:9@<;B>=B>=B>=B>=A=<A=<B>=B>=B>=B>=B>=A=<?;:>:9<87<87A=<C?>D@?C?>C?<A=:?;8@<9B>;EA>C?<@<9>:7?;8@<;843       "!'&$10,=<8=<8;:6>:7?;8A=:B>;EA>GC@HDAHDAFB?D@=B>;B>;C?<B>;@<9A=:EA>JFCIEBFB?EA>GC@IEBHDAFB?EA>D@=D@=C?<B>;@<9@<9A=:C?<C?>B>=A=<A=<B>=B>=A=<A=<?;:?;:@<;@<;B>=D@?EA@FBAFBAGCBEA@B>=>:9<87<87;76<74>96@;8@;8?:7>96=85=85<74<74=85@;8B=:C>;C>;B=:A=:?;8=96=96=96>:7?;:?;:>:9;76952841:63=96?;8@<9@<9>:7:63952952<85>:7@<9C?<EA>HDAHDAGC@GC@GC@FB?FBAD@?GCBD@?D@?FBAEA@FBAEA@EA@FBAHDCIEDIEDHDCEA@D@?C?>C?>C?>EA@EA@EA@D@?D@?C?>FBAFBAD@?D@?EA@EA@C?>A<9B=:C>;E@=FA>E@=E@=E@=B>;@<9@<9C?<EA@EA@FBAHDCHDCD@?B>=@<;@<;@<;@<;A=<A=<B>=C?>D@?EA@FBAIEDJFEKGFIEDGCBD@?C?>D@?HDCLHGMIHLHGHDCC?>@<;>:9=98?;:B>=C?>EA@FBAGCBFBAEA@D@?C?>B>=B>=B>=B>=A=<?;:=98A=<D@?EA@D@?D@=B>;@<9B>;C?<FB?A=:=96;74<85?;:=98! 
	 
&%#
	32.?>:>=9<;7@<9?;8A=:B>;EA>HDAJFCKGDIEBHDAEA>EA>EA>C?<A=:@<9C?<FB?D@=B>;B>;EA>HDAGC@FB?EA>FB?EA>EA>D@=B>;A=:A=:A=:B>=B>=A=<B>=B>=B>=B>=B>=@<;@<;A=<A=<A=<B>=C?>D@?D@?EA@EA@B>=?;:>:9?;:?;:@;8@;8@;8?:7?:7>96<74;63=85<74<74=85>96>96?:7?:7?;8?;8>:7=96=96=96<87<87>:9<87:63952;74=96?;8@<9B>;?;8<85:63:63<85>:7@<9A=:C?<EA>FB?FB?GC@HDAGC@IEDC?>FBAB>=C?>FBAEA@FBAD@?EA@EA@GCBIEDIEDHDCFBAD@?D@?C?>C?>D@?D@?C?>B>=C?>D@?FBAFBAC?>B>=D@?EA@B>=A<9@;8@;8A<9B=:B=:D?<E@=B>;?;8?;8A=:B>=B>=D@?FBAHDCEA@A=<@<;?;:>:9>:9>:9<87>:9?;:A=<B>=C?>EA@GCBIEDGCBEA@C?>B>=D@?HDCLHGMIHKGFEA@A=<@<;?;:=98>:9B>=EA@IEDLHGLHGJFEHDCGCBEA@EA@EA@FBAGCBFBAEA@C?>D@?FBAFBAEA@EA>C?<A=:B>;EA>GC@A=:<85:63:63>:9>:9*()


	&%# 32.@?;>=9=<8A=:?;8A=:A=:C?<EA>HDAJFCKGDJFCIEBGC@FB?D@=A=:@<9A=:C?<B>;@<9@<9C?<FB?EA>EA>EA>FB?FB?EA>EA>D@=B>;@<9?;8A=<A=<A=<A=<@<;A=<B>=C?>B>=B>=B>=B>=A=<A=<A=<B>=C?>D@?D@?B>=@<;@<;B>=D@?D?<C>;B=:A<9@;8?:7>96=85@;8@;8?:7>96>96>96>96>96>:7?;8?;8>:7>:7=96<87<87>:9>:9=96=96=96>:7@<9B>;D@=B>;@<9?;8?;8A=:B>;B>;A=:C?<C?<C?<D@=EA>FB?FB?GCBB>=D@?@<;B>=EA@EA@EA@D@?EA@EA@FBAHDCIEDIEDFBAEA@D@?B>=A=<A=<A=<@<;@<;A=<D@?GCBFBAB>=A=<D@?EA@C?>A<9@;8?:7?:7@;8A<9C>;E@=C?<?;8=96>:7?;:?;:A=<D@?GCBD@?@<;>:9>:9=98=98>:9=98?;:A=<B>=B>=C?>D@?FBAHDCFBAD@?C?>C?>C?>EA@HDCJFEHDCB>=>:9?;:>:9=98=98@<;EA@KGFNJIMIHKGFHDCFBAEA@FBAFBAHDCIEDIEDHDCGCBGCBHDCGCBFBAFB?D@=A=:B>;EA>HDAB>;=96:63841;76<87201	




&%# 21-@?;>=9=<8A=:>:7@<9?;8@<9B>;EA>HDAJFCKGDKGDIEBFB?D@=B>;A=:A=:C?<B>;@<9?;8B>;C?<B>;C?<D@=EA>EA>D@=EA>D@=B>;?;8=96@<;@<;@<;?;:>:9?;:A=<C?>D@?C?>B>=B>=B>=B>=A=<A=<A=<C?>C?>A=<@<;A=<D@?FBAGB?E@=C>;B=:A<9A<9A<9@;8A<9A<9B=:A<9@;8?:7?:7@;8?;8@<9A=:@<9?;8>:7>:9>:9=98?;:@<9?;8>:7>:7A=:D@=D@=C?<B>;C?<D@=D@=D@=D@=C?<C?<C?<B>;B>;D@=D@=D@?EA@@?=@?==<:@?=DCACB@CB@BA?CB@CB@CB@CB@DCADCACB@BA?A@>@?=?><>=;>=;>=;?><?><D@?D@?D@?C?>C?>C?>D@?FBAA=<A=<A=<A=<C?>D@?D@?B>=B>=A=<@<;>:9=98=98>:9?;:@<;@<;@<;>:9=98=98=98>:9?;:?;:@<;B>=EA@FBAFBAFBAEDBCB@A@>BA?CB@DCACB@CB@EDBBA?@<;>:9>:9?;:?99<66B>;FB?JFCLHEKGDIEBGC@GC@FBAGCBJFEKGFKGFIEDHDCIEDIEDIEDJFEKGFIEDEA@C?>C?>GC@GC@EA>A=:=96<85>:7@<9621#" 	





$$"

 /.*<;7>=9=<8>=9>=9>:7>:7=96<85=96@<9C?<EA>IEBIEBGC@C?<A=:B>;D@=D@=B>;>:7<85>:7@<9A=:A=:A=:B>;@<9B>;D@=B>=@<;?;:?;:>:9?;:?;:?;:>:9>:9@<;A=<B>=D@?D@?B>=@<;@<;@<;?;:?;8@<9A=:B>;D@=EA>FB?GC@GC@EA>B>;A=:A=:C?<C?<B>;B>;@<9?;8?;8A=:B>;A=:A=:@<9?;8@<9B>;D@=D@=A=:>:7>:7A=:C?<C?<B>;A=:B>;C?<EA@EA@EA@EA@FBAGCBGCBGCBGCBEA@C?>D@?EA@FBAEA@EA@FBA?><@?==<:@?=DCACB@CB@BA?DCACB@CB@CB@CB@CB@CB@BA?A@>@?==<:<;9=<:>=;@?=A@>EA@EA@D@?D@?C?>C?>C?>D@?EA@EA@D@?C?>C?>D@?C?>A=<B>=B>=A=<?;:=98<87<87<87?;:?;:?;:?;:>:9>:9>:9>:9@<;@<;A=<C?>EA@FBAFBAFBAEDBDCACB@CB@DCADCACB@BA?CB@BA?A=<?;:>:9?;:?99=77D@=FB?HDAHDAFB?EA>D@=EA>FBAFBAGCBIEDIEDIEDKGFMIHLHGMIHOKJPLKNJIIEDD@?A=<FB?FB?FB?D@=B>;A=:A=:A=:=98,('	$$$

.-);:6=<8=<8?>:?>:?;8?;8=96:63952952<85=96B>;D@=EA>D@=A=:?;8A=:D@=B>;@<9?;8?;8@<9@<9@<9A=:A=:@<9A=:B>;@<;?;:?;:>:9?;:@<;?;:>:9<87<87>:9@<;B>=C?>D@?C?>A=<A=<?;:=98=96?;8A=:C?<D@=EA>FB?FB?GC@FB?EA>D@=D@=EA>D@=B>;@<9@<9@<9@<9A=:B>;A=:@<9@<9@<9A=:C?<FB?GC@EA>C?<C?<D@=EA>EA>C?<C?<C?<D@=FBAEA@EA@FBAGCBHDCHDCGCBGCBEA@D@?EA@EA@D@?C?>C?>B>=>=;?><=<:@?=DCACB@DCADCACB@BA?BA?A@>A@>A@>A@>A@>BA?@?==<:<;9>=;A@>CB@DCAHDCGCBGCBFBAFBAFBAEA@EA@HDCHDCHDCFBAEA@D@?C?>A=<B>=A=<A=<@<;@<;>:9=98<87?;:?;:@<;@<;?;:?;:?;:?;:A=<B>=C?>D@?EA@EA@FBAGCBEDBFECFECFECEDBEDBCB@BA?BA?CB@D@?B>=@<;@<;A;;@::D@=FB?FB?EA>C?<A=:A=:B>;D@?D@?D@?FBAGCBIEDLHGOKJNJIOKJPLKQMLOKJIEDD@?A=<EA>EA>GC@HDAHDAFB?D@=B>;A=<3/.

	$$$

-,(:95<;7<;7?>:?>:@<9@<9?;8=96:63952;74=96=96A=:EA>EA>A=:=96>:7C?<B>;B>;A=:>:7=96>:7?;8@<9>:7?;8A=:@<9>:9>:9?;:>:9A=<A=<A=<?;:<87<87>:9@<;A=<B>=C?>C?>C?>A=<?;:<87;74=96@<9C?<EA>EA>D@=D@=D?<E@=FA>FA>FA>E@=C>;A<9A<9A<9B=:C>;D?<C>;B=:A<9?;8?;8@<9C?<FB?GC@GC@FB?FB?GC@GC@GC@FB?EA>D@=D@=D@?C?>B>=C?>FBAGCBFBAEA@FBAEA@D@?EA@D@?A=<@<;@<;@<;=<:?><<;9@?=DCACB@DCADCABA?BA?@?=@?=@?=@?=A@>A@>CB@A@>?><?><A@>DCAGFDGFDJFEIEDIEDIEDJFEIEDHDCGCBHDCJFEKGFJFEHDCGCBD@?C?>A=<A=<A=<B>=B>=B>=A=<@<;@<;A=<B>=A=<@<;?;:@<;A=<B>=C?>D@?D@?D@?EA@FBAGCBFECGFDHGEGFDFECEDBCB@A@>BA?DCAGCBEA@C?>C?>D>>C==C?<C?<D@=D@=B>;@<9?;8?;8A=<B>=D@?D@?EA@FBAIEDLHGLHGLHGMIHLHGIEDFBAD@?C?>D@=FB?HDAIEBIEBGC@D@=C?<@<;732$#!&&&  

 +*&:95<;7=<8>=9?>:@<9A=:B>;B>;@<9>:7>:7A=:>:7@<9EA>HDAD@==96<85?;8A=:B>;@<9<85:63=96?;8@<9=96?;8B>;A=:>:9?;:A=<?;:A=<C?>C?>A=<>:9=98?;:A=<A=<B>=B>=C?>C?>B>=?;:<87<85>:7@<9B>;C?<C?<B>;B>;?:7B=:D?<D?<C>;C>;A<9@;8A<9B=:C>;C>;D?<C>;B=:A<9?;8?;8@<9B>;D@=FB?FB?EA>EA>FB?GC@HDAHDAFB?D@=B>;B>=@<;>:9?;:B>=D@?C?>A=<C?>C?>C?>C?>A=<?;:?;:@<;?;:;:8=<:;:8>=;BA?A@>BA?BA?CB@BA?A@>A@>A@>A@>BA?CB@CB@BA?BA?CB@EDBHGEIHFIHFJFEIEDIEDJFEKGFKGFJFEJFEJFEKGFLHGKGFJFEIEDGCBEA@B>=B>=A=<B>=C?>EA@EA@EA@D@?EA@EA@C?>@<;?;:A=<D@?D@?EA@EA@EA@D@?D@?EA@FBAHDCJFEIHFHGEGFDFECCB@@?=CB@DCAHDCGCBFBAFBAEA@D@?B>;A=:@<9A=:@<9>:7=96<85?;:B>=D@?D@?C?>B>=D@?FBAIEDJFEKGFHDCD@?B>=C?>EA@EA>GC@IEBHDAFB?C?<B>;B>;A=<;76-)(+++$#!
  )($:95=<8=<8>=9>=9?;8@<9C?<EA>D@=@<9?;8@<9@<9A=:D@=HDAGC@A=:>:7>:7@<9B>;A=:>:7=96?;8@<9?;8>:7@<9D@=D@=B>=C?>D@?A=<@<;C?>D@?C?>@<;?;:@<;B>=B>=A=<B>=B>=B>=A=<?;:>:9?;8?;8@<9A=:A=:A=:@<9@<9@;8A<9C>;B=:A<9@;8@;8@;8@;8A<9B=:B=:B=:B=:B=:A<9@<9@<9@<9A=:C?<C?<C?<C?<B>;B>;C?<EA>FB?EA>C?<@<9@<;>:9;76<87>:9@<;?;:>:9?;:?;:?;:?;:>:9>:9?;:A=<?;::97<;9:97=<:A@>@?=A@>A@>BA?CB@BA?BA?BA?BA?CB@CB@BA?CB@DCAFECGFDIHFIHFIHFJFEIEDIEDJFEJFEKGFLHGLHGLHGMIHLHGKGFJFEJFEIEDHDCD@?C?>B>=B>=C?>EA@FBAGCBGCBGCBGCBEA@B>=B>=D@?FBAFBAEA@EA@D@?C?>C?>D@?EA@HDCIEDHGEGFDGFDGFDDCAA@>A@>CB@GCBHDCHDCGCBEA@C?>C?<A=:?;8?;8?;8=96<85=96?;:C?>EA@D@?A=<@<;A=<A=<EA@HDCJFEGCBB>=?;:@<;B>=C?<FB?HDAGC@C?<@<9?;8@<9C?>?;:1-,!!!&&&###   %%%///'&$ )($:95>=9>=9>=9>=9>:7>:7A=:EA>EA>@<9>:7@<9A=:A=:C?<GC@IEBFB?B>;@<9A=:B>;D@=D@=D@=C?<A=:?;8?;8A=:EA>FB?EA@FBAFBAD@?A=<C?>EA@D@?B>=A=<B>=C?>B>=A=<A=<B>=B>=@<;?;:?;:A=:@<9@<9?;8?;8?;8?;8?;8B=:B=:A<9?:7=85>96>96>96>96?:7@;8A<9@;8@;8?:7@;8>:7>:7?;8@<9@<9@<9?;8?;8@<9?;8?;8@<9A=:B>;A=:@<9>:9=98;76:65;76;76;76;76;76;76;76<87=98=98?;:A=<B>==<:?><<;9?><CB@A@>BA?BA?CB@CB@DCACB@CB@CB@CB@CB@BA?CB@EDBGFDHGEHGEHGEHGEJFEJFEIEDHDCHDCIEDKGFLHGLHGLHGLHGLHGLHGLHGKGFIEDFBAEA@D@?C?>C?>D@?FBAHDCIEDIEDHDCGCBEA@FBAGCBHDCGCBFBAD@?C?>C?>C?>C?>C?>FBAHDCHDCHDCGFDHGEFECCB@?><BA?EDBFECHDCGCBEA@C?>C?<B>;B>;C?<B>;@<9@<9B>;B>=D@?D@?C?>A=<A=<A=<@<;C?>GCBJFEGCBB>=?;:>:9>:9@<9D@=GC@FB?B>;>:7>:7>:7C?>@<;621'#" %%%(((***(((,*+423,+)+*&:95>=9>=9?>:@?;@<9>:7A=:FB?FB?A=:?;8A=:A=:B>;D@=GC@HDAHDAFB?D@=D@=D@=FB?GC@FB?D@=A=:@<9@<9@<9C?<FB?FBAFBAFBAEA@C?>EA@FBAEA@D@?C?>C?>D@?A=<A=<B>=C?>B>=@<;?;:?;:A=:@<9?;8?;8>:7?;8?;8?;8C>;C>;@;8=85;63<74=85=85;63=85?:7@;8?:7>96=85=85;74<85>:7?;8?;8>:7=96=96>:7=96=96=96>:7?;8@<9@<9=98=98=98<87:65954954:65:65954:65<87=98>:9@<;A=<D@?@?=BA?@?=BA?EDBCB@DCADCADCAEDBFECFECEDBDCADCADCABA?DCAFECGFDGFDGFDHGEHGEIEDHDCGCBFBAEA@FBAHDCIEDIEDJFELHGNJIOKJOKJLHGHDCFBAFBAEA@D@?C?>D@?GCBIEDJFEIEDHDCHDCHDCIEDIEDHDCHDCFBAD@?B>=B>=C?>C?>B>=EA@FBAGCBGCBGFDIHFHGEDCA>=;A@>EDBFECHDCGCBEA@D@?B>;C?<FB?HDAGC@D@=D@=GC@D@?EA@C?>A=<A=<B>=B>=A=<D@?HDCKGFHDCD@?A=<?;:>:9=96B>;FB?FB?C?<?;8=96=96A=<A=<<871-,! !!!'''---,,,0./86710.	,+':95=<8=<8@?;BA=D@=A=:B>;FB?FB?A=:?;8A=:A=:C?<EA>GC@HDAIEBIEBHDAFB?EA>FB?GC@EA>B>;@<9A=:@<9>:7@<9D@=EA@EA@EA@EA@FBAGCBGCBFBAEA@D@?D@?EA@@<;A=<B>=C?>B>=?;:?;:?;:@<9@<9?;8>:7>:7?;8?;8@<9D?<C>;@;8=85<74=85>96>96:52<74?:7@;8?:7>96<74<74:63<85>:7@<9@<9?;8>:7>:7<85<85<85=96>:7>:7>:7>:7>:9@<;A=<?;:<87:65:65;76:65:65;76>:9?;:@<;@<;A=<B>=DCAGFDCB@CB@DCABA?CB@BA?FECGFDHGEHGEFECDCABA?BA?@?=BA?CB@CB@CB@DCAFECHGEHDCFBAD@?C?>C?>D@?D@?D@?EA@HDCIEDIEDIEDJFEIEDGCBFBAD@?C?>C?>D@?EA@EA@D@?HDCJFEJFEHDCEA@EA@GCBJFEGCBGCBFBAD@?C?>B>=B>=B>=D@?EA@EA@EA@EDBGFDGFDFECA@>BA?DCADCAEA@D@?D@?EA@FBAHDCJFEIEDGCBGCBGCBGCBGC@EA>D@=D@=C?<A=:@<9@<9B>;FB?HDAHDAIEBJFCEA>?;8@<;@<;D@?GCBD@?A=<A=<A=<C?>C?>>:9510*)'#" " !&$%(((***---000312867653%$"-,(873<;7@?;A@<CB>C?<A=:A=:EA>FB?C?<@<9>:7?;8A=:B>;B>;D@=FB?EA>D@=FB?FB?FB?EA>A=:?;8@<9C?<B>;@<9@<9C?<D@?D@?D@?D@?FBAFBAFBAFBAEA@D@?B>=B>=B>=A=<A=<@<;@<;?;:?;:?;:@<9@<9?;8>:7>:7?;8@<9@<9C>;C>;B=:A<9@;8>96=85<74<74>96@;8A<9B=:A<9?:7<74<85=96>:7>:7>:7?;8?;8@<9?;8?;8?;8@<9?;8=96>:7?;8@<9@<9A=:A=:C?<D@=@<9<85;74;74;74<85>:7?;8?;8?;8B>;CB@GFDDCADCADCAA@>BA?A@>DCAGFDIHFIHFGFDEDBCB@CB@A@>A@>A@>@?=@?=@?=BA?DCAEA@C?>A=<A=<A=<B>=C?>C?>B>=D@?EA@D@?C?>C?>C?>C?>FBAEA@D@?B>=B>=B>=D@?EA@GCBIEDIEDGCBC?>B>=D@?GCBFBAEA@C?>B>=B>=B>=C?>C?>EA@EA@EA@EA@DCAEDBEDBDCAA@>BA?CB@CB@D@?D@?EA@FBAFBAGCBHDCFBAEA@EA@EA@EA@EA>D@=D@=D@=B>;@<9?;8A=:B>;EA>EA>FB?HDAKGDHDAC?<B>=A=<D@?FBAD@?D@?D@?C?>C?>D@??;:732-,*('%*()0./000111333444423978875)(& /.*984;:6>=9>=9A@<C?<A=:B>;D@=EA>B>;?;8>:7>:7@<9A=:@<9@<9A=:A=:A=:A=:B>;D@=C?<?;8=96@<9D@=B>;A=:B>;D@=EA@EA@D@?D@?EA@D@?C?>C?>C?>B>=B>=A=<C?>B>=@<;@<;@<;A=<B>=B>=?;8?;8>:7>:7?;8@<9A=:A=:C>;C>;C>;B=:A<9?:7>96=85=85>96@;8B=:C>;C>;A<9?:7>:7>:7?;8?;8?;8@<9A=:B>;B>;A=:A=:A=:@<9?;8?;8A=:A=:B>;A=:B>;EA>FB?C?<>:7;74<85=96>:7?;8?;8>:7>:7A=:CB@HGEEDBEDBEDBBA?BA?@?=A@>EDBIHFJIGGFDEDBCB@CB@BA?A@>?><=<:=<:=<:>=;?><B>=@<;?;:>:9?;:@<;A=<A=<A=<A=<A=<@<;>:9=98>:9A=<FBAFBAD@?A=<?;:?;:B>=EA@FBAGCBGCBD@?A=<@<;B>=EA@EA@C?>B>=A=<B>=B>=B>=A=<C?>C?>C?>D@?D@?C?>BA?BA?A@>BA?BA?CB@CB@CB@FBAGCBEA@FBAFBAD@?C?>C?>D@?D@?D@=EA>EA>D@=A=:?;8?;8@<9C?<EA>EA>EA>HDAKGDJFCFB?EA@C?>D@?D@?D@?GCBGCBD@?B>=C?>>:9621-+,+)*/-.867756978867756534756764+*(! 0/+873984<;7=<8?>:B>;A=:B>;D@=C?<@<9>:7>:7=96>:7?;8=96;74:63;74<85;74>:7A=:@<9<85:63>:7B>;B>;B>;C?<EA>FBAFBAEA@EA@D@?B>=?;:>:9?;:@<;A=<A=<B>=A=<@<;@<;A=<B>=C?>C?>C?<C?<B>;A=:A=:A=:B>;B>;C>;C>;C>;B=:A<9@;8?:7>96>96?:7A<9C>;E@=D?<C>;B=:A=:A=:A=:A=:A=:B>;D@=EA>FB?FB?EA>D@=B>;@<9@<9A=:@<9@<9?;8?;8C?<FB?C?<?;8952;74=96@<9A=:A=:@<9?;8A=:CB@GFDDCADCAFECDCACB@@?=>=;A@>EDBFECEDBDCABA?BA?BA?@?==<:<;9<;9<;9<;9<;9@<;?;:>:9=98>:9?;:A=<B>=C?>A=<A=<@<;?;:=98>:9A=<D@?D@?C?>A=<>:9>:9@<;B>=C?>D@?D@?C?>A=<@<;B>=EA@C?>C?>C?>C?>C?>A=<?;:>:9B>=B>=C?>D@?C?>A=<@?=A@>@?=A@>BA?CB@CB@DCAGCBGCBEA@FBAEA@D@?D@?D@?D@?C?>D@=EA>EA>D@=A=:>:7>:7>:7C?<EA>GC@FB?GC@IEBGC@D@=FBAD@?D@?D@?D@?GCBHDCEA@C?>B>=;763/.,*++)*1/0:89:89;9:97875653442321/('%.-)651762:95<;7?>:?;8?;8A=:B>;B>;@<9?;8@<9>:7?;8>:7;74952730841952:63>:7B>;@<9;74952<85A=:A=:@<9A=:C?<EA@FBAFBAFBAB>=@<;=98;76;76>:9@<;A=<@<;@<;A=<A=<@<;@<;@<;@<;EA>EA>D@=C?<B>;B>;B>;B>;D?<D?<C>;C>;B=:A<9@;8?:7?:7?:7A<9C>;D?<C>;C>;B=:C?<B>;A=:B>;B>;C?<D@=FB?HDAHDAGC@EA>B>;@<9>:7>:7=96<85;74<85?;8B>;A=:>:7841:63<85?;8A=:A=:A=:@<9?;8A@>DCA@?=A@>EDBFECDCA@?==<:>=;@?=A@>A@>A@>A@>A@>A@>?><>=;>=;>=;?><>=;<;9@<;@<;?;:?;:?;:@<;B>=C?>FBAD@?C?>C?>C?>@<;@<;A=<B>=B>=B>=A=<@<;?;:?;:@<;B>=B>=B>=A=<@<;@<;B>=C?>B>=C?>D@?D@?B>=A=<@<;?;:C==D>>D@?EA@D@?B>=?><@?=?><@?=A@>CB@EDBEDBEDBDCAEA@FBAGCBGCBFBAFBAEA@C?>B>;B>;B>;A=:@<9?;8>:7=96@<9C?<D@=D@=D@=EA>EA>D@=D@?D@?EA@D@?C?>FBAGCBD@?EA@B>=:652.-,*+,*+1/0978;9:;9:867867756201-,*#" ,+'43/540984;:6>=9>:7?;8A=:B>;A=:@<9@<9@<9A=:?;8=96;74952841841841;74?;8B>;A=:<85:63<85@<9@<9@<9?;8@<9B>=D@?EA@EA@A=<A=<>:9:65843:65=98?;:?;:@<;A=<@<;>:9<87=98=98@<9@<9@<9@<9@<9A=:A=:A=:D@=C?<B>;A=:@<9?;8>:7>:7<85=96>:7A=:B>;A=:A=:B>;C?<A=:@<9@<9?;8?;8@<9B>;B>;D@=D@=C?<@<9=96;74:63:63;74:63952;74?;8?;8>:7:63:63;74=96>:7>:7>:7=96=96>=;@?=<;9>=;DCAEDBCB@>=;<;9<;9<;9=<:>=;?><@?=@?=A@>@?=?><@?=A@>BA?@?=?><B>=B>=A=<A=<@<;A=<C?>EA@GCBFBAEA@EA@EA@D@?B>=B>=A=<B>=B>=C?>B>=B>=A=<@<;C?>C?>B>=A=<?;:?;:A=<B>=C?>C?>C?>C?>B>=A=<B>=C?>E??F@@EA@D@?C?>B>=?><>=;?><@?=A@>CB@EDBEDBDCACB@D@?FBAHDCIEDJFEIEDGCBD@??;8?;8?;8?;8@<9@<9?;8=96<85>:7@<9@<9B>;D@=FB?FB?D@?C?>EA@EA@C?>D@?FBAD@?EA@B>=9541-,+)*+)*/-.645<:;<:;978;9:9781/0('%+*&21-43/873:95<;7>:7@<9A=:A=:@<9?;8@<9@<9@<9=96:63952952841730730952=96@<9?;8<85;74=96?;8A=:A=:?;8>:7?;:A=<B>=B>=B>=C?>@<;;76732843:65<87?;:@<;@<;?;:=98<87<87=98=96=96=96>:7>:7>:7?;8?;8B>;A=:?;8=96<85<85<85<85:63:63<85?;8@<9@<9A=:C?<B>;@<9>:7=96<85:63:63;74952<85>:7?;8=96;74841730952:63952841841;74=96<85952952952:63;74<85<85<85=96<;9?><<;9>=;DCAEDBCB@=<:<;9<;9<;9<;9=<:>=;?><@?=A@>A@>A@>BA?CB@CB@BA?A@>D@?D@?C?>B>=A=<B>=D@?FBAGCBGCBGCBFBAFBAEA@D@?C?>C?>C?>C?>D@?D@?D@?EA@EA@FBAFBAEA@C?>B>=A=<B>=C?>EA@EA@D@?C?>B>=C?>D@?EA@E??GAAEA@B>=A=<D@?A@>?><@?=@?=A@>BA?DCAEDBCB@BA?D@?FBAHDCJFEKGFLHGIEDFBA@<9@<9?;8?;8A=:C?<B>;@<9=96>:7?;8A=:C?<FB?GC@FB?D@?C?>D@?FBAD@?D@?FBAEA@E??B<<9541-,,()*&',*+201;9:<:;978;9:978-+, 	+*&32.43/873:95<;7?;8@<9A=:A=:A=:@<9@<9A=:>:7;74841841952841841841952<85?;8?;8=96>:7?;8@<9B>;A=:?;8>:7?;:@<;A=<@<;D@?EA@C?>>:9:65;76<87<87?;:?;:@<;A=<A=<@<;>:9=98>:7>:7>:7>:7?;8?;8?;8?;8A=:?;8<85:63952:63;74<85952841:63>:7?;8?;8A=:C?<C?<@<9>:7=96;7473051.62/51.841;74<85;74;7495273095295284162/730:63;74:63841841730841952:63;74<85<85<;9A@>>=;@?=EDBFECCB@=<:<;9<;9=<:=<:<;9=<:?><A@>BA?BA?BA?BA?CB@DCACB@CB@EA@EA@EA@C?>B>=B>=D@?FBAFBAHDCHDCFBAEA@FBAFBAD@?EA@EA@D@?D@?EA@FBAHDCIEDIEDIEDHDCFBAEA@EA@FBAFBAGCBFBAD@?D@?D@?D@?D@?C?>GAAHBBEA@A=<B>=GCBFECCB@A@>@?=@?=A@>CB@DCACB@BA?D@?FBAHDCJFELHGLHGJFEHDCD@=C?<B>;B>;C?<D@=D@=B>;@<9@<9B>;D@=GC@IEBGC@D@=EA@B>=C?>FBAEA@D@?FBAGCBE??C==:651-,+'(($%)'(/-.867:89756867645(&'
*)'32.540984;:6=<8>:7?;8@<9A=:A=:B>;B>;B>;?;8<85:63:63;74:63:63;74;74>:7@<9@<9@<9A=:A=:A=:A=:A=:@<9?;8?;:A=<A=<?;:D@?FBAD@?@<;>:9?;:?;:>:9=98>:9A=<EA@FBAEA@A=<=98<85=96>:7?;8@<9A=:B>;B>;B>;@<9=96:63:63;74=96?;8:63952:63>:7?;8>:7@<9C?<FB?B>;@<9?;8<8573040-40-51.952<85<85<85<85:63952;74;74952730841;74;74952952952841841841841952952:63<;9?><A@>DCAFECDCA@?=@?=>=;?><?><>=;=<:=<:@?=CB@BA?BA?DCAEDBDCACB@BA?CB@GCBEA@EA@D@?D@?C?>D@?EA@FBAIEDKGFIEDFBAEA@FBAHDCGC@HDAHDAGC@HDAIEBJFCLHEIEBKGDKGDIEBHDAIEBIEBHDAIEBGC@EA>D@=C?<C?<C?<C?<D@?D@?C?>C?>EA@IEDHDCEA@C?>B>=B>=C?>D@?D@?EA@FBAGCBFBAFBAHDCHDCHDCHDCHDCD@?EA@FBAEA@EA@FBAFBAFBAEA@EA@FBAIEDKGFKGFIEDFBAA@>BA?BA?CB@DCAEDBFECFECFBAD@?>:9732,('"#+'&653<;9:97653320%$"
	
	'%&653;:8986:97=<:>=9>=9@?=A@>@?=>=;?><A@>D@=A=:?;8?;8@<9A=:B>;C?<C?<D@=D@=C?<C?<D@=D@=B>;C?>D@?A=<=98<87A=<D@?C?>FBAGCBGCBEA@EA@EA@D@?B>=<87>:9A=<EA@GCBFBAC?>@<;>:7>:7?;8?;8@<9@<9@<9@<9C?<B>;A=:@<9?;8@<9@<;@<;<87;76<85>:7=96=96=96?;8A=:B>;B>;?;8<85:6362/3/,730730952<85=96<85;74:63;74;74:63730730952;74:63952:63:6384173073062/62/843<;9@?=CB@FECHGEEDB@?=?><?><@?=A@>A@>@?=@?=CB@EDBCB@BA?CB@CB@CB@CB@CB@DCAGCBGCBGCBGCBFBAD@?C?>C?>EA@HDCIEDHDCGCBGCBHDCHDCGC@IEBJFCKGDKGDJFCIEBIEBIEBLHEMIFLHELHEMIFMIFKGDIEBGC@EA>EA>EA>D@=D@=EA>D@?D@?C?>B>=EA@HDCGCBD@?B>=@<;@<;B>=D@?EA@EA@FBAFBAEA@EA@EA@FBAFBAFBAGCBEA@FBAHDCGCBHDCIEDJFEJFEIEDHDCFBAFBAHDCIEDIEDHDCBA?BA?CB@DCAEDBFECEDBEDBEA@C?>?;:843,('+*(875<;965310.$#!#!"201875764875;:8?>:@?;A@>A@>?><>=;@>?CB@FB?EA>D@=D@=EA>D@=EA>FB?FB?FB?D@=C?<C?<D@=C?<B>;C?>C?>A=<>:9=98@<;B>=B>=EA@GCBHDCGCBGCBGCBFBAEA@>:9<87=98A=<D@?EA@C?>B>=@<9@<9@<9@<9@<9@<9A=:A=:C?<D@=D@=D@=B>;B>;A=<A=<?;:>:9>:7>:7>:7=96>:7@<9A=:A=:A=:@<9?;8=96:6384162/62/841;74<85<85;74;74<85>:7=96:63952;74<85;74:63:63:63:63841841841841843<;9A@>DCAGFDIHFFECA@>@?=A@>BA?DCADCACB@CB@EDBFECEDBCB@CB@CB@BA?BA?CB@EDBHDCHDCHDCHDCGCBEA@D@?C?>EA@FBAFBAFBAFBAHDCHDCGCBGC@IEBLHEMIFMIFKGDJFCHDAHDAJFCLHELHELHEMIFLHEKGDGC@FB?EA>EA>FB?EA>EA>FB?D@?D@?C?>C?>EA@GCBGCBD@?B>=?;:?;:B>=EA@GCBFBAEA@FBAD@?B>=B>=C?>C?>D@?FBAEA@GCBIEDIEDJFEKGFLHGMIHMIHJFEFBAEA@EA@GCBHDCIEDEDBEDBEDBGFDHGEHGEGFDFECFBAD@?@<;954+*(
	0/-;:8764/.,#" )'(/.,10.431875>=;@?=A@>A@>?><>=;@?=CB@FB?FB?FB?GC@GC@EA>EA>FB?FB?D@=B>;@<9@<9B>;B>;A=:C?>B>=A=<@<;@<;@<;@<;@<;A=<D@?GCBHDCHDCHDCHDCGCBB>=<87954<87@<;A=<A=<A=<B>;A=:@<9?;8?;8?;8@<9@<9C?<D@=FB?FB?EA>C?<A=<A=<B>=A=<@<9?;8?;8?;8A=:C?<@<9>:7>:7@<9A=:@<9>:7>:7:63:63:63=96?;8?;8>:7>:7=96?;8@<9=96<85<85=96=96<85<85=96=96<85<85=96>:7=98=<:A@>DCAEDBGFDEDBCB@BA?CB@DCAEDBEDBEDBEDBEDBFECFECEDBEDBDCACB@A@>BA?DCAHDCGCBGCBGCBFBAEA@D@?EA@D@?EA@D@?D@?D@?FBAFBAEA@GC@IEBJFCKGDLHEKGDKGDJFCHDAIEBJFCIEBIEBIEBHDAGC@EA>D@=D@=EA>EA>D@=D@=EA>EA@D@?D@?C?>EA@GCBHDCFBAC?>A=<@<;C?>FBAGCBFBAEA@GCBD@?@<;?;:@<;A=<C?>D@?EA@HDCJFEJFEJFELHGNJIOKJMIHKGFHDCFBAEA@FBAFBAGCBEDBEDBFECHGEJIGJIGHGEFECHDCEA@?;:843*)'
	
$#!65376410.#" 	
 $#!'&$/.,764=<:?><A@>BA?A@>?><@?=@?=C?<C?<D@=FB?EA>D@=D@=D@=D@=A=:>:7=96=96?;8@<9@<9@<;?;:?;:A=<A=<?;:=98=98=98@<;C?>EA@FBAGCBHDCHDCFBA>:9843954<87=98=98?;:A=:@<9?;8=96=96=96>:7>:7B>;D@=GC@GC@EA>C?<B>=B>=B>=A=<@<9@<9@<9A=:C?<D@=>:7:63:63>:7A=:A=:A=:C?<B>;@<9@<9A=:B>;A=:@<9@<9>:7?;8?;8>:7=96=96=96=96>:7>:7?;8?;8?;8@<9C?<FB?C?>?><CB@CB@BA?CB@CB@BA?CB@DCAEDBFECFECEDBEDBEDBEDBEDBFECGFDFECCB@@?=@?=BA?GCBFBAFBAGCBFBAD@?C?>C?>A=<B>=B>=B>=B>=C?>EA@EA@GC@GC@HDAIEBJFCJFCJFCJFCIEBJFCIEBHDAFB?FB?FB?EA>D@=C?<C?<D@=D@=C?<C?<C?<D@?D@?C?>C?>EA@GCBHDCHDCEA@C?>C?>EA@FBAFBAEA@EA@GCBC?>?;:=98=98>:9A=<B>=FBAHDCIEDHDCHDCJFEMIHOKJJIGHGEFECDCACB@CB@CB@CB@EA@EA@EA@HDCJFEJFEIEDGCBEDBA@>:97320('%  *)'542320%$"


*)'764>=;@?=C?>D@?D@?D@?B>=A=<A=:A=:A=:C?<D@=C?<C?<C?<C?<@<9=96<85<85<85=96>:7<87;76<87@<;A=<=98:65954:65<87?;:A=<C?>D@?FBAGCBGCBA=<<87;76;76:65;76=98@<9?;8>:7<85;74;74<85<85A=:D@=FB?GC@EA>C?<C?>C?>@<;@<;@<9@<9@<9A=:B>;C?<>:7952841=96A=:A=:C?<FB?FB?EA>D@=D@=C?<A=:?;8?;8?;8?;8>:7=96>:7?;8?;8>:7@<9@<9@<9?;8?;8@<9D@=IEBFBAA@>EDBDCA@?=@?=@?=@?=BA?DCADCADCADCADCADCADCAEDBDCAEDBFECEDBBA??><?><@?=EA@EA@GCBHDCFBAC?>@<;?;:>:9@<;A=<@<;A=<C?>EA@GCBFB?FB?GC@HDAHDAIEBHDAGC@IEBIEBHDAGC@EA>EA>EA>EA>D@=C?<B>;C?<C?<B>;A=:A=:B>=B>=C?>D@?EA@GCBHDCHDCFBAEA@EA@FBAFBAEA@D@?D@?FBAA=<=98;76;76<87>:9@<;C?>FBAGCBEA@D@?EA@HDCJFEHGEGFDFECDCABA?BA?CB@CB@D@?D@?D@?EA@GCBGCBFBAEA@BA?@?=98621/'&$    
	.-+320'&$	


###"" ('%431>=;?><A=<A=<B>=C?>B>=@<;?;8>:7>:7?;8A=:A=:A=:B>;B>;@<9>:7<85;74:63:63;74954843954<87=98;76843621621732954<87?;:@<;A=<C?>EA@C?>@<;>:9;76:65<87>:9@<9?;8>:7<85;74:63:63:63>:7@<9B>;C?<C?<B>;B>=B>=@<;@<;@<9?;8?;8@<9@<9@<9?;8;74:63>:7A=:A=:C?<FB?GC@GC@FB?FB?D@=A=:?;8?;8A=:?;8>:7>:7?;8@<9@<9?;8B>;A=:A=:@<9?;8?;8C?<HDAFBAA@>EDBDCA@?=?><>=;>=;@?=A@>A@>A@>A@>BA?CB@DCAEDBDCABA?A@>@?=?><=<:>=;@?=EA@EA@GCBHDCGCBC?>?;:>:9?;8@<9@<9@<9A=:D@=FB?HDAEA>EA>EA>GC@HDAHDAHDAHDAHDAHDAHDAGC@FB?EA>EA>EA>D@=B>;A=:B>;B>;A=:@<9A=:@<;B>=D@?FBAGCBGCBFBAFBAFBAEA@EA@FBAEA@D@?C?>C?>EA@A=<<87:65;76;76=98>:9@<;C?>EA@C?>A=<B>=D@?EA@FECEDBEDBDCACB@BA?CB@CB@EA@D@?C?>C?>C?>C?>C?>B>=@?===;88611/'&$   %$"1-,,('
   ((((((!!!&%#10.;:8<;9?;:?;:?;:@<;?;:>:9<85;74<85=96>:7>:7?;8@<9A=:@<9@<9?;8<85952952;74954843732843:65954732510510510732:65=98>:9>:9?;:B>=C?>B>=?;:;76;76<87=98@<9@<9>:7=96;74:63952952:63;74>:7?;8@<9@<9@<;@<;?;:@<;?;8>:7>:7@<9@<9?;8>:7<85<85?;8A=:@<9A=:C?<D@=EA>GC@GC@EA>B>;A=:A=:@<9?;8?;8@<9@<9@<9?;8?;8@<9@<9A=:A=:?;8>:7A=:GC@GAA@?=DCADCAA@>?><>=;>=;>=;?><>=;>=;>=;@?=BA?DCAEDBCB@@?==<:;:8<;9<;9>=;@?=EA@EA@FBAGCBFBAC?>A=<@<;@<9A=:A=:A=:A=:D@=FB?GC@EA>D@=D@=EA>GC@HDAJFCJFCHDAHDAHDAHDAGC@EA>D@=EA>C?<A=:@<9A=:@<9@<9?;8@<9?;:B>=FBAIEDIEDHDCFBAEA@EA@D@?D@?EA@EA@C?>B>=B>=FBAA=<=98;76;76<87=98>:9?;:C?>FBAEA@B>=B>=C?>D@?CB@DCAEDBEDBDCACB@BA?BA?D@?C?>B>=@<;?;:?;:?;:=<:=<:;;9775//-%$"    
.*)-)(  (((+++"""$#!/.,875;:8@<;@<;@<;@<;>:9<87:63;74<85=96<85<85=96?;8A=:B>;B>;B>;?;8<85<85>:7;76:65732621843954843621621621843<87?;:@<;?;:>:9@<;C?>C?>>:9:65:65<87<87A=:@<9?;8>:7<85:63841730841952<85>:7@<9@<9?;:?;:?;:?;:>:7=96>:7@<9A=:@<9<85<85=96?;8@<9?;8>:7>:7@<9B>;EA>FB?D@=A=:A=:B>;>:7?;8@<9@<9@<9?;8=96=96<85=96?;8@<9>:7=96@<9EA>F@@A@>CB@CB@CB@DCABA??><=<:=<:>=;>=;>=;?><A@>BA?BA?@?=?><>=;<;9<;9=<:@?=BA?D@?D@?D@?D@?D@?D@?C?>C?>C?<C?<C?<B>;B>;C?<FB?IEBHDAEA>B>;C?<EA>GC@HDAIEBGCBJFEKGFIEDHDCIEDIEDIEDFBAC?>A=<A=<A=<@<;@<;@<;B>=C?>D@?FBAHDCHDCFBAC?>C?>C?>FBAHDCEA@A=<A=<EA@EA@D@?@<;=98=98@<;A=<@<;B>=D@?EA@EA@D@?C?>B>=B>=A@>CB@DCADCACB@BA?CB@DCAD@?C?>A=<@<;?;:?;:@<;>=;=<:::8442,,*#!"	   -)(.*)'#" $$$+++'''&$%/-.645978=98=98>:9@<;@<;>:9:63952;74>:7>:7;74<85?;8B>;A=:B>;GC@HDAEA>@<9=96?;:?;:=98954732843954843732732954;76=98>:9=98<87;76>:9>:9<87:65;76>:9?;:@<9@<9?;8<85:6395295284162/730952=96@<9A=:@<;>:9>:9>:9>:7>:7>:7?;8@<9B>;?;8=96;74=96>:7>:7=96=96=96?;8A=:C?<D@=C?<B>;B>;C?<B>;A=:?;8@<9A=:@<9>:7;74;74<85=96=96=96@<9C?<D>>CB@EDBEDBDCADCABA?>=;<;9=<:=<:>=;=<:?><A@>A@>A@>>=;>=;>=;>=;>=;@?=BA?DCAEA@D@?D@?C?>C?>C?>D@?D@?EA>EA>D@=C?<C?<D@=FB?HDAHDAEA>B>;B>;D@=EA>GC@IEBJFEJFEKGFJFEIEDIEDHDCGCBGCBD@?C?>D@?EA@D@?B>=A=<C?>D@?EA@FBAGCBGCBEA@C?>D@?D@?FBAFBAEA@B>=C?>FBAFBAFBAD@?A=<A=<D@?FBAD@?D@?D@?EA@D@?D@?C?>C?>C?>BA?CB@DCADCADCACB@CB@DCAEA@C?>A=<@<;@<;@<;@<;@<;:9755300.,,*%#$    ,('1-,+'&   !!!++++++*()201756978>:9?;:?;:@<;@<;?;:=96<85=96?;8?;8>:7>:7@<9A=:B>;D@=HDAJFCHDAC?<@<9A=<B>=B>=?;:=98<87:65843732843954;76=98>:9=98<87;76=98=98;76:65<87=98>:9?;8?;8>:7<85:63952952952841952;74>:7A=:B>;C?>C?>A=<A=<A=:@<9@<9?;8@<9@<9@<9?;8>:7=96<85<85;74:63:63<85>:7@<9A=:A=:@<9@<9@<9@<9@<9@<9@<9A=:?;8=96:63;74=96>:7=96=96>:7@<9C==A@>DCAEDBDCADCACB@@?=?><>=;>=;=<:=<:>=;@?=A@>@?=?><@?=@?=A@>BA?CB@DCAEDBGCBFBAEA@D@?D@?D@?EA@EA@FB?FB?FB?EA>D@=EA>FB?GC@HDAFB?C?<C?<C?<D@=GC@JFCKGFJFEIEDIEDJFEIEDHDCGCBHDCEA@D@?FBAIEDIEDEA@B>=B>=C?>D@?EA@FBAEA@D@?D@?EA@EA@EA@D@?D@?D@?EA@EA@FBAGCBFBAEA@EA@GCBHDCHDCFBAEA@EA@D@?D@?D@?D@?C?>BA?BA?CB@DCAEDBEDBEDBEDBEA@D@?B>=A=<A=<@<;@<;@<;;:854210.10.,*+
 )(&3200/-   			+++///0./645978:89>:;@<=@<;@<;?;:@<;A=:@<9@<9@<9A=:A=:A=:A=:A=:C?<EA>GC@IEBHDAEA>A=:B>=B>=C?>C?>B>==98:65843843954:65<87>:9=98<87:65;76;76;76:65:65<87>:9>:9>:7?;8?;8=96;74;74;74:63<85<85>:7?;8@<9B>;EA@FBAD@?C?>C?<B>;B>;A=:@<9?;8@<9@<9?;8=96<85>:7>:7=96;74<85=96?;8?;8@<9?;8?;8>:7?;8?;8?;8@<9@<9@<9?;8;74<85=96>:7>:7=96>:7@<9A=:?><CB@DCACB@EDBDCACB@CB@@?=>=;=<:<;9=<:@?=A@>BA?CB@CB@CB@DCAEDBFECGFDGFDKGFJFEHDCGCBFBAFBAFBAFBAFB?FB?FB?EA>EA>EA>FB?FB?HDAGC@FB?EA>D@=EA>GC@JFCKGFHDCFBAGCBHDCHDCHDCIEDHDCEA@D@?GCBKGFKGFHDCD@?B>=C?>D@?EA@D@?C?>C?>D@?D@?EA@EA@C?>C?>D@?D@?D@?FBAGCBGCBFBAFBAGCBHDCHDCGCBFBAEA@EA@EA@EA@D@?C?>BA?BA?BA?CB@EDBGFDHGEHGEFBAEA@D@?B>=B>=A=<A=<@<;=<:875653764423(&'
	  %$"542542$#!***111312978<:;;9:=9:@<=@<;?;:?;:A=<D@=C?<A=:@<9A=:C?<C?<A=:A=:C?<EA>EA>EA>FB?C?<>:7A=<?;:A=<D@?C?>>:9:65:65:65;76<87>:9?;:?;:=98;76:65954843843:65=98>:9?;:@<9A=:B>;@<9>:7=96<85;74>:7?;8@<9@<9@<9A=:C?>FBAD@?C?>B>;B>;B>;B>;A=:@<9?;8@<9@<9=96>:7A=:B>;?;8=96>:7?;8?;8?;8?;8?;8>:7?;8?;8?;8?;8?;8@<9B>;D@=@<9?;8>:7>:7=96<85>:7A=:@<9CB@EDBFECEDBFECEDBCB@CB@A@>?><<;9;:8=<:@?=BA?CB@FECEDBEDBEDBFECHGEHGEHGEMIHLHGKGFIEDIEDHDCFBAFBAEA>EB=EB=EB=FB?FB?FB?FB?FB?FB?GC@GC@EA>D@=EA@GCBJFEHDCFBAEA@D@?EA@GCBJFEHDCEA@D@?FBAJFEKGFIEDEA@D@?D@?D@?EA@C?>A=<B>=C?>C?>EA@EA@D@?C?>C?>D@?D@?GCBGCBHDCGCBFBAGCBGCBFBAEA@EA@EA@FBAGCBFBAEA@D@?FBAEA@D@?EA@GCBIEDJFEJFEDCADCACB@BA?A@>A@>@?=?><>=9<;7;:8;:8978312$"% 
  331672((&'%&1/0423978=;<<:;<:;><=?><>=;>=;@?=EA>C?<A=:?;8@<9B>;B>;@<9A=:C?<D@=C?<C?<C?<A=:=96@<;>:9@<;EA@EA@@<;<87;76<87<87=98?;:A=<A=<?;:>:9:65843732843:65=98?;:@<;C?<EA>EA>C?<A=:?;8>:7<85?;8@<9B>;A=:@<9@<9B>=EA@C?>B>=A=:A=:A=:B>;B>;B>;@<9A=:?;8=96>:7A=:A=:>:7?;8@<9?;8>:7>:7?;8?;8>:7@<9@<9@<9@<9@<9A=:D@=FB?D@=C?<A=:?;8=96<85=96?;8@<9FECHGEGFDFECGFDGFDEDBDCAA@>>=;<;9<;9>=;A@>DCAEDBGFDFECDCADCAFECGFDHGEHGEKGFKGFJFEIEDIEDHDCFBAEA>EA>DA<DA<EB=FB?GC@FB?FB?D@=EA>FB?FB?D@=B>;B>=D@?IEDIEDGCBD@?B>=C?>FBAHDCGCBFBAEA@EA@HDCJFEIEDFBAC?>B>=C?>D@?D@?B>=C?>D@?C?>D@?D@?D@?C?>C?>EA@FBAFBAFBAFBAEA@EA@EA@D@?D@?C?>C?>EA@FBAGCBGCBFBAFBAGCBFBAEA@FBAGCBHDCIEDIEDEDBDCACB@CB@CB@BA?A@>@?=@?;?>:?><>=;;9:;9:0.1	  	00.672+,'" !/-.201756=;<<:;=;<?=>@?=A@>A@>BA?EA>C?<@<9?;8@<9@<9@<9>:7@<9A=:B>;C?<C?<C?<B>;@<9@<;?;:B>=FBAGCBB>=<87:65:65;76<87>:9@<;A=<A=<@<;<87954732843:65<87>:9@<;D@=EA>EA>D@=C?<B>;?;8=96>:7@<9B>;B>;A=:A=:B>=D@?C?>B>=A=:@<9@<9A=:A=:A=:A=:A=:?;8>:7A=:C?<C?<A=:@<9@<9@<9>:7?;8A=:B>;A=:?;8?;8@<9A=:A=:B>;D@=EA>EA>D@=C?<B>;?;8<85;74;74?;8FECGFDFECEDBHGEHGEFECEDBBA??><=<:?><A@>DCAFECGFDGFDEDBCB@BA?CB@EDBEDBEDBHDCGCBGCBGCBHDCHDCGCBFB?GC@FC>EB=FC>GC@GC@GC@FB?D@=D@=EA>EA>C?>A=<A=<B>=FBAHDCGCBB>=@<;C?>EA@EA@FBAFBAEA@EA@FBAHDCGCBFBAC?>A=<B>=D@?D@?C?>C?>EA@C?>B>=A=<C?>D@?D@?EA@HDCFBAEA@D@?D@?D@?D@?D@?D@?B>=B>=C?>D@?D@?D@?D@?D@?EA@FBAFBAGCBGCBHDCGCBGCBEDBDCADCADCADCACB@BA?A@>BA=@?;BA?@?==;<><=758(&)    ..,672-.) 
-+,0.1425978;9:=;<?=>BA?DCADCACB@FB?B>;?;8?;8?;8>:7=96>:7?;8?;8A=:C?<C?<C?<C?<D@=B>=A=<C?>FBAGCBD@??;:;76<87;76<87=98?;:@<;A=<A=<?;:<87954954954:65<87>:9B>;C?<C?<C?<D@=D@=A=:>:7>:7?;8A=:A=:@<9?;8@<;B>=A=<A=<A=:@<9?;8?;8?;8?;8?;8?;8?;8A=:C?<EA>FB?FB?A=:B>;A=:?;8?;8B>;C?<C?<?;8?;8?;8@<9A=:B>;C?<EA>C?<C?<D@=EA>C?<?;8<85;74=:5GFDHGEFECEDBGFDHGEEDBCB@BA?@?=?><BA?EDBFECHGEIHFGFDEDBBA?A@>A@>BA?A@>@?=EA@EA@EA@FBAGCBHDCHDCGCBIEBHE@GD?GD?GC@HDAGC@FB?EA>EA>EA>EA>C?>A=<A=<B>=B>=FBAFBAA=<@<;D@?EA@C?>D@?EA@EA@D@?EA@FBAFBAEA@FBAD@?C?>EA@D@?A=<@<;A=<C?>?;:>:9A=<C?>D@?FBAIEDGCBFBAD@?D@?EA@FBAFBAFBAB>=B>=C?>B>=A=<@<;A=<A=<C?>D@?FBAHDCHDCHDCHDCGCBEDBDCADCADCADCADCACB@BA?CB>@?;A@>A@>=;<><=:89/-.   ..,672//-  
	,*+/-0201534978=;<?=>CB@FECFECCB@FB?A=:?;8@<9@<9=96<85>:7?;8>:7?;8B>;C?<B>;B>;D@=EA@D@?D@?FBAGCBFBAC?>@<;@<;?;:?;:?;:@<;A=<B>=B>=B>=>:9;76:65954954:65<87?;8?;8@<9B>;D@=EA>B>;?;8>:7?;8?;8?;8=96=96=98>:9?;:?;:@<9?;8>:7=96=96>:7>:7>:7?;8A=:C?<D@=EA>FB?B>;C?<B>;?;8?;8A=:C?<B>;A=:?;8>:7?;8@<9A=:C?<FB?A=:A=:D@=EA>EA>B>;?;8>:7>:7EA@GCBC?>FBAIEDGCBHDCGCBFBAEA@C?>C?>EA@HDCJFEKGFIEDGCBD@?B>=B>=B>=B>=B>=EA@D@?D@?EA@FBAHDCIEDJFELHGJFCIEBIEBIEBIEBGC@FB?FB?D@=D@=D@=C?<C?<C?>EA@D@?EA@D@?C?>B>=C?>D@?D@?C?>C?>D@?EA@FBAEA@EA@EA@C?>D@?D@?EA@EA@C?>B>=A=<D@?B>=A=<@<;A=<C?>FBAHDCGCBD@?D@?D@?D@?FBAGCBEA@C?>B>=@<;?;:?;:@<;>:9;76>:9A=<D@?GCBGFDGFDGFDFECFECGFDHGEGFDGCBFBAGCBHDCEA@EA@C?>A=<>=;<;987521/   ''%442442 
	  ,*+.,--+,201875>=;BA?DCAEDBDCACB@CB@@?==<:=<:?;:?;:=98<87>:7?;8A=:B>;B>;B>;D@=FB?EA@EA@EA@EA@FBAFBAEA@EA@B>=A=<B>=B>=B>=C?>D@?D@?C?>?;:<87:65843732732843;74<85=96?;8B>;D@=B>;@<9=96=96<85;74:63:63<85=96=96?;8@<9?;8<85;74=96?;8?;8<85<85@<9D@=D@=EA>FB?EA>D@=B>;A=:A=:A=:B>;C?<C?>B>=@<;?;:?;:B>=EA@HDCC?>B>=B>=D@?EA@EA@C?>A=:A=:A=<C?>@<;D@?HDCHDCHDCGCBFBAEA@D@?D@?EA@HDCJFEKGFJFEHDCFBAD@?C?>C?>C?>B>=C?>C?>C?>D@?EA@GCBHDCIEDJFEIEDIEBIEBIEBIEBGC@EA>EA>D@=D@=D@=D@=B>;B>=C?>C?>C?>C?>C?>C?>C?>D@?EA@D@?D@?D@?D@?EA@EA@EA@EA@EA@D@?EA@FBAFBAD@?C?>B>=EA@C?>@<;@<;A=<D@?FBAHDCFBAC?>D@?EA@D@?EA@FBAD@?B>=B>=A=<?;:?;:?;:?;:=98>:9@<;C?>FBAEDBEDBEDBDCAEDBFECGFDFECGCBGCBHDCIEDGCBFBAC?>@<;<;9;:8875320"!	    &&$664442! 	
  +)*,*+)'(.-+542=<:A@>CB@DCACB@BA?A@>@?=?><?><@<;?;:>:9>:9A=:A=:B>;C?<C?<C?<D@=GC@HDCHDCGCBFBAFBAFBAEA@D@?EA@EA@FBAFBAFBAEA@EA@EA@C?>A=<?;:=98;76954843843<85<85;74<85>:7A=:B>;B>;>:7=96<85:63952952:63<85>:7?;8?;8?;8>:7>:7@<9A=:@<9=96<85?;8B>;C?<D@=EA>EA>D@=C?<B>;A=:B>;C?<C?<D@?C?>B>=@<;?;:A=<EA@GCBFBAC?>A=<A=<C?>EA@EA@D@?A=:<85?;8<85@<9FBAGCBHDCGCBFBAEA@D@?D@?EA@GCBJFEKGFJFEIEDHDCFBAEA@D@?D@?C?>C?>C?>C?>C?>D@?EA@GCBHDCGCBGCBGC@HDAIEBHDAFB?D@=D@=D@=D@=EA>D@=C?<B>=C?>B>=A=<B>=D@?D@?C?>D@?FBAD@?FBAEA@D@?D@?FBAGCBFBAFBAEA@EA@GCBGCBFBAEA@EA@GCBD@?A=<?;:A=<D@?FBAGCBEA@C?>EA@EA@D@?D@?EA@C?>C?>C?>B>=@<;?;:?;:@<;A=<?;:@<;A=<D@?CB@CB@BA?A@>BA?DCAEDBEDBGCBGCBIEDJFEIEDGCBC?>>:9;:8:97764431&%#	   
&&$886553%#$  *()-+,(&'*)'10.:97@?=BA?BA?BA?A@>?><@?=A@>A@>B>=@<;@<;A=<C?<C?<C?<D@=C?<C?<EA>HDAKGFKGFJFEIEDHDCGCBFBAEA@JFEJFEJFEIEDIEDHDCGCBFBAD@?C?>B>=A=<?;:<87:65954=96;74952952;74>:7A=:C?<A=:@<9>:7<85:63952:63<85?;8>:7>:7?;8@<9B>;C?<D@=C?<@<9?;8A=:C?<C?<D@=FB?D@=D@=B>;A=:A=:B>;C?<C?<EA@EA@D@?B>=@<;@<;C?>FBAEA@B>=?;:?;:A=<D@?EA@D@?A=::63=96;74>:7C?>D@?GCBGCBFBAEA@C?>B>=B>=D@?HDCJFEIEDIEDHDCGCBGCBFBAEA@D@?D@?D@?C?>C?>B>=C?>D@?EA@C?>D@?EA>FB?FB?FB?FB?EA>D@=C?<D@=EA>EA>D@=D@?EA@D@?A=<A=<D@?EA@C?>C?>D@?EA@GCBGCBFBAGCBJFEJFEGCBFBAEA@FBAGCBGCBFBAEA@GCBHDCEA@B>=@<;A=<D@?FBAGCBFBAEA@FBAFBAC?>C?>D@?C?>D@?EA@D@?B>=@<;@<;C?>EA@B>=A=<@<;B>=BA?CB@A@>?><@?=A@>CB@DCAGCBHDCIEDIEDJFEHDCC?>>:9:97:97875653('%  ((&::8442)'(*()1/0,*+*)'/.,764=<:A@>A@>@?=?><>=;?><A@>CB@D@?B>=B>=B>=B>;C?<EA>EA>C?<B>;D@=GC@JFEJFEJFEJFEJFEHDCGCBFBAJFEJFEJFEJFEIEDHDCGCBGCBFBAEA@D@?C?>B>=@<;>:9<87<85:63952:63;74<85?;8B>;C?<C?<A=:?;8<85;74;74<85?;8>:7>:7?;8A=:C?<EA>FB?EA>C?<B>;C?<D@=C?<C?<D@=B>;B>;A=:@<9@<9@<9A=:B>;D@?EA@FBAD@?A=<@<;A=<C?>C?>A=<?;:?;:A=<B>=B>=B>=B>;952=96:63;74?;8B>;FB?GC@D@=C?<A=:?;8?;:A=<EA@HDCIEDHDCGCBGCBHDCHDCGCBFBAEA@EA@D@?B>=@<;@<;@<;A=<B>=B>=C?<D@=EA>FB?GC@GC@EA>D@=D@=D@=D@=D@=D@?EA@EA@A=<@<;C?>FBAEA@D@?EA@FBAHDCHDCHDCKGFNJILHGGCBD@?D@?FBAHDCGCBD@?EA@GCBHDCEA@C?>A=<B>=EA@HDCIEDJFCIEBHDAGC@C?<C?<D@=D@=FB?FB?FB?D@=C?<C?<EA>HDAFBAC?>A=<A=<BA?DCABA?@?=@?=A@>BA?DCAHDCIEDIEDHDCJFEGCBC?>?;:<;9;:8986764)(&  	%%#886553,*+  '%&423201,+)/.,431:97?><A@>A@>@?=>=;>=;@?=CB@FBAD@?B>=A=<@<9B>;D@=D@=@<9=96?;8B>;D@?EA@GCBHDCHDCGCBFBAEA@HDCGCBGCBGCBGCBFBAFBAFBAFBAD@?B>=B>=D@?EA@C?>A=<=96:63952;74;74;74=96@<9C?<C?<C?<A=:?;8=96<85<85?;8?;8?;8?;8@<9B>;D@=FB?EA>D@=D@=D@=C?<B>;A=:A=:@<9@<9?;8>:7>:7?;8?;8@<9B>;D@=FB?EA>B>;@<9@<9A=:A=:B>;B>;A=:A=:@<9A=:A=:A=:730;74841841<85>:7C?<C?<B>;A=:@<9?;8>:9@<;C?>FBAHDCGCBGCBGCBGCBHDCHDCHDCGCBFBAD@?B>=?;:>:9>:9>:9C?>C?>D@=D@=D@=EA>GC@HDAGC@EA>D@=D@=C?<B>;B>=C?>D@?@<;?;:B>=EA@GCBFBAGCBFBAHDCIEDKGFMIHNJIKGFFBAA=<B>=D@?GCBFBAC?>C?>EA@FBAEA@D@?C?>D@?FBAIEDKGFLHEJFCIEBGC@D@=D@=FB?FB?HDAGC@FB?FB?EA>EA>FB?HDAHDCFBAC?>C?>CB@DCACB@BA?BA?BA?CB@EDBIEDJFEIEDHDCHDCFBAD@?B>=?><=<::97875,+)   00.5531/0#!" 
	" !64586710.10.320986>=;A@>A@>A@>>=;=<:?><BA?FBAEA@B>=@<;>:7@<9C?<A=:=96952:63=96?;:@<;B>=C?>D@?C?>C?>B>=C?>D@?D@?D@?D@?D@?D@?D@?B>=A=<?;:@<;D@?GCBGCBEA@?;8:63841952:63:63<85@<9B>;C?<D@=C?<A=:?;8>:7>:7@<9A=:A=:A=:@<9A=:D@=FB?EA>FB?FB?EA>D@=A=:@<9?;8?;8>:7>:7>:7>:7>:7?;8?;8@<9B>;D@=D@=A=:?;8>:7>:7@<9A=:A=:@<9>:7=96>:7?;8?;8841;74730730;74=96?;8>:7?;8@<9A=:A=:A=:B>;D@=FB?GCBHDCHDCGCBFBAGCBHDCJFEIEDIEDGCBD@?B>=@<;@<;@<;EA@EA@EA>D@=C?<D@=EA>GC@GC@FB?EA>EA>D@=B>;A=<B>=B>=@<;>:9?;:B>=EA@FBAGCBGCBHDCIEDKGFLHGJFEGCBC?>?;:>:9A=<EA@FBAC?>A=<B>=D@?EA@EA@D@?C?>D@?GCBIEDJFCHDAHDAGC@EA>EA>GC@FB?HDAFB?EA>FB?FB?FB?FB?FB?GCBGCBFBAFBADCADCADCADCACB@CB@DCAFECJFEJFEHDCFBAEA@EA@EA@EA@BA??><<;99860/-    &&$331645,*+534:89764542653:97=<:?><?><@?==<:<;9>=;A@>FBAD@?A=<>:9=96>:7?;8?;8<85952952<85?;:?;:@<;@<;@<;?;:@<;@<;A=<A=<C?>D@?D@?C?>B>=A=<?;:?;:?;:?;:A=<D@?FBAEA@>:784151.841952841:63?;8A=:B>;C?<C?<B>;@<9@<9@<9B>;B>;C?<C?<B>;B>;D@=FB?GC@GC@GC@EA>C?<A=:?;8>:7?;8?;8?;8?;8?;8?;8@<9@<9@<9A=:B>;A=:?;8=96<85<85>:7?;8?;8>:7<85;74;74<85=96<85>:7952952=96>:7>:7:63=96?;8B>;C?<C?<D@=EA>FB?GCBIEDIEDGCBEA@EA@HDCLHGLHGLHGJFEHDCEA@C?>C?>D@?FBAGCBFB?EA>C?<B>;C?<EA>GC@FB?FB?FB?EA>C?<B>=B>=@<;@<;>:9=98>:9B>=D@?EA@GCBHDCIEDKGFJFEFBAC?>A=<>:9<87>:9D@?FBAC?>@<;?;:D@?EA@EA@D@?B>=A=<C?>EA@GC@EA>EA>EA>D@=EA>GC@EA>HDAEA>D@=FB?GC@FB?EA>D@=EA@GCBHDCHDCEDBCB@DCADCADCADCADCAFECJFEIEDGCBEA@C?>D@?FBAGCBDCAA@>=<::9721/&%#
    

00.8671/0  1/0867;:8:97986;:8=<:=<:=<:>=;<;9<;9>=;A@>EA@C?>@<;>:9<85<85=96=96<85;74<85>:7B>=A=<A=<?;:>:9>:9?;:?;:?;:A=<C?>D@?D@?C?>@<;?;:>:9?;:?;:>:9?;:A=<C?>B>==9662/40-730952841952=96?;8@<9A=:A=:@<9?;8?;8@<9C?<D@=D@=D@=C?<C?<D@=FB?FB?GC@FB?D@=A=:?;8>:7>:7@<9@<9@<9@<9@<9@<9A=:A=:@<9A=:@<9?;8>:7<85<85;74=96>:7>:7>:7=96;74:63:63<85=96?;8;74<85>:7>:7@<9A=:@<9C?<D@=D@=EA>GC@GC@EA>D@?EA@GCBFBAEA@EA@FBAHDCIEDJFELHGKGFIEDFBAEA@EA@EA@GCBHDAFB?EA>GC@GC@FB?JFCGC@EA>EA>EA>D@=C?>C?>@<9?;8>:7@<9@<9?;8A=:D@=D@=FB?JFCLHEJFCGC@B>;?;8?;8>:7B>;GC@FB?C?<A=:@<9B>;C?<FB?GC@D@=?;8>:7A=:A=:A=:B>;D@=EA>D@=D@=EA>D@=D@=C?<B>;EA>IEBHDAEA>D@?FBAFBAEA@DCAFECEDBDCA@?=?><BA?FECIEDJFEGCBC?>C?>EA@FBAFBACB@CB@@?=<;9431'&$  --+978201  
" !534;:8?><;:8;:8=<:>=;@?=>=;<;9986875=<:B>=@<;=98<87<85=96>:7>:7=96<85=96?;8B>;C?<C?<C?<@<9=96>:7@<9?;8?;8@<9A=:B>;A=:@<9@<9@<;?;:?;:?;:?;:>:9>:9>:9;74:63;74<85;74841841:63;74>:7A=:A=:@<9?;8@<9A=:EA>D@=B>;A=:B>;C?<D@=EA>FB?D@=C?<A=:?;8=96>:7@<9@<9@<9@<9@<9B>;C?<C?<@<9@<9@<9?;8=96<85<85;74:63;74=96>:7=96;74;74<85>:7>:7B>;D@=?;8>:7@<9A=:D@=D@=D@=D@=D@=D@=D@=EA>EA>D@=C?>D@?EA@EA@D@?D@?EA@EA@HDCJFELHGLHGKGFGCBD@?B>=D@?FBAGC@GC@HDAJFCJFCHDAIEBGC@FB?EA>EA>D@=C?>D@?D@=A=:@<9@<9@<9?;8?;8@<9B>;EA>HDAJFCIEBGC@D@=A=:>:7<85?;8C?<B>;A=:A=:A=:@<9C?<FB?GC@C?<>:7<85>:7=96=96>:7?;8@<9@<9@<9A=:@<9A=:A=:A=:C?<FB?FB?D@=C?>EA@GCBFBADCACB@BA?@?=;:8;:8@?=FECKGFKGFHDCC?>C?>D@?EA@EA@CB@BA??><<;9653)(&  ''%645201  /-.<;9A@>>=;>=;@?=@?=BA?@?==<:875653:97>:9=98;76;76;74<85>:7@<9?;8>:7>:7@<9C?<C?<D@=C?<A=:>:7=96>:7>:7?;8@<9@<9@<9?;8?;8@<9A=<?;:=98=98<87;76;76<87>:7>:7?;8@<9>:7:63841730:63=96@<9A=:@<9@<9@<9A=:A=:A=:A=:A=:@<9A=:B>;B>;B>;B>;A=:A=:@<9>:7?;8@<9?;8@<9A=:A=:B>;C?<B>;A=:A=:A=:?;8>:7>:7>:7<85:63;74=96?;8>:7=96<85>:7@<9C?<D@=GC@B>;?;8A=:C?<GC@HDAHDAFB?D@=D@=D@?C?>D@?EA@C?>B>=B>=C?>C?>C?>C?>C?>D@?FBAIEDKGFLHGIEDFBAB>=EA@FBAFB?GC@JFCLHEKGDHDAGC@FB?FB?FB?EA>D@=D@?EA@GC@C?<A=:A=:A=:>:7=96=96B>;C?<FB?HDAHDAGC@EA>D@=>:7=96?;8@<9@<9B>;D@=D@=@<9C?<FB?HDAD@=?;8<85=96=96<85<85=96>:7>:7?;8@<9?;8@<9A=:@<9A=:D@=D@=C?<A=<C?>EA@D@?A@>?><>=;=<:986:97?><FECLHGLHGJFEEA@B>=A=<B>=D@?BA?A@>>=;=<:875,+)    !!2010./   %#$:97A@>@?=@?=BA?BA?DCABA?=<:986653764;76954843843:63<85@<9B>;A=:?;8@<9B>;D@=D@=D@=D@=B>;?;8<85<85?;8@<9A=:@<9?;8>:7@<9A=:A=<>:9<87<87;76;76;76<87A=:B>;C?<B>;@<9=96:63841952<85?;8A=:@<9?;8?;8@<9@<9A=:B>;A=:@<9?;8@<9A=:@<9@<9A=:B>;A=:?;8?;8@<9?;8@<9A=:A=:A=:B>;B>;B>;C?<C?<B>;A=:A=:A=:>:7;74<85>:7@<9@<9>:7>:7?;8A=:C?<B>;GC@C?<@<9B>;D@=JFCKGDJFCFB?C?<C?<C?>B>=D@?FBAD@?C?>B>=B>=A=<B>=B>=B>=@<;B>=D@?GCBJFEKGFHDCEA@HDCHDCGC@FB?HDAKGDIEBFB?D@=EA>FB?FB?EA>EA>EA@EA@FB?C?<B>;B>;A=:?;8=96=96A=:C?<FB?GC@HDAGC@FB?D@=A=:@<9A=:A=:@<9C?<FB?FB?B>;C?<EA>GC@EA>B>;@<9@<9?;8>:7>:7>:7?;8?;8A=:B>;B>;C?<C?<A=:@<9A=:B>;C?<C?>C?>B>=A=<>=;=<:>=;?><=<:<;9?><EDBIEDKGFJFEFBAA=<?;:@<;C?>BA?@?=>=;=<::9710. -+,-+,   431>=;?><?><A@>CB@EDBCB@>=;:97875986<87:65843732;74=96A=:C?<B>;@<9A=:D@=FB?EA>D@=D@=C?<?;8=96;74?;8@<9A=:A=:?;8?;8@<9A=:@<;>:9<87=98=98=98>:9>:9A=:C?<C?<B>;A=:A=:?;8<85:63<85?;8A=:A=:@<9?;8?;8@<9A=:B>;A=:?;8>:7>:7?;8?;8@<9A=:A=:@<9>:7>:7>:7>:7@<9A=:A=:@<9@<9B>;C?<EA>FB?FB?EA>EA>C?<?;8;74=96?;8A=:A=:?;8>:7?;8A=:A=:=96EA>EA>C?<C?>D@?IEDJFEJFEFBAD@?C?>C?>B>=C?>FBAEA@EA@D@?B>=A=<A=<C?>D@?A=<A=<A=<C?>FBAIEDHDCFBAIEDIEDHDAFB?FB?HDAGC@EA>A=:C?<EA>FB?FB?EA>EA@EA@D@=C?<C?<B>;A=:?;8>:7>:7@<9B>;EA>HDAIEBHDAGC@FB?D@=C?<D@=D@=B>;D@=FB?EA>D@=C?<C?<D@=EA>D@=D@=C?<A=<@<;?;:@<;@<;A=<B>=D@?D@?D@?C?>@<;>:9?;:B>=D@?FBAC?>A=<@<;=<:=<:>=;@?=@?==<:>=;BA?FBAGCBGCBEA@A=<?;:?;:B>=BA?@?=>=;=<:<;9653! 	  ,*+,*+     0/-<;9?><?><@?=BA?DCABA?@?==<:<;9>=;@<;=98:65954<85>:7A=:B>;A=:A=:D@=GC@HDAFB?EA>D@=C?<@<9>:7<85>:7?;8@<9A=:A=:A=:A=:@<9?;:>:9=98>:9?;:?;:>:9>:9@<9B>;C?<C?<C?<D@=C?<@<9<85<85?;8B>;C?<B>;@<9@<9@<9@<9@<9>:7<85;74;74<85=96>:7>:7>:7=96<85<85=96>:7?;8@<9@<9?;8?;8A=:C?<EA@FBAGCBFBAD@?A=<=98954;76>:9A=<A=<@<;?;:@<;A=<C?<952A=:C?<D@=C?>A=<D@?FBAGCBFBAEA@D@?B>=B>=C?>EA@FBAFBAEA@D@?B>=B>=D@?EA@A=<A=<?;:?;:C?>GCBIEDGCBHDCIEDHDAEA>EA>FB?FB?EA>?;8A=:C?<D@=EA>FB?EA@EA@D@=D@=C?<B>;A=:@<9?;8?;8?;8A=:D@=GC@IEBIEBHDAHDAGC@FB?HDAIEBFB?EA>FB?EA>EA>D@=B>;B>;D@=EA>EA>EA>C?>B>=B>=B>=C?>C?>D@?EA@D@?D@?B>=?;:=98>:9B>=EA@EA@B>=@<;@<;=<:;:8;:8>=;@?=<;9=<:A@>D@?EA@EA@C?>B>=@<;@<;C?>CB@BA??><<;9<;9986&%#-+,+)*      -,*<;9@?=?><?><A@>CB@A@>A@>@?=@?=A@>C?>@<;>:9<87=96?;8A=:B>;@<9A=:EA>JFCHDAFB?EA>EA>D@=B>;?;8>:7@<9@<9A=:B>;D@=EA>D@=B>;?;:>:9>:9?;:@<;?;:=98<87>:7@<9C?<EA>GC@FB?C?<@<9<85;74=96A=:B>;A=:@<9A=:@<9@<9?;8>:7;74952952:63841:63;74:63:63:63;74;74=96>:7?;8?;8=96=96@<9B>;B>=D@?D@?B>=@<;=98:65732843;76?;:A=<A=<@<;A=<B>=D@=510<87?;:C?>D@??;:@<;B>=C?>EA@FBAD@?C?>B>=C?>D@?EA@EA@EA@EA@EA@EA@EA@EA@B>=B>=@<;?;:B>=FBAHDCFBAFBAGCBGC@EA>D@=EA>D@=B>;?;8@<9A=:B>;C?<FB?FBAEA@D@=D@=C?<B>;A=:A=:@<9@<9@<9A=:C?<EA>GC@HDAIEBIEBHDAGC@JFCLHEIEBFB?FB?EA>GC@FB?EA>D@=EA>EA>EA>D@=D@?C?>D@?EA@EA@EA@EA@FBAEA@EA@B>=?;:=98>:9A=<D@?C?>B>=B>=B>==<::97;:8?><CB@>=;>=;A@>D@?D@?D@?C?>C?>B>=B>=C?>DCADCA@?=;:8986986('%



,*++)*	    *)':97?><>=;>=;@?=DCAA@>BA?A@>A@>A@>D@?B>=A=<@<;?;8A=:C?<B>;?;8?;8C?<HDAGC@FB?FB?FB?FB?C?<A=:@<9A=:@<9A=:C?<FB?GC@FB?EA>A=<?;:?;:@<;A=<?;:=98<87>:7>:7A=:EA>GC@EA>B>;@<9=96<85<85?;8A=:@<9?;8?;8@<9A=:B>;?;8;7484184195262/841952952952:63;74;74<85<85=96=96<85<85>:7A=:@<;@<;?;:=98<87;76954621732;76?;:A=<A=<@<;A=<B>=B>;3/.954=98C?>EA@@<;@<;A=<?;:C?>FBAEA@C?>D@?EA@EA@C?>C?>D@?EA@GCBGCBEA@D@?EA@EA@C?>@<;A=<D@?D@?B>=D@?FBAEA>D@=D@=D@=B>;?;8?;8?;8?;8@<9B>;EA>FBAFBAD@=C?<B>;A=:B>;B>;A=:@<9B>;B>;C?<D@=FB?GC@HDAHDAGC@EA>HDALHEIEBEA>D@=D@=HDAIEBIEBHDAFB?EA>D@=C?<D@?C?>D@?FBAFBAEA@EA@EA@HDCGCBD@?A=<?;:>:9A=<C?>D@?C?>D@?EA@?><;:8?><EDBGFDBA?@?=BA?EA@EA@EA@EA@C?>D@?D@?D@?DCAEDBA@>;:8542653'&$+)*+)*
     
&%#764=<:<;9=<:@?=DCABA?BA?A@>@?=@?=B>=B>=B>=C?>B>;D@=D@=C?<?;8=96A=:EA>FB?FB?FB?HDAGC@D@=B>;A=:@<9?;8?;8A=:D@=FB?FB?FB?B>=@<;?;:A=<B>=A=<?;:>:9>:7=96?;8C?<EA>D@=A=:A=:A=:>:7>:7@<9A=:?;8>:7>:7?;8A=:C?<@<9;7473062/841730952;74;74:63;74<85;74<85;74<85<85<85<85>:7A=:@<;>:9;76954954:65954843843<87@<;B>=A=<?;:?;:@<9B>;:63=96@<9B>;EA>EA>A=:@<9?;:A=<A=<B>=C?>EA@FBAEA@EA@EA@FBAFBAGCBGCBGCBHDCHDCHDCGCBD@?A=<A=<B>=B>=EA>EA>D@=C?<D@=FB?D@=@<9?;8?;8@<9>:7>:7D@=GC@D@=C?<C?<C?<C?<C?<C?<B>;B>;D@=D@=D@=EA>FB?GC@GC@EA>D@=FB?HDAIEBGC@D@=B>;A=:D@?HDCJFEKGFKGFJFEGCBEA@D@?C?>C?>EA@GCBGCBGCBGCBFBAFBAJFEHDCB>=B>=EA@D@?D@?D@?EA@GCBD@?B>=EA@LHGMIHIEDEA@D@?EA@FBAEA@D@?BA?CB@CB@BA?BA?BA?@?=>=;875320#" 
#" +'(0,-'%&  0/->=;>=;>=;?><B>=D@?EA>EA>D@=C?<D@=EA>D@=B>;B>;D@=B>;>:7<85?;8C?<EA>GC@FB?EA>FB?EA>C?<@<9>:7=96=96=96>:7@<9B>;D@=EA>BA?A@>A@>CB@DCADCABA?@?=B>=?;:>:7@<9B>;A=:A=:A=:C?<C?<C?<C?<A=:?;8>:7=96>:9?;:@<;@<;=98:65954843952;74=96=96>96>96>96?:7=85=85<74<74;74=96?;8A=:?;8<85952730730730841952;74>:7A=:B>;A=:@<9@<9A=:B=:@<9C?<D@=D@=FB?EA>B>;B>;?;:@<;A=<B>=C?>D@?D@?C?>D@?EA@FBAFBAGCBHDCIEDJFEKGFKGFIEDFBAC?>C?>C?>C?>EA>EA>D@=D@=EA>HDAFB?C?<?;8?;8?;8=96<85@<9D@=C?<B>;@<9?;8@<9B>;C?<D@=C?<EA>EA>D@=EA>EA>FB?FB?EA>D@=FB?HDAJFCJFCGC@D@=C?<GCBIEDKGFLHGLHGLHGKGFIEDFBAD@?B>=C?>D@?EA@EA@FBAEA@FBAKGFKGFFBAEA@HDCHDCFBAD@?D@?FBAD@?B>=EA@KGFMIHJFEGCBFBAEA@EA@D@?C?>A@>CB@CB@CB@CB@CB@A@>?><98621/ 
	 *)'0,-2./)'(  +*(:97=<:?><A@>D@?EA@EA>EA>D@=B>;B>;C?<C?<B>;A=:B>;@<9<85:63=96A=:C?<B>;A=:B>;C?<D@=B>;?;8=96<85<85;74;74<85>:7B>;D@=CB@BA?A@>CB@EDBEDBDCABA?FBAD@?A=:@<9@<9A=:A=:B>;B>;C?<C?<D@=D@=C?<@<9?;8?;:?;:@<;@<;?;:>:9=98<87=96>:7?;8?;8?:7@;8A<9B=:>96>96=85=85=96?;8@<9B>;@<9=96:63730730730952:63<85>:7@<9@<9>:7=96=96>:7@;7D@=GC@FB?D@=D@=D@=C?<C?<A=<C?>D@?D@?D@?EA@D@?C?>C?>D@?FBAFBAGCBHDCJFEKGFJFEKGFKGFGCBD@?C?>D@?D@?D@=D@=C?<C?<D@=GC@FB?C?<@<9=96=96=96;74<85@<9@<9@<9>:7=96>:7B>;D@=EA>EA>EA>D@=C?<D@=D@=EA>FB?GC@D@=EA>HDAKGDKGDIEBFB?EA>GCBHDCIEDJFEKGFLHGLHGKGFKGFGCBD@?B>=B>=C?>EA@GCBEA@FBAJFEMIHIEDGCBIEDKGFHDCEA@D@?D@?D@?C?>EA@HDCLHGJFEIEDGCBFBAEA@C?>A=<?><A@>BA?CB@DCADCABA?@?=;:821/
#" 21/423201+)*  #" 431;:8?><BA?DCADCAFB?FB?EA>B>;A=:A=:B>;B>;A=:A=:?;8;74952<85?;8A=:>:7<85=96?;8@<9@<9>:7=96<85;74:63841841:63>:7A=:A@>@?=@?=A@>CB@EDBEDBDCAIEDGCBD@?@<;>:7?;8@<9A=:A=:B>;D@=FB?GC@FB?B>;?;8?;:?;:@<;A=<C?>C?>B>=@<;?;8@<9@<9?;8@;8A<9B=:C>;@;8?:7=85=85>:7?;8A=:B>;A=:?;8<85952841952;74=96@<9A=:B>;A=:>:7=96=96=96?:6D@=GC@EA>C?<C?<C?<C?<EA>EA@FBAFBAEA@EA@EA@D@?C?>B>=D@?FBAFBAFBAGCBIEDKGFIEDKGFLHGIEDFBAD@?D@?C?>B>;B>;B>;A=:B>;D@=D@=B>;@<9<85=96>:7=96<85=96=96?;8?;8@<9A=:D@=GC@GC@FB?B>;A=:A=:A=:A=:B>;B>;D@=C?<D@=FB?IEBKGDIEBFB?EA>EA@FBAGCBHDCHDCIEDKGFLHGMIHJFEFBAB>=A=<B>=D@?FBAEA@D@?GCBJFEIEDFBAGCBJFEHDCFBAEA@EA@EA@D@?D@?FBAHDCHDCHDCHDCHDCEA@B>=?;:<;9>=;A@>CB@DCADCACB@BA?<;9320	"!542978534/-.  
.-+875=<:A@>CB@DCAFB?FB?EA>A=:?;8?;8@<9A=:A=:B>;@<9<85:63=96?;8@<9=96;74:63;74=96>:7?;8?;8>:7>:7=96;74841841;74>:7=<:>=;@?=A@>BA?CB@DCADCAGCBHDCFBAA=<>:7?;8@<9@<9@<9A=:D@=FB?GC@EA>A=:>:7?;:>:9?;:A=<D@?FBAD@?C?>A=:A=:A=:A=:A<9A<9B=:B=:A<9?:7=85=85=96>:7?;8@<9B>;B>;@<9=96;74=96?;8@<9C?<C?<D@=B>;@<9?;8>:7>:7?:6D@=FB?EA>C?<D@=D@=D@=FB?FBAFBAEA@C?>C?>C?>C?>B>=C?>EA@GCBEA@EA@FBAGCBHDCIEDLHGMIHKGFGCBD@?B>=A=<A=:A=:@<9@<9A=:C?<D@=C?<@<9=96>:7B>;B>;@<9>:7<85>:7@<9C?<D@=EA>FB?FB?EA>?;8=96=96>:7?;8>:7>:7?;8@<9@<9B>;EA>GC@GC@FB?EA>B>=D@?EA@FBAEA@FBAIEDKGFKGFIEDFBAC?>A=<A=<B>=C?>D@?C?>C?>FBAGCBEA@EA@HDCGCBFBAFBAFBAFBAEA@D@?EA@D@?D@?EA@GCBIEDGCBB>=>:9:97<;9?><BA?DCADCADCADCA<;9431"!	542:89756312#!"
	  	,+)542986=<:A@>BA?D@=EA>C?<@<9=96=96>:7?;8A=:B>;A=:>:7>:7?;8@<9@<9?;8=96;74=96>:7?;8?;8?;8A=:B>;C?<A=:<85:63:63;74:97<;9?><@?=@?=@?=@?=A@>C?>FBAFBAC?>A=:A=:@<9?;8?;8A=:C?<EA>D@=A=:>:7<85>:9=98>:9A=<D@?FBAD@?B>=B>;B>;B>;B>;B>;A=:A<9A<9A<9>96<85<85<85<85<85=96B>;C?<C?<A=:@<9A=:B>;B>;A=:B>;C?<B>;A=:?;8>:7>:7A<9C?<EA>D@=B>;C?<C?<B>;C?<FBAFBAD@?B>=A=<B>=B>=A=<D@?FBAGCBEA@D@?EA@FBAEA@HDCJFEJFEHDCEA@B>=?;:=98=96=96=96>:7@<9B>;C?<D@=A=:>:7@<9D@=EA>D@=A=:>:7<85?;8A=:A=:A=:B>;B>;@<9<85;74;74>:7@<9A=:A=:C?<?;8>:7>:7@<9B>;C?<EA>FB?A=<B>=C?>D@?C?>C?>D@?GCBIEDIEDHDCEA@C?>B>=B>=B>=C?>B>=A=<B>=EA@D@?D@?GCBEA@FBAHDCGCBFBAFBAEA@EA@C?>B>=D@?GCBIEDHDCC?>?;:;:8<;9?><BA?CB@CB@CB@CB@<;9653&%#10.645756645(&'  ,+)653875;:8?><@?=EA>EA>D@=A=:>:7>:7>:7?;8@<9B>;B>;@<9@<9A=:A=:@<9@<9?;8@<9B>;C?<B>;?;8>:7A=:D@=GC@FB?B>;>:7=96=96986;:8<;9=<:=<:<;9;:8;:8=98@<;C?>B>=A=:@<9?;8?;8?;8@<9A=:A=:@<9=96;74:63;76<87>:9A=<C?>D@?B>=A=<@<9@<9@<9@<9@<9?;8?:7>96@;8>96;74;74;74952952:63?;8B>;C?<B>;B>;D@=D@=C?<@<9A=:B>;B>;A=:@<9?;8?;8B=:C?<D@=A=:?;8A=:A=:@<9A=:EA@EA@D@?B>=A=<B>=A=<@<;D@?FBAGCBFBAEA@FBAEA@D@?EA@FBAEA@D@?B>=A=<>:9<87<85<85<85=96?;8A=:C?<EA>C?<A=:B>;D@=EA>FB?EA>A=:=96?;8?;8>:7>:7@<9A=:?;8<85:63:63>:7C?<D@=FB?HDAB>;@<9>:7=96>:7@<9C?<FB?B>=A=<B>=C?>C?>B>=B>=B>=GCBIEDIEDFBAD@?D@?C?>B>=B>=EA@C?>A=<C?>C?>B>=FBAD@?FBAGCBGCBGCBGCBGCBFBAD@?D@?D@?FBAHDCHDCEA@C?>>=;?><A@>CB@BA?A@>@?=A@><;9764+*(  ('%423867978,*+  /.,875875:97?><A@>FB?FB?EA>C?<A=:A=:A=:@<9@<9B>;B>;A=:A=:C?<C?<B>;A=:A=:C?<FB?GC@D@=A=:>:7?;8B>;FB?GC@EA>C?<B>;C?<=<:<;9;:8;:8<:;;9:978867:65;76>:9@<;?;8>:7>:7?;8>:7=96=96<85;74:63841730843;76>:9A=<B>=B>=A=<@<;=96<85<85<85=96=96<85;74=96<85<85<85:63730730952<85?;8@<9@<9B>;D@=D@=B>;A=:B>;B>;B>;B>;B>;A=:@<9@<9B>;C?<@<9>:7@<9A=:@<9A=:C?>D@?D@?B>=A=<A=<@<;?;:D@?FBAGCBFBAFBAGCBFBAD@?C?>C?>B>=A=<A=<A=<@<;?;:>:7>:7>:7>:7?;8A=:C?<EA>EA>C?<C?<D@=D@=FB?GC@D@=B>;B>;@<9>:7>:7B>;D@=C?<>:7;74952=96A=:C?<EA>FB?FB?C?<?;8=96;74=96A=:EA>EA@C?>C?>EA@FBAD@?B>=A=<EA@GCBHDCFBAD@?C?>C?>B>=C?>GCBFBAB>=B>=A=<A=<D@?EA@FBAGCBFBAGCBHDCHDCGCBFBAEA@EA@FBAHDCHDCGCBFBAA@>A@>BA?CB@BA??><>=;?><;:8875.-+
	  
645;9:<:;0./"" 21/;:8:97;:8@?=BA?FB?FB?FB?D@=C?<B>;A=:@<9A=:B>;B>;A=:B>;D@=EA>C?<B>;B>;D@=GC@HDAFB?B>;@<9<85@<9D@=FB?FB?FB?FB?HDACB@@?==<:=<:?=>><=;9:867:65:65;76>:9>:7=96>:7@<9=96;7495273073073073062/732:65?;:B>=B>=A=<@<;?;:<85;74:63:63;74<85<85<85<85;74<85<85:63730730952:63<85>:7>:7A=:D@=D@=A=:C?<C?<B>;B>;B>;B>;A=:A=:?;8?;8A=:>:7:63<85@<9B>;D@=FBAEA@C?>B>=@<;?;:@<;B>=D@?D@?EA@D@?C?>C?>EA@FBAD@?@<;>:9A=<B>=A=<A=<D@?D@=B>;C?<C?<C?<FB?GC@D@=EA>C?<B>;B>;D@=FB?EA>C?<C?>C?>B>=C?>D@?FBAGCBHDCFBAB>=?;:=98>:9A=<D@?GCBEA>FB?FB?C?<>:7<85=96@<9B>=D@?D@?FBAHDCFBAC?>C?>GCBFBAEA@EA@D@?C?>D@?EA@HDCIEDHDCGCBEA@D@?B>=B>=EA@FBAFBAD@?D@?FBAGCBFBAFBAEA@EA@GCBIEDIEDHDCGCBEDBEDBDCABA?A@>@?=?><=<:<;998621/$#!  .,-B@A?=>423%#$	



!!10.<;9@?=BA?BA??><A=:D@=GC@EA>C?<C?<D@=D@=A=:C?<C?<B>;A=:C?<EA>FB?C?>D@?FBAHDCKGFJFEFBAB>=?;:?;:B>=FBAHDCGCBGCBJFEEDBDCACB@CB@CABCABA?@@>?@<;A=<A=<?;:=96=96<85<85<85:63952952:63;74:63841954=98A=<C?>B>=@<;?;:@<;=98>:9?;:?;:?;:>:9?;:?;:=98=98=98=98<87:65843732:63;74<85>:7?;8@<9B>;D@=C?<A=:A=:A=:B>;B>;A=:?;8=96>:7@<9>:7;74>:7A=:C?<EA>EA@D@?C?>C?>A=<@<;A=<C?>EA@D@?D@?D@?D@?EA@EA@FBAD@?A=<@<;A=<B>=B>=C?>EA@GC@FB?FB?FB?EA>GC@IEBFB?FB?D@=B>;C?<EA>FB?FB?EA>FBAEA@EA@FBAGCBHDCJFEKGFIEDEA@B>=@<;@<;A=<C?>FBAFB?GC@HDAFB?A=:<85<85>:7B>=C?>C?>D@?GCBGCBEA@EA@FBAFBAFBAGCBFBAEA@EA@FBAHDCIEDJFEIEDGCBFBAFBAFBAIEDJFEHDCD@?B>=D@?FBAFBAC?>B>=C?>FBAIEDJFEJFEJFEDCAEDBDCABA?A@>A@>@?=>=;:97875542)(&    
	#!";9:@>?;9:.,-('%764BA?DCAA@>@?=?;8A=:C?<C?<C?<D@=C?<B>;A=:C?<D@=C?<A=:B>;D@=EA>FBAGCBIEDJFEJFEJFEGCBD@?A=<@<;B>=EA@GCBGCBHDCIEDFECEDBEDBFECFDEFDEDBCCABFBAFBAD@?A=<>:7=96>:7>:7=96<85<85=96>:7>:7<85:63<87?;:B>=C?>A=<@<;@<;A=<A=<B>=B>=C?>C?>B>=A=<@<;@<;@<;?;:>:9=98;76;76:65>:7>:7?;8@<9@<9?;8A=:B>;@<9@<9A=:B>;B>;B>;@<9?;8?;8B>;D@=C?<A=:B>;C?<B>;C?<D@?D@?D@?D@?C?>B>=C?>D@?FBAEA@C?>D@?FBAGCBFBAEA@C?>A=<@<;@<;A=<C?>D@?EA@GC@GC@HDAHDAFB?HDAJFCHDAGC@EA>B>;B>;D@=EA>EA>EA>FBAFBAFBAFBAGCBIEDJFEKGFLHGIEDEA@D@?C?>C?>D@?FBAGC@HDAJFCKGDFB??;8;74<85B>=D@?C?>D@?GCBGCBEA@EA@EA@FBAGCBHDCGCBGCBGCBGCBGCBIEDKGFKGFJFEIEDJFEKGFLHGMIHKGFFBAB>=C?>D@?EA@A=<A=<C?>FBAIEDJFEKGFKGFEDBFECEDBCB@BA?A@>@?=?><:97986764.-+  .,-=;<A?@867
-,*@?=DCA@?=@?=?;8@<9A=:B>;D@=D@=B>;?;8=96@<9B>;B>;@<9A=:C?<EA>HDCIEDIEDIEDIEDIEDHDCGCBC?>B>=B>=EA@GCBGCBHDCIEDEDBEDBFDEGEFGEFGEFGEFFDEIEFIEFGCBC?>@<9?;8?;8?;8?;8>:7>:7?;8@<9@<9>:7=96@<;B>=C?>C?>A=<A=<B>=D@?EA@EA@EA@FBAFBAFBABA?@?=@?=?><@<;>:9=98<87<87<87@<9A=:A=:B>;A=:@<9@<9A=:>:7@<9C?<D@=C?<A=:@<9@<9A=:FB?IEBIEBGC@GC@EA>B>;A=:FBAEA@EA@EA@D@?B>=C?>EA@GCBEA@D@?D@?FBAGCBGCBEA@B>=A=<?;:?;:B>=EA@FBAD@?EA>FB?HDAHDAFB?GC@JFCJFCGC@D@=A=:A=:B>;C?<D@=D@=D@?EA@EA@FBAFBAGCBIEDJFELHGJFEHDCGCBFBAEA@FBAGCBFB?GC@JFCMIFJFCC?<<85:63B>=EA@EA@D@?EA@D@?B>=B>=EA@EA@FBAGCBGCBGCBHDCHDCHDCIEDKGFLHGLHGKGFJFEKGFKGFMIHLHGHDCEA@D@?C?>B>=@<;@<;C?>GCBIEDIEDIEDKGFGFDGFDFECDCABA?@?=?><=<:;:8986764/.,   	
" !534@>?=;<&$%
 	&%#;:8A@>?><A@>B>;A=:A=:B>;C?<B>;?;8;74952;74=96?;8?;8A=:C?<EA>FBAFBAFBAEA@EA@GCBGCBFBAD@?C?>D@?FBAGCBFBAGCBHDCA@>BA?CABDBCECDECDECDECDGCDHDEHDCEA@C?<A=:@<9?;8@<9?;8>:7>:7>:7?;8?;8?;8B>=B>=B>=B>=A=<B>=C?>EA@EA@EA@EA@EA@FBAEA@BA?BA?A@>A@>A=<?;:>:9>:9>:9>:9?;8@<9B>;C?<B>;A=:@<9A=:?;8A=:C?<D@=C?<B>;A=:A=:A=:FB?JFCJFCIEBHDAFB?D@=D@=IEDGCBFBAEA@C?>B>=B>=D@?GCBFBAEA@EA@FBAFBAFBAFBAC?>B>=@<;A=<EA@HDCGCBD@?D@=EA>HDAGC@EA>GC@JFCJFCFB?C?<A=:@<9A=:A=:B>;D@=EA@FBAFBAFBAFBAGCBIEDJFEKGFJFEIEDIEDHDCFBAFBAGCBEA>EA>HDALHELHEGC@@<9<85A=<EA@FBAD@?C?>B>=@<;@<;EA@EA@FBAFBAFBAGCBIEDIEDIEDHDCIEDKGFKGFIEDHDCGCBIEDKGFKGFIEDFBAEA@C?>A=<=98>:9A=<GCBIEDIEDIEDKGFHGEHGEGFDDCABA?@?=>=;<;9:97764542/.,	   -+,<:;><=,*+  
	&%#764?><?><A@>D@=C?<B>;A=:@<9>:7:63841730730952;74>:7A=:C?<D@=D@?C?>A=<@<;A=<B>=A=<?;:A=<C?>EA@FBAFBAEA@EA@FBA?=>@>?A?@A?@B@AB@ACABCABEABGCDGCBEA@C?>B>=@<9?;8@<9?;8>:7=96>:7?;8@<9@<9A=<A=<A=<A=<A=<A=<C?>D@?D@?EA@D@?D@?A@>A@>A@>BA?BA?CB@BA?@?=A=<A=<@<;>:9<85=96@<9A=:A=:?;8>:7?;8@<9A=:B>;C?<D@=D@=D@=D@=D@=GC@IEBHDAEA>EA>D@=D@=GC@JFEIEDGCBEA@C?>A=<B>=C?>EA@EA@EA@D@?D@?EA@EA@EA@C?>A=<@<;C?>GCBHDCFBAC?>D@=D@=GC@FB?D@=EA>HDAHDAFB?D@=B>;B>;A=:A=:B>;C?<EA@GCBGCBGCBFBAFBAGCBIEDKGFJFEJFEJFEHDCFBAEA@EA@GC@GC@HDAJFCMIFLHEGC@B>;B>=FBAGCBEA@D@?C?>B>=C?>EA@FBAFBAEA@FBAGCBIEDIEDHDCFBAFBAIEDIEDGCBD@?B>=FBAHDCHDCFBAFBAFBAD@?B>=;76;76?;:EA@IEDJFEKGFMIHIHFHGEFECDCACB@CB@@?=>=;87565354210. 
    )'(867<:;0./
! ('%431<;9>=;?><C?<B>;A=:@<9=9695273051.841730730952<85?;8A=:B>;B>=A=<@<;>:9>:9=98;76843=98@<;D@?EA@EA@D@?D@?EA@@>?@>?@>?@>?@>?A?@A?@A?@FBCGCDFBAD@?B>=A=<@<9@<9>:7?;8?;8?;8?;8@<9@<9A=:A=<A=<A=<A=<A=<B>=C?>C?>D@?D@?C?>B>=>=;>=;?><@?=A@>CB@CB@BA?C?>B>=@<;>:9;74;74<85=96=96;74;74<85@<9?;8@<9A=:C?<EA>FB?GC@EA>GC@HDAGC@D@=D@=C?<D@=GC@IEDHDCGCBFBAC?>A=<A=<B>=C?>C?>C?>C?>C?>C?>D@?EA@B>=A=<A=<EA@HDCFBAD@?B>=D@=D@=FB?FB?D@=EA>HDAHDAGC@D@=C?<D@=C?<A=:B>;D@=EA@FBAGCBFBAD@?D@?EA@FBAIEDIEDIEDIEDGCBEA@D@?D@?GC@HDAHDAGC@JFCMIFKGDGC@C?>FBAEA@C?>EA@FBAEA@EA@D@?EA@FBAEA@EA@GCBGCBGCBGCBEA@EA@GCBGCBD@?A=<?;:B>=EA@FBAEA@D@?EA@D@?C?>=98;76=98C?>HDCIEDJFEMIHIHFHGEFECDCAEDBEDBBA??><986875875431$#!   '%&645978312 ('%21/:97>=;?><@<9A=:A=:A=:>:7:63730730952730730841952;74>:7@<9A=<B>=A=<@<;>:9<87843510954<87@<;B>=C?>D@?D@?D@?B@AA?@@>??=>@>?@>?@>?@>?D@AEABFBAD@?B>=A=<@<9@<9>:7?;8?;8?;8?;8?;8@<9A=:A=<@<;?;:?;:?;:@<;A=<A=<@<;@<;@<;?;:=<:=<:=<:>=;@?=CB@CB@BA?B>=B>=@<;=98<85;74:63952841841:63<85@<9?;8?;8?;8A=:C?<EA>EA>B>;EA>GC@GC@FB?FB?EA>EA>HDAGCBGCBGCBFBAD@?B>=A=<B>=A=<A=<A=<A=<B>=C?>D@?D@?B>=A=<D@?HDCIEDFBAC?>C?>EA>EA>GC@HDAFB?HDAKGDKGDGC@EA>D@=EA>D@=B>;B>;D@=EA@GCBGCBFBAD@?B>=D@?EA@HDCHDCHDCHDCGCBEA@C?>D@?EA>GC@FB?C?<EA>KGDKGDGC@C?>EA@B>=@<;B>=EA@D@?D@?C?>D@?EA@EA@EA@FBAFBAEA@EA@D@?EA@GCBFBAB>=?;:?;:?;:C?>FBAEA@D@?D@?C?>B>=B>=>:9>:9B>=FBAGCBHDCKGFJIGHGEFECEDBFECFECCB@?><<;9;:8:97653%$"    
&$%431756542'%&'&$10.:97@?=A@>?;8@<9B>;C?<A=:<85:6395295273062/62/730952<85?;8A=<C?>C?>B>=?;:<87954621621954<87@<;B>=C?>D@?D@?DBCB@A?=>><=?=>?=>?=>?=>A=>C?@EA@D@?C?>B>=@<9?;8?;8>:7>:7=96=96>:7@<9B>;?;:>:9<87;76;76<87=98>:9<87<87;76<87<;9=<:=<:<;9A@>CB@DCABA?C?>C?>@<;=98=96;7484173062/730:63>:7@<9@<9?;8?;8@<9A=:B>;C?<A=:C?>GCBEA@FBAGCBD@?EA@D@?FBAFBAGCBFBAEA@D@?C?>C?>A=<A=<@<;@<;A=<B>=C?>D@?B>=B>=D@?GCBHDCEA@D@?EA@GB?E@=E@=E@=E@=HC@KFCKFCGCBGCBFBAEA@C?>B>=C?>C?>EA@FBAGCBFBAD@?B>=C?>FBAGCBGCBGCBHDCEA@B>=B>=D@?EA@FBAD@?@<;B>=HDCLHGLHGFBAD@?A=<>:9?;:B>=EA@EA@C?>D@?D@?C?>C?>D@?FBAFBAD@=EA>EA>EA>EA>C?<A=:>:7@<9@<9B>;EA>GC@GC@EA>C?<B>;?;8>:7@<9D@=EA>FB?FB?FEAFEAIHDLKGLKIHGEDCAA@>?><?><;:8320$"#    
	10,320/.*,+)&%!$#)($762=<8CB>@<9B>;D@=EA>EA>C?<@<9=96:63841730730841841<85A=:A@>DCAEDBBA?>=;;:8986764732843;76?;:B>;C?<C?<D@=D@?B>=A=<A=<@<;?;:@<;A=<A=<B>=C?>C?>B>=A=<@<;@<;>:9?;:>:9>:9?;8A=:@<9>:7<85<85;74952954:65:65843954843732843;76>:9?;:?;:?;:B>=EA@D@?D@?D@?B>=?;:=98<87:65732732954<87?;:A=<@<;@<;A=<@<;?;:@<;B>=A=:B>=FBAD@?EA@GCBEA@FBAEA@FBAEA@EA@EA@D@?D@?D@?D@?C?>C?>B>=B>=A=<A=<A=<A=<A=<A=<B>=FBAGCBFBAEA@FBAGB?D?<C>;B=:B=:GB?JEBIDAGCBHDCGCBD@?B>=A=<B>=C?>C?>D@?EA@FBAEA@C?>C?>D@?FBAFBAGCBGCBEA@A=<@<;A=<A=<EA@FBAD@?D@?HDCKGFKGFHDCEA@A=<?;:@<;A=<C?>D@?D@?EA@EA@C?>B>=C?>EA@FBAD@=D@=D@=D@=EA>EA>D@=C?<A=:A=:C?<FB?HDAHDAEA>C?<B>;?;8=96?;8B>;C?<C?<C?<A@<BA=DC?HGCIHFGFDDCACB@?><>=;:9710.!  *)%0/+10,0/++*&&%! 21-;:6A@<D@=FB?GC@GC@GC@FB?C?<@<9=96;74952952841841<85@<9@?=DCAFECCB@>=;;:8:97:97:65:65=98@<;B>;B>;B>;B>;C?>B>=A=<@<;?;:>:9?;:@<;@<;A=<A=<B>=A=<A=<@<;@<;>:9?;:@<;@<;@<9A=:A=:@<9;74<85;74:63:65:65:65843621621732954<87?;:@<;@<;A=<D@?EA@D@?C?>C?>B>=@<;>:9>:9=98;76:65<87>:9@<;@<;@<;@<;@<;@<;?;:?;:A=<A=:B>=FBAD@?EA@GCBFBAGCBFBAEA@D@?C?>C?>D@?EA@EA@EA@D@?D@?D@?C?>C?>B>=A=<@<;A=<@<;B>=FBAIEDHDCGCBGCBFA>C>;@;8>96?:7D?<HC@HC@HDCHDCGCBD@?A=<?;:A=<C?>A=<B>=D@?GCBGCBEA@D@?D@?EA@FBAGCBHDCFBAC?>@<;?;:B>=GCBJFEHDCFBAHDCKGFLHGHDCC?>@<;@<;A=<A=<A=<C?>FBAGCBFBAC?>A=<B>=EA@GCBC?<D@=C?<B>;C?<D@=EA>EA>B>;B>;D@=GC@JFCIEBFB?D@=B>;?;8<85>:7A=:C?<C?<C?<>=9>=9@?;DC?FECFECEDBDCABA?@?=<;910.    &%#.-+32010.*)'
-,*986?><FB?HDAJFCIEBIEBGC@FB?D@=@<9>:7<85:63841730;74@<9@?=DCAGFDDCA?><;:8;:8;:8<87<87>:9@<;A=:@<9@<9@<9B>=A=<@<;?;:>:9=98=98?;:?;:@<;A=<A=<A=<A=<A=<A=<?;:A=<B>=A=<@<9@<9@<9@<9=96=96>:7=96=98=98;76:65621732:65<87?;:@<;A=<A=<A=<C?>C?>B>=A=<B>=A=<@<;?;:?;:@<;?;:?;:?;:@<;A=<A=<A=<A=<A=<A=<@<;@<;A=<@<9C?>HDCEA@EA@FBAFBAGCBFBAD@?C?>B>=B>=EA@FBAFBAFBAEA@EA@FBAEA@EA@C?>B>=A=<B>=B>=C?>HDCKGFKGFHDCGCBE@=A<9>96<74;63@;8FA>GB?HDCHDCGCBD@?A=<?;:@<;A=<@<;@<;C?>FBAGCBFBAD@?C?>D@?FBAHDCHDCGCBFBAD@?B>=D@?JFEMIHIEDEA@D@?HDCKGFFBAA=<=98@<;B>=B>=B>=D@?GCBHDCGCBD@?A=<A=<D@?GCBEA>EA>C?<B>;A=:C?<D@=D@=C?<C?<D@=GC@JFCJFCHDAFB?D@=@<9=96>:7A=:D@=FB?FB?A@<@?;@?;CB>EDBGFDGFDFECFECA@>>=;320
	   	"!.-+320-,*	)(&875>=;EA>HDAIEBIEBGC@FB?EA>D@=B>;A=:?;8;74841730;74?;8?><DCAGFDDCA@?=<;9<;9<;9=98=98>:9@<;A=:A=:@<9A=:A=<@<;@<;>:9=98<87=98>:9@<;@<;A=<A=<B>=B>=C?>C?>C?>C?>B>=A=<@<9@<9@<9@<9?;8?;8@<9@<9@<;?;:=98<87954954;76>:9@<;A=<A=<A=<@<;A=<A=<@<;?;:@<;A=<A=<?;:@<;A=<A=<@<;@<;A=<A=<B>=B>=B>=B>=B>=A=<A=<A=<@<9EA@JFEGCBEA@FBAFBAGCBFBAC?>B>=A=<B>=EA@GCBFBAEA@FBAGCBGCBGCBFBAEA@D@?C?>C?>C?>D@?HDCKGFJFEGCBD@?C==A;;?99<66933=77D>>GAAGC@GC@FB?D@=B>;@<9?;8>:7?;8>:7?;8B>;D@=C?<B>;A=:C?<EA>GCBGCBGCBHDCGCBEA@FBAJFELHGIEDD@?B>=FBAJFEGCBA=<?;:A=<D@?D@?EA@GCBHDCHDCGCBD@?A=<@<;C?>GCBGC@GC@EA>C?<B>;B>;C?<B>;C?<C?<D@=GC@IEBKGDJFCIEBGC@B>;>:7?;8A=:D@=FB?GC@ED@CB>BA=BA=EDBHGEHGEHGEFEC@?==<:653 	
 	
 *)'+*(
	 
"!431<;9B>;EA>GC@GC@FB?EA>D@=D@=D@=C?<B>;>:7:63952=96A=:@?=CB@EDBDCAA@>?><=<:<;9<87<87=98@<;A=:A=:B>;C?<A=:B>;A=:?;8>:7=96>:7>:7@<9@<9A=:B>;C?<EA>FB?FB?GCBFBAC?>B>=B>;A=:A=:B>;@<9@<9A=:B>;B>=@<;>:9=98<87;76:65=98?;:@<;@<;@<;@<;@<;@<;?;:?;:A=<B>=C?>@<;A=<A=<A=<@<;@<;A=<B>=A=<A=<B>=B>=B>=A=<@<;@<;A=<FBAJFEGCBD@?EA@EA@GCBEA@C?>A=<A=<B>=D@?EA@EA@D@?GCBGCBFBAFBAEA@EA@D@?D@?C?>C?>D@?FBAIEDHDCEA@B>=A;;A;;@::=77:44=77D>>GAAFB?FB?EA>D@=C?<A=:?;8=96=96<85=96>:7@<9?;8>:7=96A=:C?<D@?D@?FBAHDCHDCEA@EA@HDCLHGKGFHDCFBAHDCJFEKGFFBAC?>C?>EA@FBAGCBIEDIEDIEDHDCFBAC?>B>=D@?GCBFB?FB?EA>C?<B>;A=:A=:A=:B>;B>;D@=FB?HDAJFCJFCJFCIEBEA>B>;A=:A=:B>;C?<D@=ED@DC?BA=@?;BA?EDBHGEIHFFEC?><<;9986(&' #" 
  /.,875>:7B>;FB?FB?EA>D@=C?<C?<EA>EA>D@=A=:>:7=96?;8B>;@?=BA?DCADCADCABA?@?=>=;=98=98>:9@<;A=:B>;B>;D@=C?<C?<C?<A=:?;8>:7?;8?;8?;8?;8@<9A=:C?<FB?GC@HDAIEDGCBEA@EA@EA>D@=D@=D@=C?<B>;C?<D@=D@?C?>A=<@<;?;:<87:65<87?;:?;:@<;A=<?;:?;:>:9>:9>:9@<;B>=C?>A=<B>=B>=A=<@<;@<;A=<B>=A=<A=<B>=B>=B>=A=<@<;?;:@<;D@?IEDFBAC?>D@?EA@GCBEA@C?>A=<@<;@<;A=<C?>C?>D@?D@?D@?D@?D@?D@?D@?D@?EA@D@?D@?D@?EA@GCBGCBEA@C?>A;;A;;B<<?99<66?99D>>F@@EA>EA>EA>D@=B>;@<9?;8>:7>;6=:5=:5>;6>;6=:5;74;74?;8A=:B>=B>=D@?GCBGCBC?>D@?FBAIEDKGFKGFIEDJFEKGFMIHJFEEA@C?>D@?FBAHDCIEDHDCGCBGCBFBAD@?B>=D@?FBAEA>FB?EA>B>;@<9@<9@<9?;8?;8B>;D@=GC@HDAHDAIEBIEBJFCHDAFB?EA>C?<A=:@<9@<9D@=EA>C?<?;8>:9A=<EDBIHFEDB?><:979860./      	
   )'(431:63?;8EA>FB?D@=C?<C?<C?<C?<D@=C?<A=:?;8>:7?;8A=:>=;A@>CB@DCAEDBDCABA??><?;:?;:?;:@<;A=:@<9A=:B>;C?<D@=D@=A=:?;8?;8?;8@<9@<9?;8?;8@<9B>;D@=EA>EA>EA@EA@EA@FBAFB?EA>EA>FB?FB?EA>EA>FB?FBAD@?C?>C?>A=<=98<87=98>:9>:9@<;B>=?;:>:9=98=98=98>:9?;:A=<B>;B>;C?<B>;A=:@<9A=:A=:@<9A=:A=:A=:A=:A=:@<9=96>:9C?>HDCD@?B>=C?>EA@GCBEA@C?>A=<?;:>:9?;:A=<B>=C?>A=<A=<A=<A=<B>=D@?EA@FBAFBAEA@EA@EA@FBAGCBGCBFBAA;;A;;B<<A;;>88@::D>>E??D@=EA>EA>C?<A=:?;8?;8@<9?<7>;6>;6?<7>;6<94;74:63>:7A=:C?>B>=D@?GCBFBAA=<B>=B>=D@?HDCIEDIEDIEDJFELHGJFEFBAB>=B>=EA@HDCIEDEA@D@?C?>C?>B>=@<;A=<C?>GC@GC@FB?B>;@<9@<9@<9?;8>:7A=:EA>GC@HDAGC@GC@GC@JFCJFCIEBHDAFB?B>;?;8?;8B>;D@=B>;=96:65<87BA?GFDBA?<;9764764645%#$           '%&1/0732=96C?<EA>C?<B>;B>;B>;A=:B>;B>;@<9>:7>:7>:7>:7<;9?><A@>CB@DCADCACB@A@>B>=A=<@<;A=<@<9?;8?;8@<9B>;D@=C?<A=:>:7>:7?;8?;8A=:@<9?;8?;8@<9A=:A=:B>;@<;A=<C?>FBAFB?EA>EA>FB?FB?EA>EA>FB?FBAD@?C?>D@?A=<>:9<87=98=98<87=98@<;@<;?;:?;:>:9=98>:9?;:@<;B>;B>;C?<B>;A=:@<9@<9@<9>:7?;8@<9?;8@<9@<9>:7;74;76D@?GCBD@?D@?FBAGCBHDCGCBD@?B>=@<;?;:?;:A=<B>=C?>?;:?;:?;:?;:A=<D@?FBAFBAHDCGCBFBAEA@EA@FBAHDCIEDF@@E??E??D>>C==C==E??GAAEA>EA>D@=B>;A=:B>;A=:?;8@=8A>9B?:A>9@=8?<7?;8?;8D@=D@=EA@EA@D@?C?>B>=B>=B>=A=<A=<C?>FBAHDCHDCHDCJFEJFEGCBB>=@<;B>=EA@HDCFBAD@?A=<@<;@<;A=<@<;@<;D@=FB?FB?D@=B>;A=:@<9@<9A=:A=:B>;D@=FB?EA>FB?GC@GC@GC@HDAHDAHDAFB?C?<A=:B>;C?<@<9<85=98D@?HDCIED?;:95421/653645,*+            """1/0732;76B>=HDCHDCEA@C?>C?>A=<C?>D@?C?>?;:;76;76=98<;9<;9>=;BA?DCAEDBEDBEDBD@?C?>A=<@<;?;8@<9@<9A=:@<9B>;C?<@<9@<9A=:A=:@<9A=:?;8>:7>:7>:7>:7>:7?;8A=:>:7=96?;8B>=EA@FBAGCBGCBD@?C?>D@?D@=B>;A=:B>;=96>:7>:7>:7=96<85;74:63<85?;8B>;@<9=96;74=96@<9B>;C?<C?<B>;A=:@<9?;8?;8@<9@<9?;8@<9@<9?;8=96<85:65FBAIEDD@?D@?FBAGCBHDCGCBD@?B>=@<;?;:A=<B>=B>=B>=?;:@<;?;:?;:@<;C?>FBAFBAGCBGCBFBAEA@EA@FBAGCBHDCJDDICCHBBHBBGAAF@@F@@GAAFB?FB?D@=B>;A=:B>;B>;A=:B?:C@;DA<C@;B?:B?:B>;B>;FB?FB?FBAFBAEA@EA@D@?C?>?;:>:9>:9?;:C?>EA@EA@EA@GCBGCBEA@A=<>:9?;:B>=C?>D@?B>=A=<?;:>:9>:9?;:?;:@<9C?<D@=D@=C?<B>;A=:@<9?;8?;8@<9B>;D@=EA>EA>FB?EA>D@=EA>HDAJFCIEBGC@FB?EA>FB?D@=B>;D@?IEDJFEHDC>:9621-,*10.534/-." !                  ///732:65@<;EA@HDCGCBFBAFBAD@?D@?D@?B>=?;:<87<87>:9;:8<;9?><CB@DCAEDBFECGFDGCBEA@B>=@<;@<9A=:@<9@<9@<9B>;C?<A=:@<9A=:A=:@<9@<9@<9?;8>:7=96=96?;8@<9A=:>:7<85<85<87=98@<;B>=FBAD@?C?>B>=A=:A=:A=:C?<@<9?;8?;8?;8>:7=96;74952=96@<9B>;B>;?;8=96>:7?;8A=:B>;D@=D@=B>;@<9@<9A=:A=:@<9@<9@<9A=:@<9?;8=96<87HDCKGFEA@D@?FBAFBAHDCFBAD@?C?>A=<B>=D@?EA@D@?B>=A=<A=<A=<A=<A=<C?>EA@EA@FBAEA@EA@EA@EA@FBAGCBGCBLFFKEEJDDJDDJDDHBBHBBHBBGC@GC@EA>B>;A=:B>;B>;B>;C?<D@=D@=D@=D@=D@=D@=EA>HDAGC@GCBGCBGCBGCBFBAEA@?;:=98;76=98@<;C?>C?>C?>D@?EA@D@?A=<>:9=98>:9@<;A=<A=<@<;>:9=98<87>:9?;:?;8A=:C?<D@=D@=D@=B>;@<9>:7=96>:7A=:D@=EA>EA>EA>A=:>:7@<9FB?JFCJFCJFCJFCIEBIEBHDAGC@JFEMIHKGFGCB>:9732.*)1-,4012./)%&            


!!!      333:65:65=98B>=FBAHDCHDCHDCEA@D@?C?>B>=@<;>:9>:9?;::97<;9@?=DCAEDBEDBFECHGEIEDFBAB>=@<;@<9@<9>:7=96?;8A=:A=:?;8?;8@<9@<9>:7>:7?;8?;8<85:63<85>:7?;8A=:?;8=96:63732621954=98B>=C?>A=<?;:>:7@<9B>;C?<A=:@<9?;8?;8@<9>:7<85;74=96?;8B>;C?<B>;@<9>:7=96=98@<;C?>C?>A=<?;:@<;A=<@<;?;:?;:@<;@<;@<;?;:>:9<87IEDLHGGCBEA@EA@EA@GCBFBAFBAEA@D@?EA@FBAGCBFBAFBAD@?EA@EA@D@?D@?D@?D@?EA@EA@EA@EA@EA@EA@EA@FBAFBAJDDICCICCICCICCICCICCJDDHDAGC@EA>C?<B>;B>;B>;B>;C?<D@=EA>EA>EA>EA>FB?GC@IEBIEBHDCGCBGCBGCBGCBGCBC?>@<;<87<87?;:C?>D@?C?>C?>EA@EA@B>=>:9=98>:9@<;B>=B>=A=<@<;?;:?;:A=<B>=B>;C?<C?<D@=D@=D@=B>;?;8?;8=96>:7A=:D@=EA>D@=D@=>:7<85>:7EA>JFCJFCJFCKGDMIFMIFLHEKGDLHGMIHKGFGCBA=<;763/.2.-2./1-.+'(               %%%


!!!777>:9<87<87?;:D@?GCBHDCGCBEA@C?>B>=A=<A=<@<;@<;A=<=<:>=;A@>DCAEDBDCAEDBGFDJFEGCBD@?B>=A=:?;8<85952=96>:7>:7=96=96=96=96=96=96@<9@<9<85;74=96?;8>:7A=:A=:?;8<8573240/621954>:9?;:?;:<87<85@<9C?<B>;@<9?;8>:7?;8A=:@<9?;8=96=96?;8A=:C?<D@=A=:>:7;74:65>:9A=<A=<@<;?;:?;:A=<?;:?;:?;:?;:@<;@<;?;:?;:=98HDCMIHIEDFBAEA@D@?FBAFBAFBAGCBGCBGCBHDCHDCHDCIEDGCBHDCIEDIEDGCBEA@D@?D@?D@?D@?D@?D@?D@?D@?D@?D@?GB?HC@HC@IDAHC@GB?IDALGDIEDGCBFBAEA@D@?C?>C?>B>=D@?EA@FBAGCBFBAGCBHDCIEDHDCIEDIEDHDCFBAFBAGCBIEDHDCD@??;:=98?;:B>=D@?D@?B>=D@?EA@C?>?;:=98?;:C?>EA@EA@D@?C?>C?>D@?EA@GCBC?<C?<C?<B>;B>;B>;A=:>:7=96<85<85@<9C?<D@=D@=C?<@<9?;8B>;GC@JFCIEBIEBKGDQMJPLINJGKGDKGFLHGLHGJFEFBA@<;62140/512401-)*            


'''   			888A=<>:9<87=98A=<EA@FBAFBAEA@C?>B>=C?>C?>C?>C?>D@?A@>@?=A@>CB@DCACB@CB@CB@IEDHDCGCBFBAC?<?;8;74952<85=96=96<85<85<85<85<85>:7B>;C?<@<9>:7@<9A=:@<9@<9A=:A=:?;8<87732621621954;76;76954;74@<9B>;@<9?;8=96<85>:7@<9@<9?;8?;8=96>:7@<9C?<C?<A=:=96:63;76=98?;:@<;@<;@<;@<;@<;A=<A=<A=<A=<@<;@<;@<;A=<?;:FBALHGJFEGCBEA@C?>EA@FBAEA@FBAHDCHDCGCBGCBHDCIEDIEDJFEKGFJFEHDCEA@D@?EA@D@?D@?D@?D@?C?>C?>B>=B>=FA>GB?HC@IDAGB?GB?IDALGDIEDHDCGCBFBAEA@D@?C?>C?>EA@EA@FBAFBAFBAFBAGCBHDCHDCIEDJFEHDCEA@EA@GCBJFEKGFGCBB>=?;:@<;A=<B>=C?>A=<B>=C?>B>=A=<@<;B>=EA@GCBFBAEA@D@?D@?D@?FBAGCBC?<C?<B>;A=:A=:B>;A=:@<9<85;74<85@<9C?<D@=D@=EA>D@=C?<D@=FB?GC@GC@GC@GC@NJGNJGKGDHDAFBAHDCJFEKGFJFEC?>843621:67;783/0
	            )))###555A=<?;:=98=98@<;C?>EA@EA@EA@D@?C?>D@?EA@FBAFBAGCBDCABA?@?=A@>BA?BA?A@>@?=EA@FBAHDCGCBD@=@<9<85:63;74<85<85<85<85;74;74<85?;8B>;C?<B>;@<9A=:A=:@<9@<9@<9A=:B>;@<;;76843732732954843843:63>:7?;8>:7=96;74;74>:7?;8>:7>:7>:7>:7?;8@<9B>;B>;@<9>:7;74<87<87=98>:9>:9?;:?;:>:9A=<A=<A=<@<;@<;@<;A=<A=<@<;D@?JFEIEDGCBFBAC?>EA@EA@C?>D@?FBAHDCHDCGCBGCBGCBIEDIEDIEDIEDFBAC?>C?>EA@EA@EA@D@?C?>B>=A=<@<;@<;D?<E@=GB?HC@HC@GB?HC@JEBHDCHDCGCBFBAC?>A=<B>=D@?D@?EA@FBAEA@EA@EA@FBAGCBJFEJFEJFEHDCFBAFBAHDCKGFLHGIEDEA@B>=A=<A=<A=<@<;@<;@<;A=<C?>EA@EA@FBAGCBHDCHDCGCBEA@B>=B>=C?>EA@EA>EA>EA>C?<C?<D@=C?<C?<A=:@<9B>;D@=FB?GC@GC@HDAFB?EA>C?<A=:B>;D@=D@=B>;IDAIDAFB?C?<C?>EA@IEDKGFKGFGCB=98:65;78<89623%#$         ((($$$000@<;?;:>:9=98?;:B>=D@?D@?D@?C?>B>=C?>D@?EA@FBAHDCEDBBA?@?=@?=@?=@?=?><>=;@<;C?>EA@FBAD@=A=:?;8>:7>:7>:7>:7>:7>:7=96=96>:7@<9A=:A=:A=:A=:A=:A=:A=:B>;B>;B>;C?<B>=?;:<87:65954:65:65954:63<85>:7=96<85:63:63=96>:7=96=96>:7?;8@<9A=:B>;A=:@<9?;8>:7=98<87;76;76<87=98=98=98@<;@<;@<;@<;?;:?;:A=<B>=B>=C?>IEDHDCGCBFBAD@?EA@D@?A=<C?>EA@GCBHDCGCBFBAEA@HDCHDCHDCGCBD@?A=<C?>FBAFBAEA@D@?C?>B>=@<;?;:?;:A<9B=:E@=GB?HC@GB?GB?HC@GCBGCBGCBEA@A=<>:9A=<EA@FBAFBAGCBFBAEA@FBAGCBHDCKGFKGFJFEHDCFBAGCBIEDKGFLHGKGFHDCEA@C?>A=<@<;?;:A=<?;:@<;D@?IEDJFEIEDIEDKGFKGFKGFGCBC?>A=<B>=EA@HDAHDAHDAGC@FB?FB?FB?EA>GC@GC@HDAJFCJFCJFCJFCKGDHDAFB?B>;>:7?;8B>;C?<@<9E@=E@=C?<B>;B>=EA@IEDLHGKGFKGFD@?=98956956734+)*         $$$$$$      ,,,?;:@<;?;:>:9>:9@<;B>=C?>C?>B>=@<;A=<A=<C?>EA@GCBEDBBA??><?><?><?><>=;>=;>:9A=<D@?FBAFB?D@=C?<B>;A=:B>;B>;B>;B>;A=:A=:B>;B>;A=:A=:B>;B>;A=:A=:C?<EA>D@=D@=D@=D@?A=<?;:>:9<87=98<87;76:63;74=96>:7:63952:63<85=96<85=96?;8@<9A=:B>;B>;@<9?;8@<9A=:>:9=98<87;76<87<87=98>:9@<;A=<A=<A=<@<;@<;B>=D@?D@?C?>GCBGCBEA@FBAGCBEA@D@?D@?FBAGCBIEDIEDHDCFBAEA@EA>FB?FBAEA@C?>C?>C?>C?>GCBFBAFBAFBAD@?A=<@<9@<9@;8@;8B=:E@=FA>E@=FA>FA>E@=GB?HC@FA>A<9>96A<9FA>EA@D@?D@?FBAGCBFBAEA@FBAHDCHDCHDCHDCFBAEA@GCBJFEKGDKGDJFCGC@EA>D@=B>;A=:A=:B>;C?<D@=HDALHEMIFKGDKGDLHELHEHDAB>;=96?;8C?<IEBJFCLHELHEIEBFB?HDAKGDLHENJGNJGLHEKGDKGDKGDJFCKGDGC@D@=D@=EA>D@=B>;A=:C?>B>=A=<B>=C?>EA@HDCLHGKGFKGFJFEEA@?;::6562110.            


$$$:65>:9?;:@<;>=;A@>EDB?><?><@?=?><=<:=<:<;9?><DCAD@?EA@EA@B>=@<;@<;@<;@<;@<;@<;A=<C?>FBAGCBEA@B>=B=:D?<D@=FB?HDAIEBGC@D@=C?<C?<C?<B>;A=:A=:D?<FA>EA>GC@HDAGC@EA>C?<A=:@<9@<9@<9?;8;74952952;74<85;74;74;74<85?;8A=:@<9>:7?;8A=:B>;A=:@<9@<9A=:@<9A<9@;8?:7>96=85<74=96@<9?;8>:7=96>:7@<9B>;@?;@?;CB@EA@HDCGCBEA@FBAFBAEA@EA@FBAGCBHDCIEDHDCGCBEA@D@?D@=EA>FBAD@?C?>D@?D@?D@?GCBGCBGCBGCBFBAC?>A=:@<9A<9A<9B=:D?<E@=E@=E@=FA>E@=GB?HC@FA>A<9>96@;8D?<C?>B>=C?>D@?EA@EA@EA@EA@HDCGCBGCBGCBFBAEA@FBAHDCJFCJFCJFCHDAGC@FB?EA>C?<B>;B>;C?<D@=FB?IEBIEBIEBGC@HDAHDAFB?A=:=96?;8B>;GC@IEBKGDKGDHDAFB?GC@IEBKGDLHELHEJFCIEBJFCJFCHDAJFCHDAGC@HDAHDAGC@EA>D@=A=<A=<C?>D@?EA@FBAHDCKGFLHGMIHMIHJFED@??;::65542" !         $$$653=98?;:B>=A@>CB@EDB@?=?><A@>@?=>=;>=;<;9=<:BA?D@?EA@D@?A=<>:9>:9?;:?;:@<;A=<A=<C?>EA@GCBFBAD@?D?<E@=FB?GC@HDAHDAGC@EA>C?<C?<B>;B>;A=:A=:B=:C>;EA>FB?GC@FB?EA>C?<A=:?;8B>;B>;A=:=96:63:63;74<85<85<85;74=96?;8A=:@<9?;8>:7@<9A=:@<9?;8?;8@<9@<9>96>96>96>96=85<74<85>:7?;8>:7=96=96>:7@<9?>:?>:BA?C?>FBAFBAD@?FBAGCBFBAEA@FBAFBAGCBGCBFBAEA@D@?C?>D@=EA>FBAEA@D@?D@?D@?D@?FBAFBAGCBGCBFBAC?>A=:@<9A<9B=:C>;D?<E@=D?<D?<E@=E@=FA>GB?FA>C>;@;8A<9D?<C?>C?>C?>D@?EA@EA@FBAFBAGCBGCBFBAGCBFBAEA@D@?D@?FB?GC@GC@GC@FB?FB?FB?D@=B>;B>;B>;D@=D@=D@=D@=EA>C?<C?<C?<B>;@<9=96>:7?;8EA>GC@JFCKGDIEBFB?FB?GC@KGDJFCHDAFB?GC@HDAGC@D@=FB?FB?GC@IEBIEBGC@EA>EA>D@?FBAHDCJFEIEDHDCIEDJFELHGOKJPLKNJIJFED@?>:9764*()         			$$$320875;:8@?=BA?CB@DCAA@>@?=A@>@?=?><>=;<;9<;9?><C?>D@?C?>?;:<87;76<87=98@<;A=<B>=C?>EA@GCBFBAEA@B>;D@=EA>EA>EA>EA>BA=A@<B>;B>;A=:A=:A<9A<9@;8@;8B>;D@=D@=D@=D@=D@=B>;@<9A=:B>;A=:>:7;74;74<85<85>:7<85<85>:7@<9A=:@<9?;8=96?;8@<9?;8>:7=96?;8@<9<87=98=98=98<87;76;76=98=98<87;76;76;76=98>:9?;:@?=@<;D@?D@?D@?GCBHDCGCBFBAD@?D@?EA@EA@FBAFBAEA@EA@EA>GC@GCBFBAEA@EA@EA@D@?FBAFBAFBAGCBFBAD@?A=:@<9B=:B=:C>;C>;D?<D?<C>;D?<C>;D?<FA>FA>E@=C>;D?<FA>EA@EA@D@?EA@EA@FBAFBAGCBFBAFBAFBAFBAEA@D@?C?>B>=B>;C?<C?<C?<D@=FB?FB?EA>C?<B>;C?<EA>FB?D@=C?<D@=@<9@<9@<9@<9?;8=96<85<85A=:D@=IEBKGDIEBGC@FB?FB?JFCIEBGC@EA>FB?GC@GC@D@=B>;C?<EA>GC@FB?D@=C?<C?<HDCKGFNJINJIKGFHDCHDCHDCKGFNJIQMLPLKMIHGCB@<;9861/0            			!!!320875:97?><CB@CB@DCACB@BA?BA?A@>?><?><<;9<;9>=;D@?EA@EA@A=<<87954954954>:9?;:A=<B>=D@?EA@EA@EA@B>;C?<B>;B>;B>;C?<?>:=<8@<9@<9A=:A=:@;8?:7>96=85>:7@<9A=:B>;C?<C?<B>;A=:?;8@<9A=:?;8=96=96>:7>:7=96<85<85>:7A=:A=:@<9?;8>:7>:7?;8>:7>:7>:7?;8?;8=98>:9>:9=98<87;76:65;76;76;76:65843843954;76=98>=;@<;C?>B>=B>=EA@HDCGCBFBAD@?D@?D@?D@?EA@FBAGCBFBAFB?GC@HDCGCBFBAFBAFBAFBAHDCFBAFBAFBAFBAD@?B>;A=:B=:C>;C>;C>;C>;C>;C>;C>;B=:C>;FA>GB?FA>E@=FA>HC@GCBGCBFBAEA@D@?EA@FBAFBAFBAFBAEA@EA@D@?C?>B>=A=<A=<A=<A=<A=<C?>EA@GCBGCBEA@C?>D@?GCBIEDGCBEA@EA@@<9@<9?;8?;8?;8>:7<85:63=96B>;GC@JFCJFCHDAFB?EA>IEBIEBHDAFB?EA>GC@GC@FB?C?<C?<EA>FB?D@=B>;B>;B>;IEDMIHQMLQMLMIHIEDFBAFBAHDCLHGOKJQMLOKJJFEC?><;9645			               


   542<;9<;9?><DCAEDBFECEDBCB@CB@C?>A=<A=<?;:>:9A=<D@?GCBHDCD@?>:9:65843732;76=98?;:@<;B>=D@?D@?D@?BA?A@>>=;>=;@?=A@>?><<;9>:9?;:@<9@<9?:7=85<74<74;74>:7A=:B>;B>;B>;B>;B>;?;8A=:B>;@<9?;8?;8@<9@<9<87;76;76>:9A=<@<;?;:>:9?;:>:9=98=98>:9>:9?;:>:9=<:=<:<;9;:8875764954954;76:65954843732843954:65<;9B>=C?>@<;?;:C?>FBAGCBGCBEA@C?>B>=B>=C?>D@?D@?D@?D@=FB?HDCHDCGCBHDCHDCGCBGCBEA@D@?EA@EA@D@?B>;@<9B=:C>;C>;B=:B=:C>;C>;C>;C>;D?<FA>GB?FA>FA>GB?IDAJFEJFEHDCEA@D@?EA@FBAFBAEA@EA@EA@D@?C?>C?>B>=B>=@<;?;:?;:>:9A=<D@?FBAFBAD@?C?>C?>EA@HDCHDCGCBFBAC?<B>;A=:A=:A=:A=:>:7;74<85@<9FB?IEBJFCIEBHDAFB?FB?HDAHDAEA>D@=FB?HDAGC@FB?FB?FB?FB?D@=B>;A=:B>;GCBLHGRNMSONPLKLHGHDCFBAHDCKGFNJIPLKPLKMIHGCB@?=756   			                  653>=;<;9=<:CB@DCAEDBEDBBA?BA?B>=A=<A=<?;:?;:A=<C?>GCBJFEHDCD@??;::65843;76<87=98>:9@<;C?>D@?D@?CB@A@>>=;=<:?><A@>?><<;9>:9?;:?;8?;8>96=85<74<74<85?;8A=:B>;A=:A=:B>;A=:?;8A=:B>;@<9>:7>:7>:7?;8;76954954=98@<;@<;?;:?;:?;:=98;76<87>:9>:9>:9>:9?><?><?><=<::97:97;76;76<87<87;76:65954954954954:97A=:B>;?;8?;8C?<GC@GC@GC@FB?D@=B>;A=:A=:B>;B>;B>;C?<EA>GCBGCBGCBGCBGCBGCBEA@C?>B>=D@?EA@C?>@<9>:7A=:A=:A=:@<9A=:B>;C?<C?<C?<D@=EA>FB?EA>D@=FB?IEBKGFKGFIEDEA@D@?D@?EA@EA@D@?EA@EA@C?>B>=C?>C?>C?>?;:?;:>:9>:9@<;C?>EA@EA@D@?C?>B>=B>=D@?GCBHDCHDCEA>D@=C?<C?<D@=D@=A=:>:7=96A=:EA>GC@HDAIEBIEBHDAEA>HDAHDAFB?FB?HDAIEBIEBJFCIEBHDAHDAEA>C?<B>;B>;FB?KGDPLIRNKPLINJGLHEJFCIEBKGDNJGOKHOKHMIFHDAA@>645   			            442>><;;9997@?=CB@DCACB@@?=A@>A=<A=<B>=@<;?;:@<;A=<FBAJFEKGFIEDEA@@<;=98=98=98<87<87?;:C?>EA@EA@ECDB@A?=>><=@>?B@AA?@><=?;:>:9=98=98>96>96?75;63<85?;8A=:B>;B>;B>;A=:@<9@<9A=:B>;@<9=96<85=96=96;76843843;76>:9?;:@<;B>=@<;=98;76<87>:9>:9>:9?;:?><A@>BA?@?=?><>=;>=;=<:?;:>:9=98=98=98<87;76:65:65=96@<9?;8@<9FB?IEBHDAGC@HDAEA>C?<B>;B>;C?<C?<C?<C?<EA>GCBFBAFBAFBAEA@EA@EA@C?>C?>EA@FBAD@?@<9>:7@<9A=:A=:@<9@<9B>;C?<C?<B>;C?<EA>EA>D@=D@=GC@KGDKGFJFEHDCD@?B>=B>=D@?D@?D@?FBAEA@C?>B>=C?>D@?EA@@<;@<;@<;@<;B>=EA@FBAEA@EA@EA@C?>A=<B>=FBAIEDJFEFB?EA>EA>D@=EA>FB?D@=A=:?;8A=:D@=EA>GC@IEBJFCIEBGC@IEBJFCIEBIEBKGDLHELHEMIFLHEKGDJFCHDAEA>C?<C?<GC@KGDMIFNJGMIFMIFMIFMIFKGDLHEMIFNJGMIFKGDFB??>:423            331>><;;9886@?=DCADCACB@>=;?><@<;A=<B>=@<;>:9@<;@<;EA@JFELHGLHGIEDEA@B>=?;:=98;76;76>:9C?>FBAGCBGEFECDB@AA?@B@ADBCDBCB@A@<;=98;76;76?:7?:7?75=53=85>:7?;8A=:B>;B>;A=:@<9@<9B>;B>;@<9>:7=96>:7>:7<87843621954=98?;:A=<D@?@<;=98<87=98>:9>:9?;:@<;>=;A@>BA?BA?A@>@?=?><>=;A=<A=<@<;@<;@<;?;:=98;76954=96>:7;74?;8FB?GC@HDAGC@HDAGC@EA>D@=D@=EA>EA>D@=FB?FB?FBAFBAGCBFBAD@?C?>EA@GCBHDCFBAEA@D@?C?<@<9A=:B>;B>;A=:A=:B>;B>;A=:@<9C?<D@=B>;B>;D@=GC@IEBLHEJFCHDAFB?C?<B>;B>;C?<D@=D@=EA>D@=C?<C?<C?<C?<B>=@<;@<;B>=EA@FBAGCBHDCEA@C?>A=<A=<D@?GCBIEDJFEIEDGCBGCBHDCHDCIEDGCBB>=?;:@<;C?>EA@D@?C?>FBAKGFJFCJFCKGDKGDLHEMIFMIFMIFMIFNJGOKHMIFKGDIEBHDAHDAIEBJFCKGDKGDLHEMIFMIFKGDJFCJFCIEBKGDMIFLHEGC@?>:534                  664::8<<:==;@?=CB@BA??><<;9;:8?;:@<;@<;A=<A=<=98<;9A@>HGEKJHLKIJIGFECBA?A@>?><:97764:97@?=CB@CB@DBCGEHFDECABDBCCABCABDBCA@>>=;=98;76=77>88B9:C:;A<9A<9B=:D?<D?<C>;B=:B=:A<9@;8?:7?:7?:7@;8A<9A<9>:9;76954:65?;:C?>D@?C?>B>=@<;?;:@<;?;:?;:?;:@<;@?=?><?><A@>BA?CB@BA?A@>EA@EA@D@?B>=A=<@<;@<;>:9=98=96=96:63?;8FB?HDAHDAFB?GC@HDAIEBIEBIEBGC@FB?EA>EA>EA>FBAFBAFBAEA@C?>B>=D@?HDCJFEHDCFBAEA@EA>C?<C?<C?<C?<A=:A=:B>;B>;A=:A=:D@=D@=C?<A=:B>;D@=EA>HDAHDAGC@EA>C?<A=:A=:A=:C?<D@=D@=D@=C?<C?<D@=D@=EA@C?>C?>EA@EA@EA@EA@FBAFBAD@?B>=B>=C?>EA@HDCJFEKGFIEDHDCHDCHDCHDCFBAB>=<87<87>:9A=<C?>C?>EA@IEDIEBJFCJFCKGDLHEMIFNJGNJGOKHNJGMIFLHEKGDJFCJFCJFCHDAIEBJFCJFCJFCLHELHEKGDKGDIEBHDAJFCMIFMIFIEBA@<645                  664::8>><??=BA?DCABA??><986986=98@<;@<;A=<@<;;76986?><FECIHFIHFGFDEDBCB@CB@BA?>=;986986>=;BA?CB@CABECFDBCA?@A?@@>?A?@CABCB@A@>@<;?;:@::A;;C:;C:;A<9@;8A<9C>;D?<C>;C>;C>;B=:A<9A<9@;8A<9A<9B=:B=:>:9<87;76=98A=<C?>C?>B>=D@?C?>B>=B>=A=<?;:?;:?;:?><?><?><@?=BA?CB@BA?A@>D@?D@?C?>A=<@<;@<;?;:>:9=98<87=98954>:9FBAGCBGCBD@?EA@GCBIEDJFEIEDFBAD@?C?>D@=EA>EA@FBAFBAD@?B>=A=<C?>GCBIEDHDCFBAFBAFB?FB?FA>FA>D?<C>;B=:B=:B=:B=:B=:D?<E@=D?<B=:B=:B=:C>;D@=FB?FB?EA>B>;@<9@<9@<9C?<D@=EA>D@=B>;B>;C?<EA>EA@FBAFBAGCBGCBFBAFBAFBAGCBEA@C?>B>=B>=D@?GCBHDCKGFIEDIEDIEDHDCHDCGCBC?>=98<87<87?;:B>=C?>D@?FBAFB?FB?FB?GC@HDAJFCLHEMIFNJGLHEJFCJFCJFCJFCJFCJFCEA>GC@HDAHDAHDAJFCKGDKGDKGDIEBGC@HDALHENJGKGDED@867                     764;:8?><A@>CB@DCABA?>=;986986<87?;:@<;A=<@<;;76764>=;EDBGFDEDBCB@CB@CB@EDBEDBBA?<;9:97<;9@?=BA?CABECDCAB?=>><=><=?=>A?@DCACB@D@?D@?E??E??C==A;;A<9@;8A<9B=:B=:B=:C>;D?<A<9A<9A<9A<9@;8A<9A<9B=:>:9=98=98?;:A=<D@?EA@EA@GCBFBAD@?C?>B>=?;:>:9>:9?;:?;:@<;A=<B>=C?>C?>B>=B>=B>=B>=@<;?;:>:9>:9=98>96=98>:9;76?;:EA@EA@D@?B>=C?>EA@FBAFBAEA@D@?B>=A=<D@=D@=EA@FBAEA@C?>A=<@<;A=<D@?FBAEA@D@?EA@EA>EA>FA>FA>E@=C>;B=:B=:A<9A<9A<9B=:D?<D?<C>;B=:B=:B=:B>;D@=EA>EA>D@=B>;@<9?;8C?<D@=EA>EA>C?<A=:B>;D@=C?>EA@GCBHDCGCBFBAFBAGCBFBAD@?B>=A=<B>=D@?FBAGCBHDCHDCIEDJFEIEDIEDIEDEA@A=<?;:?;:A=<C?>C?>C?>C?>C?<B>;A=:C?<EA>HDAJFCJFCKGDIEBHDAHDAHDAHDAGC@FB?C?<EA>GC@GC@GC@HDAJFCKGDJFCIEBGC@GC@JFCLHELHEGFB<:;***                     ###653;:8?><@?=A@>CB@BA??><=<::97<87=98=98@<;@<;<87764=<:DCAEDBBA?@?=@?=BA?EDBFECDCA?><;:8;:8>=;?><B@AECDCAB?=>=;<=;<><=@>?DCACB@EA@FBAHBBF@@C==@::B=:@;8?:7@;8@;8@;8@;8B=:A<9A<9A<9A<9@;8@;8A<9A<9@<;?;:>:9?;:@<;C?>EA@FBAGCBGCBEA@D@?B>=?;:=98<87=98=98>:9?;:@<;@<;@<;@<;>:9@<;A=<?;:<87;76<87=98@;8?;:A=<=98@<;C?>B>=B>=@<;B>=C?>C?>D@?EA@EA@D@?C?>EA>EA>FBAFBAEA@C?>A=<@<;A=<B>=C?>D@?D@?EA@EA>EA>FA>FA>E@=E@=D?<B=:@;8?:7@;8B=:C>;D?<D?<C>;B=:B=:B>;D@=EA>EA>FB?EA>C?<@<9A=:B>;EA>FB?D@=B>;B>;D@=B>;D@=FB?FB?D@=C?<C?<D@=C?<@<9=96>:7B>;EA>FB?FB?FBAEA@GCBIEDIEDJFEIEDEA@D@?C?>C?>C?>C?>C?>C?>C?>B>;@<9?;8A=:EA>GC@HDAGC@FB?EA>FB?HDAHDAEA>C?<C?<B>;C?<D@=EA>D@=EA>GC@JFCJFCIEBGC@FB?HDAJFCLHEJIEDBC888                           &&&653;:8>=;>=;@?=BA?CB@A@>>=;<;9:97986986;:8<;9986653;:8BA?DCAA@>>=;?><A@>CB@DCACB@@?==<:<;9;:8;:8B>=EA@BA?>=;<;9;:8<;9?><CB@CB@DCAEDBHDCFBAB>=?;:@;8?:7=85=85=85=85>96@;8A<9B=:C>;B=:A<9A<9A<9B=:A=:@<9?;8?;8?;8@<9C?<D@=FB?FB?EA>C?<A=:?;8=96;74;63;63<74=85>96>96>96>96<85>:7@<9?;8;74:63;74>:7A<9B>=C?>?;:@<;B>=@<;@<;@<;@<;@<;B>=D@?GCBGCBGCBFBAGC@GC@GCBFBAEA@C?>B>=A=<C?>C?>D@?D@?EA@FBAFB?FB?FA>FA>FA>GB?FA>C>;A<9@;8B=:B=:C>;E@=D?<C>;B=:B=:D@=D@=D@=EA>FB?HDAFB?C?<@<9A=:C?<FB?FB?D@=C?<EA>C?<EA>FB?D@=A=:?;8?;8?;8?;8<85952;74@<9D@=FB?FB?D@?C?>EA@GCBGCBIEDHDCEA@EA@D@?D@?D@?D@?D@?D@?EA@B>;@<9?;8A=:D@=FB?FB?D@=D@=C?<EA>HDAHDAFB?C?<B>;B>;B>;C?<C?<B>;B>;D@=GC@IEBIEBHDAGC@GC@JFCMIFLKIJHICCC---                     ***:97>=;@?=?><?><BA?DCACB@>=;<;9;:8:97875986:97875764:97?><A@>A@>?><>=;?><@?=A@>BA?A@>?><<;9;:8:97@<;D@?A@>=<:;:8:97;:8>=;CB@DCAEDBFECGCBEA@B>=@<;>96<74;63;63;63<74>96@;8?:7A<9B=:B=:@;8?:7@;8A<9=96=96=96>:7?;8@<9B>;C?<C?<D@=C?<A=:?;8>:7<85;74941:52;63<74<74<74<74=85<85=96?;8>:7<85:63;74>:7@;8D@?EA@?;:?;:A=<@<;A=<@<;?;:@<;B>=EA@FBAGCBGCBGCBIEBIEBHDCGCBEA@D@?C?>D@?EA@EA@EA@FBAFBAFBAGC@GC@HC@GB?HC@HC@GB?E@=C>;C>;C>;C>;C>;D?<D?<C>;B=:B=:D@=EA>D@=D@=EA>HDAIEBFB?A=:@<9B>;EA>FB?D@=C?<D@=C?<EA>EA>C?<@<9@<9@<9A=:?;8;74730730;74@<9C?<D@=C?>A=<A=<C?>EA@HDCIEDFBAFBAEA@EA@EA@FBAGCBGCBGCBC?<B>;B>;C?<D@=EA>D@=C?<D@=B>;C?<GC@IEBHDAFB?FB?EA@D@?C?>C?>A=<A=<B>=D@?IEDIEDIEDHDCIEDLHGPLKONLNLMJJJ<<<"""			                     000=<:C?>D@?B>=@?=CB@EDBEDB@?=>=;=<:;:8875:97<;9<;9;:8;:8=<:@?=A@>?><>=;=<:>=;@?=BA?BA?@?==<:;:8;:8@<;C?>B>=>:9:97:97<;9@?=CB@DCAFECEDBEA@C?>B>?A=<>96<74:52:52:52;63=85@;8>96@;8A<9A<9?:7>96>96?:7:63:63:63;74=96?;8A=:B>;@<9A=:@<9>:7=96<85;74:63830<42;63<74;63;63<74=85=85<74<85<85<85;74;74<85>95EA@EA@?;:?;:B>=A=<B>=A=<B>=C?>D@?EA@EA@FBAGCBHDCKGDJFCIEDGCBEA@D@?D@?EA@EA@FBAFBAFBAEA@EA@FB?GC@JEBIDAIDAIDAIDAFA>E@=FA>D?<C>;C>;D?<D?<C>;B=:B=:D@=EA>EA>C?<D@=HDAIEBHDAC?<B>;B>;EA>FB?D@=B>;C?<B>;D@=EA>C?<B>;C?<EA>EA>B>;=9673051.841<85@<9A=:A=<>:9>:9@<;C?>HDCJFEHDCHDCGCBFBAFBAHDCIEDIEDHDCD@=EA>FB?FB?FB?EA>D@=D@=D@=A=:A=:EA>JFCJFCIEBIEBHDCFBAD@?C?>B>=@<;A=<C?>IEDIEDIEDHDCKGFOKJRNMTPOPNONNNHHH222      444@?=EA@FBAD@?A@>CB@EDBEDBDCAA@>?><;:8875;:8@?=A@>@?=>=;=<:?><A@>?><=<:<;9=<:@?=BA?BA?@?==<:<;9<;9A=<D@?C?>?;:;:8;:8>=;CB@DCAEDBFECDCAD@?B>=A=<A=<@;8=85;63:52:52;63=85?:7>96@;8B=:B=:?:7>96>96?:7<85;74952952:63<85>:7?;8>:7?;8>:7<85;74;74:63941830<42<74<74<74<74<74=85=85;63952:63<85;74:63:63<73FBAIEDC?>?;:A=<B>=C?>A=<B>=C?>C?>C?>EA@HDCIEDHDCKGFJFEIEDHDCGCBFBAEA@EA@EA@FBAFBAGCBGCBGCBFBAEA@IEBIEBIEBJFCJFCIEBFB?D@=C?<B>;C?<EA>EA>A=:@<9A=:C?>A=<A=<C?>FBAGCBHDCIEDD@?C?>B>=A=<C==E??F@@E??E@=D?<D?<D?<D@=FB?GC@HDAD@?A=<=98;76954:65>:9C?>A=:@<9?;8>:7A=<EA@GCBFBAFBAFBAFBAGCBIEDKGFJFEHDCD@?D@?KGFLHGFB?FB?HDAC?<C?<B>;B>;EA>HDAJFCJFCLHEHDAGC@EA>D@=D@=D@=EA>EA>GC@HDAIEBIEBJFCMIFQMJUQNVRQQPNONL@?=        $$$888A@>FECEDB@?=?><BA?EDBFECEDBCB@@?=<;9:97=<:CB@HGEGCBC?>?;:?;:@<;@<;@<;@<;>:9B>=EDBGFDEDBA@>@?=A@>A?@CABBA?>=;<;9?><BA?BA?BA?DCAED@ED@FB?EA>D@=C?<?;8>:7=85;63;63<74>63=52@85A96@;7?:6>95>95>;6@=8=85<74:52:52;63<74<74<74?:7?:7@;8@;8=85:52941941:51<73>95=84<73=84=84<73=84=84<73:51:51;62<73<73>64HDCJFED@?@<;A=<B>=D@?C?>A=<A=<A=<B>=EA@HDCIEDIEDKGFJFEIEDIEDGCBFBAEA@FBAFBAFBAFBAFBAFBAFBAEA@D@?EA>EA>FB?GC@HDAHDAGC@EA>D@=C?<D@=EA>EA>C?<C?<D@=D@?B>=B>=C?>EA@FBAFBAGCBEA@D@?B>=A=<D>>F@@F@@E??E@=D?<E@=FA>FB?GC@HDAHDAGCBFBAC?>A=<?;:=98>:9@<;C?<B>;B>;A=:C?>D@?D@?B>=?;:A=<C?>FBAIEDKGFIEDFBAD@?D@?JFEMIHHDAGC@IEBFB?D@=C?<B>;EA>GC@HDAIEBJFCIEBHDAFB?EA>EA>FB?FB?FB?EA>GC@IEBJFCKGDLHEOKHRNKWSRVRQQPNDCA*()     			,,,777=<:CB@DCA@?=?><A@>CB@EDBFECEDBBA?=<:;:8>=;DCAIHFHDCE??@<;@<;A=<A=<@<;?;:@<;B>=DCAFECFECCB@BA?BA?B@ACABBA??><=<:?><A@>BA?CB@EDBFEAGFBHDAFB?D@=C?<@<9?;8?:7>96<74<74>63=52>63?74>95>95>95>95>;6?<7=85<74:52:52;63<74=85=85?:7?:7@;8@;8?:7<74;63<74<73>95>95=84<73=84>95>95>95>95=84<73<73<73;62940?75IEBLHEFB?B>;B>;C?<EA>EA>A=:A=:A=:B>;D@=GC@HDAGC@JFEIEDIEDIEDHDCFBAFBAFBAFBAEA@EA@EA@FBAFBAD@?C?>A=:B>;C?<EA>GC@HDAGC@FB?EA>D@=D@=C?<C?<C?<D@=D@=EA@D@?D@?EA@FBAFBAFBAFBAFBAD@?B>=A=<D>>F@@F@@D>>D?<D?<D?<E@=FB?FB?FB?FB?IEDIEDIEDHDCFBAB>=A=<@<;EA>FB?GC@GC@GCBFBAC?>A=<=98?;:B>=FBAJFELHGJFEGCBEA@C?>HDCLHGIEBIEBKGDJFCEA>D@=D@=EA>GC@HDAJFCKGDJFCIEBHDAGC@GC@GC@GC@HDAC?<EA>IEBKGDKGDLHEMIFOKHTPOUQPSONMIH:89  
	(((11/553875@?=CB@A@>@?=A@>BA?EDBEDBDCAA@>>=;<;9>=;EDBJIGIEDEA@A=<@<;A=<B>=@<;?;:B>=B>=D@?FBAGCBGCBEA@EA@BA?CB@BA?A@>?><?><@?=A@>C?>EA@FB?GC@FB?D@=B>;A=:A=:B>;B=:A<9>96<74<74<74;62<73=84>95>95?:6?<7?<7>96<74;63;63<74=85?:7?:7@;8@;8@;8B=:A<9@;8>:7?;8?:6?:6>95=84<73>95?:6@;7A<8A<8@;7?:6?:6?:6<73940>64IEBMIFIEBEA>D@=D@=FB?EA>B>;B>;B>;C?<D@=D@=D@=C?<FBAFBAGCBHDCHDCGCBFBAFBAD@?D@?D@?EA@FBAFBAEA@C?>A=:A=:B>;D@=GC@HDAGC@GC@EA>EA>D@=B>;A=:B>;B>;A=:D@?EA@EA@FBAGCBGCBFBAFBAEA@D@?A=<@<;C==E??E??C==D?<C>;C>;D?<C?<D@=D@=D@=HDCIEDKGFKGFJFEHDCEA@D@?EA>HDAKGDKGDJFEHDCEA@C?>C?>B>=C?>EA@IEDKGFKGFJFEGCBB>=D@?IEDIEBJFCKGDKGDHDAGC@FB?GC@HDAJFCKGDLHEJFCJFCHDAHDAGC@HDAHDAHDAC?<D@=FB?IEBJFCJFCKGDLHEMIHNJIOKJQMLFDE+)*   (((000442442653=<:A@>BA?CB@CB@CB@EDBBA?BA?@?==<:;:8=<:CB@IHFJFEFBAB>=@<;A=<B>=A=<@<;B>=B>=B>=D@?EA@FBAEA@D@?BA?BA?BA?BA?@?=>=;?><A@>B>=B>=C?<C?<B>;A=:@<9?;8B>;B>;C>;B=:@;8=85<74;63<73<73=84>95?:6@;7?<7@=8>96=85<74<74=85>96@;8A<9A<9@;8@;8A<9B=:B=:@<9@<9@;7?:6=84<73=84?:6@;7@;7C>:C>:C>:B=9C>:C>:@;7<73=53HDAMIFJFCGC@FB?FB?GC@EA>C?<B>;C?<D@=D@=C?<A=:?;8@<;A=<D@?GCBHDCFBAEA@EA@C?>C?>D@?FBAGCBFBAD@?B>=A=:A=:B>;D@=FB?GC@GC@FB?EA>EA>EA>C?<B>;B>;B>;A=:C?<D@=EA>FB?FB?FB?EA>EA>D@=C?<A=:?;8A<9C>;C>;B=:C>;B=:B=:B=:B>;C?<D@=D@=FBAGCBHDCIEDJFEJFEHDCGCBD@=GC@KGDKGDIEDGCBFBAEA@FBAD@?B>=C?>FBAIEDJFEKGFIEDB>=?;:C?>GC@IEBJFCJFCJFCIEBIEBHDAHDAIEBKGDLHEJFCJFCIEBHDAHDAHDAHDAIEBFB?D@=C?<EA>GC@IEBIEBJFCIEDGCBJFENJIKGF>:9%#$	&$%0/-653664331431986>=;@?=CB@CB@BA?CB@BA?A@>@?=>=;<;9<;9@?=EDBIHFEDBA@>>=;@<;A=<A=<@<;A=<A=<A=<A=<B>=C?>B>=B>=C?>C?>D@?D@?B>=A=<A=<C?>B>=B>=A=:A=:@<9A=:A=:A=:B>;A=:A=:A=:A<9?:7<74<74=85=85=84>95>;6>;6>;6>;6>96>96=85<74<74>96@;8B=:@;8?:7?:7@;8@<9@<9?;8>:7?:7>96=85=85>96>96?:7@;8D?<D?<C>;C>;E@=FA>D?<A<9?74FB?LHEIEBGC@HDAGC@GC@EA>C?<B>;B>;D@=D@=C?<A=:@<9>:9?;:B>=FBAGCBFBAD@?D@?D@?EA@FBAGCBGCBFBAD@?B>=A=:A=:A=:C?<EA>FB?FB?FB?D@=C?<C?<C?<B>;B>;A=:A=:D@=FB?GC@GC@FB?FB?EA>D@=D@=C?<A=:@<9@;8B=:B=:A<9A<9@;8@;8@;8A=:B>;D@=EA>D@?EA@EA@FBAGCBHDCGCBFBAD@=GC@IEBIEBHDCGCBFBAFBAD@?C?>C?>D@?FBAGCBIEDKGFKGFD@?>:9?;:D@=GC@GC@FB?IEBJFCIEBHDAGC@HDAIEBJFCJFCJFCIEBHDAHDAHDAHDAIEBHDAD@=B>;C?<EA>FB?GC@IEBJFED@?EA@GCBGCBGCB;9:(&'+)*54287555311/320764:97>=;A@>A@>?><A@>DCABA?A@>@?=>=;=<:?><BA?FECEDBA@>=<:>:9>:9>:9=98@<;A=<@<;?;:?;:@<;@<;?;:@<;B>=C?>C?>B>=A=<B>=B>=C?>A=<@<9?;8?;8A=:C?<D@=C?<A=:@<9A=:B=:?:7=85=85>96>96>95>95=:5=:5<94;83=85=85<74;63;63<74>96@;8@;8@;8@;8A<9A=:@<9?;8?;8@;8?:7?:7?:7?:7>96>96?:7C>;C>;B=:B=:D?<E@=E@=D?<A96EA>JFCGC@FB?HDAHDAHDAEA>D@=B>;B>;C?<C?<C?<B>;B>;?;:@<;B>=D@?EA@EA@D@?D@?EA@EA@FBAGCBFBAEA@EA@D@?C?<B>;B>;C?<EA>FB?FB?FB?C?<B>;A=:B>;A=:?;8?;8@<9D@=GC@HDAHDAGC@GC@GC@FB?D@=D@=C?<A=:A<9A<9B=:B=:@;8?:7?:7@;8A=:B>;C?<D@=B>=C?>D@?D@?EA@FBAD@?B>=D@=D@=EA>EA>GCBGCBFBAD@?C?>C?>D@?EA@FBAGCBHDCJFELHGFBA?;:>:9B>;EA>D@=C?<EA>GC@GC@FB?FB?GC@IEBJFCHDAIEBHDAHDAGC@GC@HDAHDAGC@D@=C?<D@=D@=D@=EA>HDAHDAFB?C?>B>=D@?GCBB@A;9:,*+&$%(&'201875764542320542875:97<;9?><>=;=<:@?=BA?A@>@?=A@>A@>?><?><A@>BA?BA?A@>>=;<;9<;9;:8;:8@<;@<;@<;>:9>:9?;:?;:=98=98@<;B>=A=<@<;B>=B>=B>=A=:@<9>:7=96?:7B=:D?<FA>D@=B>;A=:B>;A=:?;8?:7@;8A<9@;8?;8>:7>:7=96;74952<74<74<74;63:52;63<74>96?;8?;8@<9B>;C?<B>;A=:A=:B=:A<9A<9A<9?:7=85=85?:7A<9A<9A<9A<9B=:D?<D?<C>;B:7D@=IEBFB?EA>GC@HDAHDAEA>EA>B>;A=:B>;C?<B>;C?<D@=B>=B>=B>=D@?D@?D@?D@?EA@D@?EA@FBAFBAEA@EA@FBAGCBFB?EA>EA>EA>FB?GC@GC@FB?EA>B>;A=:B>;A=:>:7=96@<9C?<EA>GC@GC@GC@GC@GC@GC@EA>EA>D@=B>;A<9A<9C>;C>;B=:A<9B=:C>;C?<C?<C?<C?<A=<B>=C?>C?>EA@EA@B>=?;:A=:A=:@<9B>;EA@GCBEA@A=<B>=C?>D@?FBAFBAEA@GCBIEDLHGIEDA=<>:9A=:C?<B>;A=:A=:D@=EA>EA>FB?HDAJFCKGDGC@GC@GC@GC@FB?FB?GC@GC@FB?D@=D@=EA>D@=B>;D@=GC@D@=GC@D@?A=<C?>C?>?=>B@A9781/0201978:97764764986764986;:8=<:>=;<;9=<:A@>?><>=;>=;A@>BA?@?=?><A@>@?=BA?CB@BA?@?=?><?><>=;@<;@<;?;:>:9?;:@<;>:9<87<87@<;A=<@<;?;:B>=C?>B>=@<9?;8=96<85?:7B=:E@=FA>D@=C?<B>;C?<A=:?;8@;8B=:E@=C>;A=:@<9@<9>:7<85952<74=85<74;63:52:52;63=85=96=96?;8B>;B>;A=:A=:B>;D?<C>;C>;B=:@;8=85=85?:7?:7@;8@;8@;8A<9B=:C>;B=:C;8D@=HDAD@=B>;D@=EA>FB?D@=C?<B>;B>;C?<D@=D@=D@=FB?C?>B>=A=<B>=C?>C?>C?>C?>EA@EA@FBAGCBFBAFBAGCBHDCD@=D@=EA>EA>FB?GC@GC@FB?FB?D@=B>;@<9@<9@<9@<9@<9C?<D@=FB?EA>FB?GC@HDAHDAFB?IEBHDAB>;A<9D?<E@=C>;D?<C>;B=:B=:D@=FB?D@=@<9B>=B>=A=<A=<C?>EA@D@?A=<>:7>:7>:7@<9C?>EA@D@?B>=B>=C?>EA@EA@C?>B>=EA@IEDKGFHDCB>=>:9?;8B>;B>;?;8>:7A=:C?<D@=EA>HDAIEBJFCIEBHDAFB?D@=D@=EA>GC@HDAEA>EA>EA>EA>D@=D@=EA>GC@EA>HDAHDAC?<?;:?;:B>=C?>A@>>=;;:8:97;:8<;9<;9<;9>=;?><?><>=;>=;?><@?=A@>@?=@?=@?=>=;>=;?><A@>DCAA@>A@>A@>BA?DCADCADCACB@C?>C?>A=<>:9>:9@<;@<;>:9;76=98?;:A=<@<;?;:A=<C?>A=:?;8<85<85?:7B=:D?<FA>D@=C?<D@=C?<A=:?;8>:7@<9B>;B>;B>;@<9?;8?;8>:7<85?:7=85;63;63<74<74:63952:63<85=96>:7@<9A=:B>;A=:@<9A=:A=:A=:?;8=96=96=96?;8?;8?;8>:7?;8A=:B>;B>;@;8A=:EA>B>;@<9D@=FB?HDAFB?A=:@<9@<9A=:B>;C?<EA>GC@EA@C?>B>=C?>C?>B>=B>=C?>EA@EA@EA@FBAFBAGCBGCBGCBFB?FB?FB?EA>FB?HDAHDAHDAFB?D@=C?<B>;B>;B>;A=:@<9B>;C?<C?<D@=EA>GC@HDAHDAIEBJFCHDAC?<B=:D?<E@=D?<C>;C>;B=:B=:D@=FB?EA>C?<C?>C?>C?>B>=D@?EA@C?>@<;<85<85=96A=:D@?D@?D@?EA@C?>D@?EA@FBAEA@D@?EA@GCBKGFIEDEA@@<;?;8A=:C?<B>;=96?;8B>;D@=D@=EA>FB?GC@IEBIEBGC@D@=B>;C?<EA>FB?EA>EA>FB?GC@FB?EA>FB?GC@GC@IEBHDAD@=@<;?;:@<;A=<A@>@?==<:<;9=<:>=;?><?><CB@CB@BA?@?=@?=A@>A@>@?=?><?><>=;>=;=<:>=;@?=A@>BA?CB@CB@DCAEDBEDBEDBEDBEA@FBAD@?B>=B>=D@?C?>A=<>:9>:9?;:A=<B>=A=<A=<B>=@<9?;8>:7=96?:7A<9B=:C>;C?<B>;B>;B>;A=:?;8?;8A=:C?<C?<C?<B>;A=:A=:@<9>:7>96=85<74;63;63:52952841952;74=96>:7@<9A=:A=:A=:@<9A=:C?<B>;@<9>:7<85;74<85<85<85<85=96?;8A=:A=:@;8@<9C?<@<9?;8C?<EA>HDAFB?B>;A=:@<9A=:B>;C?<EA>GC@GCBEA@D@?D@?C?>B>=B>=D@?D@?D@?D@?EA@FBAGCBGCBGCBHDCHDCFBAD@?EA@GCBHDCHDCD@?C?>D@?D@?D@?C?>A=<?;:A=:A=:A=:B>;D@=FB?GC@FB?HDAHDAFB?C?<C>;C>;E@=E@=C>;C>;B=:B=:C?<EA>FB?EA>D@?D@?D@?D@?FBAGCBD@?@<;;74;74>:7D@=FBAD@?EA@GCBEA@D@?EA@FBAGCBFBAFBAFBAIEDIEDFBAA=<>:7?;8B>;C?<=96>:7A=:D@=EA>B>;A=:B>;HDAIEBHDAD@=A=:A=:C?<EA>D@=EA>GC@HDAHDAGC@GC@GC@JEBKFCJFCHDAD@?@<;@<;B>=D@?C?>@?=?><?><@?=BA=BA=EDBEDBDCABA?BA?CB@BA?@?=@?=?><>=;>=;=<:>=;>=;?><BA?CB@DCADCAEDBEDBEDBEDBDCAEDBDCACB@FBAGCBFBAC?>A=<@<;@<;C?>D@?D@?B>;A=:A=:A=:A=:A=:@<9A=:A=:B>;C?<B>;B>;B>;B>;B>;A@<BA=CB>CB>D@?D@?D@?D@?B>=@<;@;8@;8@;8>96;74952952952:63<85>:7?;8@<9A=:A=:@<9A=:C?<EA>D@=B>;>:7;74:63952:63;74;74=96>:7?;8?;8?;8A=:D@=@<9?;8B>;D@=FB?EA>D@=B>;A=:A=:A=:C?<EA>GC@HDCGCBFBAEA@C?>A=<B>=D@?D@?EA@EA@EA@EA@FBAGCBGCBGCBGCBEA@D@?D@?FBAGCBGCBC?>D@?EA@FBAFBAD@?A=<>:9@<9A=:A=:A=:B>;D@=D@=C?<EA>D@=C?<B>;C>;B=:C>;D?<D?<D?<C>;B=:B>;D@=EA>FB?EA@EA@D@?D@?GCBIEDFBAB>=;74=96A=:FB?GCBFBAFBAHDCEA@D@?EA@FBAGCBGCBEA@D@?GCBIEDHDCC?>?;8>:7A=:B>;@<9?;8A=:FB?GC@C?<?;8?;8D@=GC@IEBFB?B>;A=:C?<EA>C?<D@=EA>HDAIEBHDAHDAIEBKFCJEBIEBJFCGCBB>=A=<D@?D@?D@?BA?A@>A@>A@>BA=CB>DCADCADCACB@CB@DCACB@BA?CB@A@>?><>=;=<:=<:>=;?><A@>A@>BA?CB@DCADCADCADCADCADCACB@CB@FBAGCBFBAD@?A=<@<;A=<C?>EA@EA@C?<B>;@<9A=:B>;B>;B>;B>;B>;C?<C?<C?<D@=EA>EA>FB?ED@ED@ED@DC?EA@EA@FBAFBAD@?B>=A<9B=:B=:@;8>:7=96=96<85>:7@<9A=:A=:A=:B>;@<9?;8A=:C?<FB?FB?D@=?;8<85952841:63;74<85=96?;8?;8>:7@<9C?>EA@A=<@<;B>=C?>EA@D@?D@?C?>A=<@<;@<;B>=EA@FBAFECEDBDCACB@A@>@?=@?=BA?BA?DCADCACB@BA?CB@DCADCAEA@FBAEA@D@?D@?FBAGCBFBAEA@FBAGCBHDCHDCFBAB>=?;:>:7?;8A=:A=:A=:B>;B>;B>;B>;A=:A=:B>;C>;A<9@;8A<9D?<C>;C>;C>;C?<D@=FB?GC@FBAEA@C?>C?>FBAIEDGCBB>==96A=:EA>FB?FBAGCBHDCGCBD@?EA@FBAGCBHDCGCBFBAD@?GCBIEDIEDFBAB>;A=:A=:B>;D@=A=:C?<HDAKGDGC@A=:>:7B>;GC@JFCIEBEA>C?<D@=EA>C?<C?<D@=GC@IEBIEBJFCKGDKFCHC@IDAKFCHDAC?<A=<C?>D@?EA@EA@EA@A@>A@>A@<BA=BA?DCADCADCADCADCAEDBEDBEDBCB@@?==<:;:8;:8<;9=<:@?=@?=@?=BA?DCAEDBDCACB@DCACB@BA?BA?CB@EDBDCABA?>=;>=;?><A@>BA?@?=?>:?>:@<9A=:B>;B>;A=:@<9A=:A=:B>;C?<EA>GC@FEAFEAFEAFEAEDBEDBCB@CB@FBAFBAEA@B>=@;8A<9A=:@<9A=:A=:A=:@<9@<9A=:B>;B>;A=:B>;A=:?;8A=<C?>EA@FBAD@?@<;<87;76954;76=98>:9?;:A=<A=<@<;@<;EA@GCBB>=A=<C?>D@?EA@EA@C?>B>=@<;?;:?;:B>=EA@FBAEDBDCADCADCACB@A@>A@>A@>BA?DCAEDBCB@BA?CB@CB@CB@D@?EA@FBAEA@EA@GCBGCBGCBFBAGCBGCBHDCHDCFBAC?>A=<<85>:7@<9@<9A=:A=:B>;B>;A=:A=:A=:B>;B=:@;8>96=85?:7?:7@;8A<9A=:B>;D@=EA>EA@D@?B>=@<;B>=EA@D@?A=<>:7D@=GC@FB?EA@GCBHDCEA@D@?EA@GCBGCBHDCHDCFBAEA@FBAGCBHDCGCBEA>B>;A=:A=:EA>C?<D@=IEBMIFJFCC?<?;8B>;FB?KGDKGDIEBGC@EA>EA>EA>D@=D@=GC@IEBIEBJFCKGDLGDJEBIDAKFCIEBEA>B>=C?>D@?EA@FBAEA@BA?A@>A@<A@<CB@DCAEDBDCADCAEDBFECFECFECDCA@?=;:8875875986;:8>=;>=;>=;@?=BA?DCACB@BA?CB@A@>?><?><BA?CB@BA?@?==<:=<:>=;@?=?><=<:=<8=<8B>;B>;B>;B>;A=:@<9@<9?;8@<9B>;EA>FB?ED@ED@ED@ED@DCADCABA?A@>D@?D@?C?>B>=B=:D?<D@=C?<C?<C?<C?<A=:@<9A=:A=:@<9@<9A=:A=:@<9@<;B>=D@?EA@C?>A=<?;:>:9<87>:9?;:?;:@<;B>=B>=A=<@<;GCBHDCC?>B>=D@?D@?FBAFBAD@?D@?B>=@<;@<;C?>EA@FBACB@CB@CB@DCADCABA?A@>A@>BA?DCADCACB@DCAEDBDCAA@>B>=C?>EA@EA@EA@FBAGCBGCBFBAEA@FBAGCBGCBGCBEA@D@?=96>:7?;8?;8@<9A=:B>;B>;A=:A=:A=:A=:A<9@;8>96;63;63;63=85?:7@<9@<9A=:A=:B>=B>=A=<?;:?;:A=<B>=A=<?;8C?<EA>EA>EA@FBAFBAEA@D@?EA@FBAGCBHDCHDCGCBEA@D@?EA@GCBGCBEA>C?<B>;B>;C?<C?<EA>IEBLHEJFCEA>@<9@<9D@=IEBKGDKGDJFCHDAFB?GC@FB?EA>GC@HDAHDAHDAHDAMHDKFBJEBJEBJEBHC@FBAEA@C?>D@?EA@EA@EA>D@=A@<@?;BA?CB@CB@BA?CB@EDBFECFECFECEDBA@><;9764653764986>:9>:9?;:A=<C?>D@?CB@BA?A@>?><>=;?><A@>BA???===;;:8<;9=<:>=;>=;=<:=<8>=9?>:?>:@?;@?;B>;A=:?<7>;6?;8B>;EA>FB?CB>CB>DCADCACB@BA?A@>?><@<;A=<A=<@<;C>;GB?GC@EA>C?<C?<B>;@<9A=:A=:@<9?;8?;8@<9A=:A=:A=<C?>D@?D@?C?>C?>C?>C?>B>=B>=B>=A=<A=<A=<A=<@<;<;9HDCJFED@?C?>EA@EA@FBAFBAGCBGCBEA@B>=B>=D@?FBAFBABA?A@>BA?DCADCACB@A@>@?=CB@CB@CB@CB@EDBGFDEDB@?=?;:A=<C?>C?>C?>EA@FBAFBAFBAFBAFBAGCBHDCIEDHDCGCB?;8?;8>:7>:7?;8A=:B>;A=:@<9A=:A=:?;8@;8A<9>96;63;63;63=85@;8A=:@<9?;8?;8>:9A=<B>=@<;>:9@<;B>=C?>@<9A=:B>;D@=D@?D@?EA@FBAC?>D@?EA@FBAGCBHDCGCBD@?D@?EA@GCBGCBFB?D@=D@=EA>A=:C?<EA>HDAJFCJFCEA>@<9>:7A=:FB?IEBKGDKGDIEBGC@HDAFB?FB?GC@GC@GC@EA>EA>KFBID@HC@IDAJEBJEBGCBFBAA=<B>=C?>D@?EA>D@=A@<@?;?><@?=?><@?=BA?DCAEDBEDBGFDFECCB@>=;875653764986=98>:9@<;B>=D@?EA@DCADCABA?@?=?><A@>CB@DCA@@>==;:97:97<;9>=;?><?><?>:@?;<;7=<8>=9?>:B>;A=:?<7=:5?;8C?<FB?EA>BA=CB>DCAEDBBA?A@>?><=<:>:9?;:@<;?;:@;8D?<FB?D@=A=:B>;B>;A=:C?<B>;@<9>:7>:7?;8@<9@<9C?>D@?D@?EA@D@?EA@FBAGCBGCBGCBEA@C?>A=<@<;?;:>:9;:8GCBJFEEA@EA@FBAEA@FBAEA@HDCFBAFBAGCBHDCGCBD@?C?>A=<B>=D@?FBAFBAD@?B>=@<;A@>A@>A@>BA?CB@EDBEDBCB@A=<@<;@<;A=<D@?FBAFBAEA@FBAFBAFBAFBAGCBGCBHDCHDCC?>@<;>:9?;:?;:?;:@<;B>=B>=C?>C?>B>=A=<A=<@<;>:9=98<87=98@<;B>=A=<@<;?;:>:9=98>:9?;:?;:@<;A=<C?>EA@A=<@<;B>=D@?EA@EA@FBAC?>D@?EA@FBAHDCHDCFBAC?>C?<D@=EA>D@=EA>FB?GC@FB?A=:@<9@<9EA>HDAGC@EA>C?<?;8@<9A=:D@=GC@IEBIEBHDAHDAHDAHDAGC@GC@FB?EA>EA>GC@FB?FB?FB?GC@GC@HDCIEDD@?A=<@<9A=:B>;B>;B>;C?<B>;A=:A=:B>;B>=B>=FBAJFEIEDIEDHDCC?>=98:65954:65:65>:9@<;A=<C?>FBADCACB@@?=@?=A@>CB@CABA?@?=>?><@<;>:7=96>:7A=:C?<B>;A=:>:7>:7?;8@<9?;8>:7>:7@<9A=:D@=FB?D@=B>;A=:B>=C?>C?>@<;>:9@<;B>=B>=A=>@<;C?<C?<B>;C?<D@=D@=C?<A=:B>;C?<@<9=96<85;74<85@<9A@<BA=A@<?>:?><BA?DCAEDBDCACB@BA?A@>BA?A@>?><=<::97GCBIEDD@?D@?EA@EA@FBAEA@HDCHDCHDCIEDHDCFBAD@?C?>@<;A=<B>=D@?EA@D@?B>=@<;?><A@>BA?CB@EDBFECFECEDBB>=A=<@<;A=<C?>EA@FBAFBAFBAFBAEA@FBAGCBHDCHDCHDCGCBD@?B>=A=<A=<@<;A=<A=<B>=C?>C?>B>=B>=B>=B>=A=<A=<@<;@<;C?>EA@D@?B>=A=<@<;@<;@<;@<;?;:?;:A=<C?>D@?B>=A=<A=<B>=B>=C?>D@?D@?EA@EA@FBAGCBHDCFBAD@?A=:C?<EA>D@=D@=EA>FB?FB?A=:?;8>:7A=:D@=D@=C?<C?<@<9>:7=96>:7@<9C?<EA>FB?EA>FB?GC@GC@GC@FB?EA>EA>GC@FB?FB?FB?GC@HDAHDCGCBC?>A=<@<9@<9@<9@<9@<9A=:B>;A=:@<9@<9>:9=98@<;EA@IEDIEDIEDEA@@<;<87:65:65;76>:9@<;@<;C?>FBAEDBDCAA@>@?=@?=BA?DBCCABB@AA@>A=:?;8>:7>:7@<9B>;C?<C?<A=:@<9?;8@<9@<9?;8?;8@<9@<9C?<D@=C?<B>;A=:A=<A=<@<;>:9>:9?;:A=<A=<@<=?;:?;8@<9A=:B>;C?<C?<C?<D@=B>;B>;>:7;74:63:63:63=96?>:A@<A@<@?;?><@?=BA?CB@CB@CB@BA?A@>A@>@?=>=;<;9=<:FBAHDCD@?C?>EA@D@?FBAFBAFBAGCBHDCHDCFBAC?>A=<A=<A=:A=:A=:C?<D@=D@=A=:?;8<;9?><BA?EDBFECGFDGFDFECD@?B>=A=<A=<C?>D@?FBAFBAFBAEA@EA@FBAGCBHDCIEDHDCIEDHDCFBAD@?C?>D@?C?>C?>C?>D@?D@?C?>C?>D@?EA@D@?D@?C?>C?>EA@HDCGCBFBAD@?D@?C?>B>=A=<?;:?;:A=<C?>D@?D@?C?>A=<A=<B>=C?>C?>EA@EA@EA@D@?EA@FBAFBAEA@@<9B>;D@=C?<C?<D@=EA>GC@C?<@<9=96>:7A=:C?<D@=D@=A=:?;8<85;74=96?;8B>;C?<A=:C?<D@=EA>EA>EA>EA>EA>GC@GC@GC@FB?GC@IEBHDAFB?D@=B>;A=:@<9@<9?;8@<9@<9A=:@<9A=:@<9=96;74<85?;8EA@GCBHDCFBAB>==98:65954=98>:9?;:@<;C?>FBAHDCGCBCB@A@>@?=A@>CB@DCADCADCAC?<B>;@<9@<9@<9B>;D@=FB?FB?D@=C?<C?<C?<A=:@<9?;8?;8A=:B>;B>;B>;A=:@<;?;:<87;76<87>:9?;:?;:>:9>:9=96?;8A=:B>;B>;B>;C?<EA>C?<B>;>:7:63952952841:63=<8@?;BA=BA=@?=@?=A@>A@>CB@BA?A@>@?=>=;=<:<;9<;9A=<D@?GCBD@?C?>EA@D@?FBAEA@EA@EA@FBAFBAC?>@<;?;:@<;B>;A=:A=:B>;D@=C?<A=:?;8;:8=<:@?=DCAFECHGEHGEGFDFBAD@?B>=A=<B>=D@?EA@FBAFBAEA@EA@EA@GCBHDCIEDHDCGCBHDCGCBEA@EA@GCBGCBEA@EA@EA@EA@D@?D@?EA@FBAFBAD@?C?>C?>EA@HDCIEDGCBFBAFBAEA@D@?B>=@<;?;:A=<D@?EA@FBAEA@C?>C?>D@?EA@C?>EA@EA@D@?B>=B>=D@?EA@EA@?;8A=:B>;B>;B>;C?<EA>FB?EA>B>;?;8?;8A=:D@=FB?GC@B>;A=:>:7=96=96?;8@<9@<9>:7?;8@<9@<9A=:B>;D@=FB?GC@HDAGC@D@=D@=HDAHDAFB?EA>C?<B>;A=:A=:A=:A=:A=:?;8?;8B>;D@=C?<>:7<85=96@<;C?>EA@FBAD@?@<;<87954=98?;:?;:@<;A=<EA@GCBGCBDCABA?A@>A@>BA?CB@DCAEDBGC@GC@FB?D@=D@=D@=FB?HDAHDAHDAHDAHDAFB?B>;?;8=96>:7@<9A=:A=:B>;A=:?;:<87843843954<87=98=98=98?;:>:7@<9B>;B>;A=:A=:B>;C?<C?<C?<?;8:63952841841:63=<8@?;BA=BA=A@>@?=@?=@?=BA?BA?@?=>=;;:8;:8;:8<;9A=<D@?GCBEA@EA@FBAD@?EA@D@?EA@D@?C?>C?>A=<@<;?;:@<;@<9@<9A=:B>;B>;B>;A=:A=:<;9<;9>=;A@>EDBGFDGFDGFDFECDCABA?@?=@?=A@>BA?CB@DCACB@CB@CB@DCAEDBEDBFECFBAGCBFBAEA@FBAHDCIEDHDCGCBGCBFBAD@?D@?EA@FBAEA@D@?C?>C?>D@?GCBHDCGCBEA@FBAEA@EA@C?>@<;@<;B>=FBAFB?GC@FB?EA>EA>GC@FB?D@=C?<C?<B>;A=:A=:C?<FB?FB?@<9@<9A=:B>;B>;C?<EA>FB?GC@D@=B>;A=:B>;EA>HDAIEBB>;A=:?;8>:7=96>:7>:7>:7>:7>:7=96<85<85>:7C?<GC@HDAIEBFB?B>;A=:EA>HDAHDAFB?EA>C?<B>;A=:A=:@<9?;8=96=96A=:EA>GC@D@=@<9>:7?;8A=:D@=FB?FB?B>;=96952=98>:9@<;?;:?;:A=<D@?GCBFECEDBDCABA?A@>BA?DCAFECJFCJFCJFCIEBHDAGC@GC@HDAIEBIEBIEBHDAD@=?;8=96<85>:7?;8@<9A=:A=:A=:>:9;76732843954;76<87=98>:9@<;@<;A=<B>=B>=B>=A=<B>=B>=C?>D@?A=<;76843732732:65>=9?>:A@<A@<A@>@?=?><?><@?=@?=?><>=;<;9;:8;:8<;9?;:C?>HDCEA@FBAFBAD@?D@?C?>C?>A=<@<;@<;@<;?;:?;:?;:>:7?;8@<9A=:A=:B>;B>;B>;=<:<;9<;9?><CB@EDBFECFECFECEDBCB@A@>A@>A@>BA?CB@DCADCACB@BA?BA?CB@DCADCAGCBFBAEA@EA@EA@GCBHDCHDCGCBGCBGCBEA@D@?EA@D@?D@?D@?EA@D@?D@?EA@FBAEA@D@?EA@FBAEA@D@?A=<?;:B>=EA@EA>FB?FB?FB?FB?GC@EA>C?<A=:B>;A=:@<9A=:D@=GC@HDAB>;A=:A=:B>;C?<C?<D@=EA>GC@FB?D@=B>;C?<FB?GC@HDAC?<B>;@<9>:7=96>:7>:7?;8@<9@<9>:7;74:63=96C?<HDAHDAHDAEA>A=:?;8B>;FB?GC@HDAGC@EA>C?<B>;A=:@<9?;8<85;74=96B>;FB?EA>B>;A=:?;8A=:C?<EA>EA>B>;=96841<87>:9?;:?;:=98>:9A=<D@?FECFECFECCB@A@>A@>CB@DCAGC@IEBJFCJFCIEBHDAGC@HDAIEBHDAFB?D@=?;8<85<85=96?;8@<9@<9@<9A=:@<9>:9;76:65:65:65<87=98>:9?;:A=<A=<B>=B>=B>=C?>C?>B>=B>=A=<D@?A=<;76732621732954=<8>=9?>:A@<A@>?><>=;?><<;9>=;@?=A@>@?=>=;<;9;:8=98D@=HDAEA@EA@EA@C?>C?>B>=B>=@<;?;:@<;@<;?;:?;:?;:?;8?<7?<7@=8A=:B>;B>;B>;>=;<;9<;9>=;B@ACABDBCECDDCADCADCACB@BA?BA?CB@DCACB@DCADCABA?@?=@?=BA?CB@DCABA?A@>A@>BA?BA?CB@EDBDCADCADCACB@BA?BA?A@>@?=D@?EA@EA@D@?C?>D@?D@?D@?EA@FBAFBAD@?A=<?;:@<;D@?FB?FB?GC@HDAHDAEA>C?<B>;A=:A=:A=:@<9@<9C?<FB?GC@C?<C?<C?<C?<C?<C?<D@=FB?HDAHDAFB?D@=D@=EA>FB?FB?C?<B>;A=:@<9?;8?;8@<9A=:B>;B>;@<9>:7<85>:7C?<HDAFC>FC>D@=B>;A=:A=:C?<EA>FB?GC@GC@D@=B>;A=:A>9A>9<94:72;83?<7C?<C?<B>;B>;@<9@<9A=:C?<D@=B>;=96952<74>96>:7>:7<85<85=98?;:D@?EA@CB@A@>?><@?=@?=A@>B>;D@=FB?GC@GC@GC@FB?FB?GC@EA>C?<A=:>:7=96>:7@<9A=:A=:A=:@<9@<9@<9>:7<85<87<87<87>:9>:9>:9?;:@<;?><@?=@?=A@>A@>A@>A@>A@>?><BA??><986764653653764<;7=<8@?;BA=A@>?><>=;?><<;9>=;@?=BA?BA?A@>?><>=;?;:EA>HDAEA@D@?D@?A=<B>=A=<B>=B>=A=<B>=B>=A=<@<;A=:B>;A>9?<7@=8B>;B>;B>;@<9>=;=<:=<:?><A?@B@ACABDBCCB@DCADCACB@BA?BA?CB@DCACB@DCADCABA??><?><@?=BA?CB@@?=>=;?><@?=@?=A@>DCABA?CB@DCACB@BA?BA?A@>?><C?>EA@EA@D@?C?>D@?EA@EA@EA@FBAGCBEA@A=<>:9?;:B>=HDAHDAIEBKGDIEBD@=B>;B>;A=:B>;B>;@<9?;8A=:C?<EA>D@=D@=D@=D@=C?<B>;D@=GC@JFCJFCHDAEA>D@=EA>FB?FB?B>;B>;B>;A=:A=:A=:A=:A=:C?<C?<B>;@<9>:7?;8C?<GC@EB=DA<C?<C?<C?<A=:A=:B>;A=:D@=FB?C?<@<9?;8A>9B?:=:5;83;83?<7B>;B>;A=:B>;A=:A=:A=:C?<EA>D@=?;8;74<74=85=96=96<85;74;76<87@<;A=<?><>=;=<:=<:>=;=<:=96?;8A=:D@=EA>EA>EA>D@=EA>D@=B>;A=:@<9?;8@<9B>;B>;B>;B>;@<9@<9@<9>:7=96=98=98=98?;:?;:>:9=98>:9?><@?=A@>A@>A@>A@>A@>A@>A@>CB@@?=;:8986875875875;:6=<8A@<DC?BA??><>=;@?=>=;?><@?=A@>BA?BA?BA?A@>D@?C?<FB?C?<C?<C?<A=:C?>EA@FBAGCBFBAD@?B>=C?>D@?D@=A@<@?:@?:@?:@?;@?;@?;@?;D@?B>=A=<B>=D@AD@AEABFBCBA?BA?BA?BA?BA?BA?CB@CB@DCADCAEDBCB@A@>A@>BA?CB@EDBBA?@?=>=;>=;?><A@>DCAA@>A@>A@>BA?BA?A@>?><=<:A=<D@?FBAFBAEA@EA@D@?D@?HDCIEDHDCD@?@<;?;:?;:@<;D@=FB?HDAHDAGC@EA>C?<B>;@<9@<9A=:B>;B>;B>;B>;D@=EA>EA>FB?GC@GC@EA>FB?GC@KGDKGDJFCGC@EA>EA>GC@GC@B>;@<9@<9B>;C?<A=:B>;EA>EA>C?<A=:@<9?;8?;8A=:C?<B?:C@;D@=EA>EA>C?<B>;@<9?;8A=:C?<B>;@<9?;8A>9DA<@=8>;6;83=:5B>;FB?EA>C?<?;8@<9B>;C?<EA>FB?B>;?;8<74<74<74=85=85=85<85<85?;8@<9@<;?;:?;:@<;>=;=<:;74<85?;8A=:A=:A=:B>;C?<D@=B>;@<9?;8?;8>:7@<9C?<B>;B>;B>;B>;A=:@<9?;8@<9>:9?;:A=<B>=A=<?;:>:9?;:?><>=;?><BA?DCACB@A@>@?=BA?BA?A@>?><;:8986:97;:8@<9@<9A=:C?<A=<?;:?;:A=<@<;>:9>:9A=<C?>EA@GCBIEDGFDB>;EA>B>;B>;B>;@<9C?>FBAHDCHDCHDCFBAEA@EA@GCBGCBCB>CB=BA<A@;A@<A@<@?;@?;C?>B>=A=<B>=B>?C?@D@AEABA@>@?=@?=A@>BA?CB@CB@CB@DCAEDBEDBEDBDCADCADCADCAEDBDCACB@A@>?><=<:?><BA?CB@BA?BA?CB@CB@BA?@?=>=;?;:A=<C?>C?>C?>C?>C?>C?>GCBHDCHDCEA@B>=@<;?;:?;:@<9B>;D@=FB?FB?EA>B>;A=:@<9@<9A=:A=:A=:B>;C?<D@=D@=EA>HDAJFCJFCGC@FB?FB?IEBJFCIEBGC@FB?FB?FB?EA>D@=A=:A=:D@=D@=B>;C?<EA>GC@EA>B>;A=:@<9?;8?;8@<9B?:C@;D@=FB?FB?FB?EA>D@=B>;B>;B>;A=:?;8?;8@=8B?:A>9?<7=:5>;6B>;EA>EA>C?<>:7?;8?;8A=:D@=D@=A=:<85:52;63<74=85>96?:7=96<85>:7@<9A=<@<;?;:?;:=<:=<:<85<85>:7@<9@<9@<9@<9A=:C?<@<9?;8>:7>:7>:7@<9A=:B>;A=:A=:B>;A=:@<9@<9A=:@<;A=<C?>D@?C?>@<;>:9>:9?><>=;?><A@>BA?A@>@?=?><BA?CB@CB@@?=<;9:97:97<;9?;8@<9A=:B>;A=<@<;@<;A=<@<;>:9=98?;:B>=EA@GCBJFEHGEB>;FB?B>;A=:@<9?;8B>;EA>HDCIEDIEDGCBGCBHDCIEDJFEED@ED@CB>BA=A@<A@<A@<A@<A=<A=<@<;A=<A=<A=<C?>EA@A@>@?=?><@?=A@>CB@BA?BA?BA?CB@DCAEDBFECFECFECEDBEDBGFDGFDEDBA@>=<:=<:@?=CB@CB@CB@DCADCACB@A@>@?=A=<B>=C?>B>=B>=C?>C?>C?>FBAGCBGCBFBAD@?B>=@<;>:9=96?;8A=:D@=EA>D@=@<9>:7?;8A=:B>;B>;C?<EA>EA>D@=B>;C?<FB?IEBIEBGC@FB?EA>HDAHDAHDAHDAHDAHDAHDAFB?FB?C?<C?<EA>EA>D@=EA>GC@HDAFB?C?<B>;@<9?;8>:7>:7@<9B>;D@=EA>FB?GC@FB?EA>EA>C?<B>;@<9@<9@<9@<9@<9A=:@<9?;8?;8A=:D@=EA>EA>?;8>:7>:7@<9C?<EA>A=:=96:52:52<74?:7A<9A<9@;8>96<85?;8A=:A=:A=:@<9@<9?;8=96=96>:7@<9@<9@<9@<9A=:B>;@<9?;8?;8?;8?;8?;8@<9@<9@<9@<9@<9@<9?;8@<9B>;B>;C?<EA@FBAEA@A=<?;:?;:B>=A=<A=<B>=B>=B>=A=<A=<D@?FBAGCBD@?@<;=98=98?;:?;8@<9@<9A=:A=<B>=A=<A=<@<;>:9<87>:9@<;D@?GCBIEDFECD@=GC@B>;@<9?;8=96A=:C?<GCBGCBGCBFBAFBAHDCIEDIEDFEAED@CB>A@<@?;?>:?>:?>:?;:>:9>:9?;:@<;A=<C?>D@?BA?@?=?><@?=BA?CB@BA?A@>?><?><@?=BA?DCAEDBEDBEDBEDBGFDIHFHGECB@>=;=<:>=;A@>A@>BA?CB@DCADCACB@BA?EA@FBAFBAD@?C?>EA@FBAEA@FBAFBAFBAFBAEA@D@?A=<?;:>:7>:7@<9B>;C?<B>;?;8<85=96@<9A=:B>;EA>GC@EA>A=:@<9@<9A=:C?<D@=D@=D@=D@=EA>EA>EA>GC@HDAJFCIEBHDAGC@EA>D@=EA>FB?EA>FB?HDAHDAEA>C?<B>;B>;A=:?;8?;8@<9A=:C?<EA>FB?FB?FB?EA>FB?EA>D@=C?<C?<C?<B>;@<9B>;A=:@<9?;8@<9D@=GC@HDAB>;@<9?;8@<9D@=GC@D@=@<9<74<74=85@;8B=:C>;B=:@;8<85>:7A=:B>;B>;B>;@<9>:7=96>:7?;8@<9@<9@<9@<9A=:D@=B>;A=:A=:A=:A=:@<9?;8>:7>:7>:7>:7>:7?;8@<9A=:A=:B>;D@?FBAEA@B>=@<;@<;B>=A=<A=<A=<A=<@<;@<;@<;C?>FBAHDCEA@@<;=98>:9?;:?;8@<9@<9?;8@<;B>=A=<?;:?;:=98<87=98?;:B>=D@?FBABA?D@=GC@B>;?;8>:7=96A=:C?<EA@FBAFBAEA@FBAHDCIEDHDCDC?CB>A@<?>:>=9=<8=<8=<8=98;76;76=98@<;B>=C?>C?>EA@C?>B>=C?>D@?FBAEA@D@?B>=B>=A=<B>=D@?EA@EA@EA@DCAFECIHFIHFFECA@>?><?><@?=A@>BA?DCAEDBEDBEDBEDBHDCIEDGCBEA@EA@HDCIEDHDCGCBFBAEA@EA@FBAEA@C?>B>=A=:@<9?;8@<9B>;B>;@<9>:7<85=96>:7@<9D@=FB?D@=@<9B>;A=:@<9@<9A=:B>;B>;A=:A=:@<9@<9B>;EA>GC@IEBJFCHDAFB?EA>EA>EA>D@=EA>GC@HDAEA>C?<C?<D@=B>;A=:@<9A=:B>;D@=EA>FB?FB?FB?FB?FB?GC@GC@GC@GC@GC@EA>C?<A=:A=:@<9>:7?;8C?<HDAKGDIEDFBAC?>C?>FBAHDCFBAD@?A<9@;8?:7@;8B=:D?<C>;B=:?;8?;8A=:B>;D@=C?<@<9<85;74<85=96?;8?;8>:7@<9B>;EA>D@=C?<B>;B>;B>;?;8=96=96=96>:7=96>:7>:7?;8@<9@<9A=:B>=C?>C?>A=<@<;@<;B>;A=:A=:A=:@<9?;8?;8@<9B>;FB?HDAEA>@<9>:7>:7>:7@<9A=:@<9?;8@<;A=<@<;>:9?;:>:9=98=98>:9@<;A=<A=<=<:C?<EA>@<9>:7>:7?;8C?<D@=EA@EA@EA@EA@GCBHDCHDCGCBCB>BA=A@<?>:=<8<;7<;7<;7=98;76;76>:9A=<C?>C?>C?>C?>B>=B>=C?>EA@FBAFBAFBAFBAEA@C?>B>=B>=C?>D@?D@?BA?DCAGFDHGEGFDCB@A@>A@>A@>BA?CB@DCAEDBFECFECFECHDCIEDHDCEA@GCBKGFMIHLHGGCBFBAEA@EA@FBAFBAEA@EA@C?<A=:@<9@<9A=:B>;B>;B>;>:7=96=96?;8B>;EA>D@=C?<FB?EA>D@=C?<D@=EA>C?<@<9?;8>:7>:7@<9B>;EA>HDAJFCJFCIEBGC@EA>C?<A=:C?<EA>HDAFB?EA>EA>EA>C?<B>;B>;@<9A=:C?<D@=EA>FB?EA>EA>C?<FB?HDAHDAIEBIEBHDAFB?A=:A=:@<9>:7?;8C?<HDAKGDLHGKGFHDCFBAFBAGCBFBAD@?D?<B=:@;8@;8A<9C>;C>;C>;B>;A=:A=:C?<D@=D@=?;8:63;74;74<85>:7?;8?;8A=:C?<EA>EA>D@=C?<B>;A=:?;8<85;74<85=96<85<85=96=96<85?;8?;8@<;B>=A=<?;:>:9>:9@<9@<9A=:A=:@<9>:7>:7?;8B>;FB?HDAEA>@<9>:7>:7>:7@<9@<9?;8?;8?;:@<;?;:>:9?;:>:9=98=98>:9?;:?;:>:9:97B>;EA>?;8=96?;8A=:D@=D@=D@=EA>EA@EA@GCBHDCGCBEA@CB>CB>A@<@?;?>:>=9=<8=<8>:7=96=98@<;B>=C?>B>=B>=B>=B>=B>=C?>D@?EA@FBAFBAGCBFBAD@?C?>B>=B>=C?>C?>C?>EA@GCBIEDHDCFBAEA@EA@D@?D@?EA@FBAFBAFBAFBAFBAGCBGCBFBAD@?FBAKGFMIHLHGHDCFBAEA@FBAFBAFBAGCBGCBEA>C?<A=:@<9A=:B>;C?<C?<?;8=96>:7@<9B>;C?<EA>HDAIEBHDAFB?FB?GC@HDAEA>B>;?;8>:7>:7?;8@<9B>;FB?IEBIEBIEBHDAEA>A=:?;8B>;EA>HDAGC@FB?FB?FB?EA>D@=EA>B>;B>;C?<D@=D@=D@=D@=C?<A=:C?<EA>FB?HDAIEBIEBFB?A=:A=:A=:?;8?;:B>=FBAIEDIEDJFEIEDFBAD@?D@?D@?D@?D?<B=9@;8?:7?:7A<9B=:C>;C>;C>;B>;C?<EA>EA>A=:<85<85;74;74>:7@<9B>;B>;C?<EA>FB?FB?D@=C?<B>;@<9>:7;83=:5>:7>:7=96=96<85;74=96=96?;:A=<A=<?;:>:9>:9>:7?;8@<9A=:@<9>:7>:7>:7C?<FB?GC@D@=@<9?;8>:7=96?;8>:7>:7?;8?;:?;:?;:@<;?;:?;:>:9=98>:9?;:?;:>:9<87C?<EA>?;8=96@<9B>;D@=C?<C?<D@=D@?D@?FBAGCBEA@C?>DCACB>CB>A@<@?;?>:?>:>=9@<9?;8@<;B>=C?>C?>B>=B>=B>=B>=B>=B>=C?>C?>D@?D@?EA@D@?C?>B>=B>=B>=C?>D@?C?>EA@GCBHDCGCBEA@EA@GCBD@?D@?D@?D@?D@?C?>C?>B>=D@?EA@C?>A=<C?>HDCJFEHDCGCBFBAEA@FBAGCBGCBGCBIEDGC@EA>B>;@<9@<9A=:B>;B>;=96=96?;8B>;B>;A=:D@=JFCIEBHDAFB?EA>HDAJFCHDAEA>?;8>:7=96>:7>:7?;8B>;FB?HDAHDAHDAEA>@<9?;8B>;FB?GC@GC@GC@GC@GC@FB?FB?HDAEA>EA>EA>EA>EA>D@=C?<B>;?;8A=:C?<C?<FB?IEBHDAEA>A=:B>;B>;@<9@<;B>=D@?FBAD@?FBAGCBEA@C?>B>=C?>C?>B=:A<9?:7>96>96@;8B=:C>;A<9B=:A=:C?<EA>EA>C?<@<9<85952952<85@<9B>;B>;A=:FB?GC@HDAFB?D@=C?<B>;@<9>;6A>9B>;B>;A=:@<9>:7<85:63;74>:9A=<B>=A=<?;:>:9<85=96@<9A=:@<9>:7=96>:7C?<FB?GC@D@=A=:@<9?;8=96=96<85=96?;8?;:>:9?;:A=<?;:?;:>:9=98>:9@<;@<;?;:>:9D@=EA>@<9A=:BA=BA=BA?A@>A@>BA?CB@DCAGCDFBCEABD@?CB@EDBFECFECDCAA@>@?=?><CB@A@>@?=A@>A@>A@>?><?><A@>A@>A=<@<;B>=EA@EA@C?>B>=B>=D@?D@?C?>B>=A@>CB@EA@GCBHDCGCBEA@D@?EA@EA@FBAFBAFBAEA@C?>A=<?;:?;:=98>:9?;:?;:@?=CB@FECFECDCADCADCADCAFBAEA@FBAGCBHDAFB?C?<@<9?;8>:7?;8@<9;74;74;74;74<85?;8D@?GCBHDAD@=A=:C?<GC@IEBIEBIEBB>;>:7<85=96>:7?;8B>;FB?JFCHDAFB?D@=A=:@<9B>;EA>EA>IEBIEBGC@FB?FB?EA>EA>EA>FB?HDAHDAEA>A=:A=:B>;@<9?;8>:7A=:D@=FB?GC@GC@B>=C?>B>=?;:>:9?;:@<;A=<C?>EA@FBAEA@D@?D@?C?>B>=A=<?;:<87<87=98?;:A=:A=:@<9A=:B>;D@=EA>D@=B>;?;8=96952730;74>:7>:7?;8A=:FB?GC@HDAFB?EA>D@=C?<C?<A=:A=:@<9A=:C?<D@=B>;?;8;74;74>:7B>;B>;@<9?;8@<9?;:>:9?;:@<;@<;?;:@<;A=<D@?FBAGCBEA@B>=@<;>:9;76?;8?;8>:7>:7?;8@<9A=<A=<;76<87=98=98>:9>:9@<;A=<>:9D@=EA>@<9B>;CB>BA=BA?A@>A@>A@>A@>BA?EABEABD@AC?@CB@EDBFECFECEDBCB@BA?A@>DCACB@BA?CB@CB@BA?A@>A@>A@>A@>B>=A=<A=<B>=C?>B>=B>=B>=C?>C?>B>=A=<@?=BA?D@?FBAGCBFBAEA@D@?D@?EA@EA@EA@EA@D@?B>=?;:<87;76;76;76<87=98>=;BA?DCAEDBBA?@?=@?=@?=C?>C?>D@?FBAGC@D@=A=:?;8>:7=96=96=96;74;74;74:63:63=96A=<D@?FB?B>;@<9B>;EA>FB?GC@HDAC?<@<9>:7?;8@<9A=:D@=GC@IEBFB?B>;@<9>:7>:7?;8A=:C?<IEBJFCIEBIEBHDAEA>EA>FB?FB?GC@GC@D@=B>;A=:B>;A=:@<9?;8A=:B>;B>;B>;C?<B>=B>=A=<?;:=98>:9?;:?;:B>=EA@GCBGCBD@?C?>B>=A=<>:9=98;76:65<87>:9@<9@<9>:7>:7@<9C?<EA>EA>C?<A=:>:7:63952<85>:7=96>:7@<9GC@GC@GC@GC@FB?D@=C?<B>;A=:A=:A=:A=:C?<EA>C?<A=:<85;74<85@<9B>;A=:A=:A=:@<;@<;@<;A=<A=<@<;@<;A=<B>=D@?EA@C?>A=<?;:<87;76>:7>:7>:7>:7>:7>:7?;:>:9?;:?;:?;:?;:?;:?;:@<;@<;?;:EA>FB?C?<D@=ED@DC?CB@BA?BA?A@>@?=A@>EA@EA@EA@C?>CB@DCAFECGFDFECEDBEDBEDBFECDCACB@DCADCACB@BA?BA?A@>@?=B>=B>=B>=A=<@<;@<;A=<A=<A=<@<;?;:?;:>=;@?=A=<B>=D@?D@?C?>B>=B>=C?>C?>D@?D@?C?>@<;=98;76954:65:65;76<87=<:A@>CB@CB@A@>?><>=;?><B>=C?>D@?FBAFB?EA>B>;@<9?;8>:7>:7=96=96>:7>:7=96;74<85?;8B>;EA>C?<A=:A=:B>;C?<EA>GC@D@=B>;A=:A=:A=:B>;D@=GC@GC@C?<@<9>:7=96=96<85<85B>;HDALHEKGDKGDIEBFB?FB?GC@FB?EA>EA>C?<A=:A=:B>;@<9?;8@<9A=:A=:@<9@<9A=:A=:B>;A=<?;:>:9>:9?;:?;:B>=FBAIEDIEDFBAD@?B>=A=<<87;76:65;76<87>:9?;8@<9<85<85>:7A=:D@=EA>C?<A=:>:7;74:63=96>:7=96=96?;8EA>EA>EA>FB?GC@FB?C?<B>;A=:A=:A=:B>;D@=EA>D@=B>;>:7;74:63=96A=:C?<C?<C?<A=:A=:B>=B>=A=<@<;@<;A=<@<;B>=C?>A=<?;:=98<87:65;74<85>:9?;:?;:?;:@<;A=<C?>B>=A=<A=<A=<A=<A=<A=<?;:EA>GC@D@=EA>ED@CB>CB@A@>CB@BA?A@>A@>D@?D@?EA@D@?CB@EDBFECGFDGFDGFDGFDHGEGFDDCABA?CB@DCADCACB@BA?A@>?><@<;B>=C?>@<;?;:?;:?;:>:9>:9>:9>:9=98;:8<;9?;:@<;A=<B>=A=<?;:?;:?;:@<;A=<A=<@<;>:9=98;76;76954;76<87=98>=;@?=A@>@?=A@>?><>=;?><B>=C?>D@?EA@EA>EA>D@=C?<A=:@<9?;8?;8>:7@<9A=:@<9>:7=96?;8@<9EA>D@=C?<B>;A=:B>;D@=GC@FB?D@=B>;B>;B>;A=:B>;C?<D@=C?<A=:?;8>:7=96;74:63A=:HDALHEKGDKGDJFCGC@GC@GC@FB?EA>C?<A=:?;8?;8A=:@<9@<9A=:B>;A=:?;8?;8@<9A=:B>;B>=A=<?;:@<;A=<A=<B>=FBAHDCHDCFBAD@?B>=A=<;76:65:65=98?;:A=<@<9>:7:63:63<85?;8B>;D@=B>;@<9>:7;74;74=96>:7=96>:7?;8B>;A=:A=:D@=GC@FB?C?<A=:@<9@<9A=:B>;D@=EA>D@=C?<@<9<85:63<85A=:C?<EA>EA>C?<B>;B>=B>=B>=A=<@<;?;:?;:@<;A=<@<;?;:=98<87<87<85=96?;:A=<A=<A=<C?>EA@FBAD@?B>=B>=B>=B>=B>=B>=?;:FBAHDCEA@FBAEDBBA?BA?@?=A@>BA?A@>A@>B>=B>=D@?EA@DCAEDBFECFECFECGFDHGEIHFGFDCB@@?=A@>DCAEDBDCABA?A@>=<:>:9@<;B>=A=<?;:?;:=98<87=98=98=98;76986986?;:?;:@<;A=<@<;>:9=98=98=98=98=98=98<87;76<87<87843:65=98?;:?><@?=@?=>=;?><>=;>=;?><A=<?;:@<;C?>B>=C?>EA@D@?B>=A=<@<9A=:=96?;8A=:A=:?;8>:7>:7>:7C?<C?<C?<B>;A=:B>;EA>GC@GC@EA>D@=C?<B>;@<9?;8?;8B>;B>;B>;@<9=96<85;74;74B>;HDAJFCIEBJFCIEBGC@GC@GC@FB?FB?C?<@<9=96=96?;8A=:A=:B>;A=:@<9=96=96>:7B>;C?<B>;A=:@<;A=<C?>C?>D@?EA@EA@D@?B>=A=<?;:>:9;76:65;76>:9B>;C?<@<9<85841841:63=96@<9B>;A=:@<9?;8=96<85=96>:7=96>:7?;8@<9>:7?;8B>;FB?EA>B>;?;8?;8@<9A=:A=:C?<D@=D@=B>;@<9>:7<85=96@<9C?<EA>FB?D@=C?<B>;A=:B>=B>=@<;>:9>:9?;:@<;@<;?;:>:9=98>:9@<;@<;A=<B>=A=<A=<B>=EA@GCBEA@C?>A=<A=<A=<A=:A=:?;:GCBJFEFBAGCBEDBCB@CB@BA?BA?CB@CB@BA?C?>C?>D@?EA@EDBFECFECEDBDCAEDBFECHGEFECBA??><@?=DCAEDBEDBCB@A@>=<:<87>:9A=<B>=@<;>:9=98<87=98>:9=98;76875875?;:>:9>:9@<;?;:<87:65:65;76;76;76;76:65:65;76;76954<87?;:A=<BA?CB@BA?@?=?><>=;>=;?><@<;=98>:9@<;@<;C?>EA@FBAEA@C?>B>;B>;>:7?;8A=:A=:A=:?;8>:7>:7>:7@<9A=:A=:A=:D@=FB?GC@GC@GC@FB?EA>C?<A=:>:7=96A=:C?<B>;?;8;74;74<85=96B>;GC@HDAGC@HDAHDAFB?EA>FB?FB?GC@EA>A=:=96=96>:7A=:@<9@<9@<9?;8=96=96?;8B>;C?<B>;@<9?;:@<;B>=D@?FBAEA@D@?B>=@<;@<;>:9=98;76;76<87@<;D@=D@=?;8;74841952;74>:7@<9A=:B>;A=:A=:@<9>:7>:7=96=96>:7@<9B>;?;8>:7B>;D@=C?<@<9>:7?;8@<9A=:A=:B>;C?<C?<B>;A=:@<9>:7?;8@<9B>;D@=EA>D@=C?<B>;B>;B>=C?>A=<?;:?;:?;:@<;@<;?;:>:9>:9?;:@<;?;:?;:@<;@<;@<;B>=D@?GCBEA@B>=@<;?;:>:9>:7>:7?;:GCBIEDFBAFBADCABA?CB@CB@CB@DCADCADCAEA>D@=EA>FB?FECEDBDCACB@BA?BA?CB@DCACB@@?=>=;@?=BA?DCAEDBEDBBA=?>:=96<85?;8B>;A=:?;8?;8>:7>:7?;8>:7=96984984>=;<;9=<:?><?><;:8875875:97:97;:8;:8:97986986986<87>:9A=<C?>DCAEDBDCACB@BA??><>=;?><A=<>:9>:9A=<@<;B>=D@?FBAGCBFBAC?>B>=B>;B>;B>;B>;B>;A=:?<7>;6=96>:7@<9A=:C?<EA>FB?FB?GC@GC@GC@FB?EA>B>;?;8>:7A=:C?<D@=A=:=96<85=96=96A=:EA>FB?EA>GC@GC@C?<A=:C?<D@=FB?GC@EA>B>;A=:B>;B>;A=:@<9@<9@<9?;8@<9B>;D@=C?<A=:>:7=96>:7A=:B>;EA@EA@D@?A=<@<;@<;@<;?;:=96=96>:7A=:D@=D@=@<9=96<85>:7@<9A=:B>;C?<D@=D@=C?<B>;@<9>:7=96=96@<9B>;D@=@<9?;8B>;D@=C?<@<9>:7@<9A=:B>;B>;B>;C?<C?<B>;B>;A=:@<9@<9A=:B>;B>;B>;B>;C?<C?<B>;A=:A=:A=:@<9?;:?;:@<;@<;>:9=98=98>:9?;:=98>:9@<;A=<@<;A=<C?>D@?C?>@<9>:7<85;74<85=96=98D@?GCBC?>C?>A@>@?=A@>BA?BA?CB@DCADCAEA>EA>D@=D@=FECEDBDCAA@>@?=?><@?=BA?A@>?><>=;?><A@>CB@DCAFECDC?BA=@<9=96>:7B>;B>;@<9B>;@<9?;8?;8?;8>:7;:6;:6@?=?><?><BA?A@>>=;;:8;:8;:8<;9=<:>=;=<:<;9;:8;:8>:9@<;B>=C?>CB@DCADCABA?DCA@?=>=;?><A=<>:9?;:A=<?;:@<;B>=EA@GCBFBAB>=?;:D@=C?<A=:A=:A=:@<9?<7>;6>:7?;8A=:B>;EA>GC@GC@EA>EA>FB?GC@GC@EA>C?<@<9>:7A=:D@=FB?D@=A=:?;8=96<85@<9D@=EA>EA>GC@FB?A=:>:7@<9A=:EA>HDAHDAGC@FB?GC@FB?D@=B>;B>;A=:A=:A=:C?<EA>D@=A=:=96;74<85?;8A=:A=<B>=B>=A=<@<;@<;A=<B>=?;8@<9B>;C?<D@=D@=B>;@<9A=:C?<EA>EA>EA>EA>EA>FB?D@=B>;@<9>:7>:7?;8B>;EA>EA>A=:?;8B>;D@=C?<A=:@<9A=:C?<C?<C?<C?<C?<C?<B>;C?<B>;A=:A=:B>;B>;A=:?;8?;8B>;C?<A=:@<9@<9@<9A=:@<;?;:?;:?;:>:9<87;76=98@<;>:9?;:A=<A=<?;:?;:@<;A=<@<;>:7<85:63:63<85=96;76C?>EA@@<;@<;?><@?=CB@DCADCACB@CB@DCAFB?D@=D@=EA>FBAGCBFBAB>=>:9>:9@<;B>=B>=@<;>:9>:9A=<D@?FBAGCBCB>A@<@<9>:7>:7@<9B>;B>;B>;A=:@<9@<9@<9@<9=<8<;7A@>BA?CB@DCAEDBA@>>=;?><>=;@?=BA?A@>?><>=;<;9:97@<;B>=@<;@<;CB@EDBBA?CB@CB@BA?BA?BA?D@?C?>A=<?;:A=>@<=A=<EA@FBAEA@C?>B>=D@=C?<C?<D@=D@=C?<A=:A=:B>;A=:C?<GC@IEBGC@FB?GC@EA>EA>FB?GC@HDAFB?B>;=96>:7B>;FB?FB?C?<A=:?;8>:7?;8B>;C?<B>;C?<D@=A=:<85>:7A=:EA>GC@GC@GC@HDAJFCHDAFB?C?<B>;A=:@<9A=:A=:EA>FB?B>;=96=96=96>:7@<9A=:C?<D@?C?>A=<@<;A=<C?>B>;D@=FB?EA>C?<C?<B>;B>;D@=C?<C?<D@=FB?GC@GC@FB?D@=B>;?;8=96=96@<9D@=GC@IEBEA>B>;B>;EA>EA>B>;?;8B>;C?<B>;A=:A=:B>;B>;B>;@<9A=:A=:@<9@<9A=:A=:@<9A=:A=:@<9A=:A=:A=:A=:@<9?;8A=:A=<?;:=98<87<87;76>:9>:9?;:A=<A=<@<;?;:@<;?;:=98<85;74;74952952:63<87C?>FBAB>=A=<@?=@?=CB@DCAEDBEDBEDBEDBEA>C?<B>;D@=D@?EA@EA@B>=?;:>:9@<;A=<?;:=98<87=98A=<EA@GCBGCBCB>BA=A=:?;8?;8@<9A=:@<9C?<C?<B>;B>;A=:@<9=<8<;7A@>CB@DCADCADCA@?=>=;@?=BA?CB@CB@BA?@?=?><=<:;:8?;:B>=A=<@<;BA?CB@BA?CB@CB@BA?BA?A@>C?>B>=A=<@<;@<=@<=A=<C?>EA@FBAEA@EA@FB?EA>D@=D@=EA>EA>D@=D@=D@=C?<EA>IEBIEBFB?C?<C?<C?<C?<D@=EA>GC@HDAEA>B>;?;8A=:C?<C?<B>;@<9?;8>:7@<9B>;C?<A=:A=:C?<A=:<85=96?;8B>;D@=D@=EA>EA>FB?EA>C?<B>;B>;A=:@<9@<9A=:C?<EA>C?<>:7=96=96>:7@<9B>;C?<EA@D@?B>=A=<A=<C?>C?<D@=FB?GC@FB?D@=B>;A=:A=:A=:A=:B>;C?<EA>EA>EA>D@=C?<A=:?;8=96>:7B>;FB?HDAEA>B>;B>;D@=EA>C?<@<9@<9A=:B>;A=:A=:B>;B>;A=:@<9@<9@<9?;8@<9A=:A=:@<9@<9@<9@<9@<9@<9A=:@<9@<9>:7?;8?;:>:9=98<87<87=98>:9>:9>:9@<;A=<A=<A=<A=<@<;>:9<85<85<85;74;74;74?;:C?>FBAC?>A=<@?=@?=CB@DCAFECFECFECEDBC?>A=<A=<B>=A=<C?>C?>A=<>:9=98>:9?;:<87:65:65<87A=<EA@GCBFBADCACB@C?>A=<A=<A=<A=<?;:C?>D@?D@?C?>B>=@<;=<:<;9C?>GCBHDCGCBEA@A=<@<;C?>D@?EA@FBAEA@D@?B>=?;:=98>:9A=<A=<@<;@?=A@>A@>CB@CB@BA?BA?A@>C?>B>=B>=A=<?;:@<;A=<B>=C?>EA@FBAFBAGCBGCBEA>D@=FB?HDAIEBGC@FB?EA>EA>GC@GC@D@=B>;A=:@<9@<9A=:B>;EA>HDAHDAGC@C?<B>;C?<D@=C?<A=:@<9A=:C?<D@=C?<@<9@<9B>;@<9=96<85=96?;8A=:B>;C?<D@=D@=D@=C?<C?<B>;A=:@<9@<9A=:B>;D@=C?<@<9>:7=96=96@<9A=:C?<EA>EA>C?>B>=B>=C?>D@=D@=FB?IEBIEBEA>B>;A=:@<9@<9@<9@<9A=<B>=D@?EA@D@=D@=C?<@<9<85<85?;8C?<FB?D@=B>;C?<D@=D@=C?<A=:@<9A=:B>;B>;C?<C?<B>;A=:@<9?;8>:7>:7?;8A=:@<9?;8?;8?;8?;8@<9@<9@<9@<9@<9>:7<85<85=96=98<87<87>:9>:9>:9>:9@<;A=<A=<@<;?;:?;:=98=98=98>:9>:9>:7?;8B>=B>=FBAC?>B>=@?=@?=CB@EDBFECEDBEDBCB@B>=@<;?;:@<;@<;B>=A=<>:9;76;76<87=98:65954954<87@<;C?>EA@EA@CB@CB@D@?C?>C?>C?>B>=@<;B>=B>=C?>C?>A=<>:9;:8;:8C?>HDCIEDHDCFBAA=<@<;B>=@<;B>=EA@FBAFBAC?>>:9;76;76>:9@<;A=<@?=@?=A@>CB@CB@BA?BA?BA?EA@EA@D@?B>=?;:@<;@<;?;:@<;C?>EA@EA@FBAGCBEA>D@=FB?KGDKGDHDAFB?D@=C?<C?<C?<B>;A=:B>;>:7>:7>:7@<9C?<HDAJFCJFCHDAFB?GC@HDAFB?B>;A=:C?<D@=EA>D@=B>;A=:B>;A=:>:7=96=96>:7?;8A=:D@=EA>GC@EA>EA>EA>D@=B>;?;8?;8@<9A=:C?<C?<A=:@<9>:7<85>:7?;8B>;D@=EA>EA@D@?D@?C?>C?<B>;EA>HDAHDAD@=B>;A=:C?<B>;B>;A=:A=<B>=D@?FBAEA>EA>C?<@<9<85;74=96@<9D@=C?<C?<D@=D@=D@=C?<A=:@<9B>;B>;B>;C?<D@=C?<B>;B>;@<9?;8>:7@<9A=:?;8>:7>:7>:7?;8?;8?;8?;8@<9@<9?;8<85<85=96=98;76;76=98=98>:9?;:@<;@<;>:9<87:65<87<87<87=98?;:A=<B>;B>;D@?B>;GC@D@=C?<A@<@?;CB@DCAEDBDCABA?@?=@<;?;:>:9>:9A=<A=<@<;<87:65954;76;76:65;76<87=98?;:A=<B>=C?>A@>A@>C?>B>=C?>C?>C?>A=<A=<A=<B>=B>=@<;<87875875B>=GCBIEDHDCGCBC?>@<;A=<>:9@<;C?>FBAGCBD@??;:<87732:65?;:B>=@?=@?=A@>BA?CB@BA?A@>CB@GCBHDCFBAD@?@<;@<;?;:>:9>:9@<;B>=D@?D@?EA@EA@D@?FBAKGFKGFHDCEA>C?<B>;B>;B>;B>;B>;B>;?;8?;8>:7?;8A=:FB?IEBJFCKGDJFCKGDKGDHDAB>;A=:C?<D@=FB?FB?C?<B>;B>;A=:?;8?;8>:7>:7>:7@<9C?<FB?HDAFB?EA>EA>D@=B>;?;8?;8@<9@<9B>;A=:A=:A=:?;8<85=96>:7A=:D@=D@=D@=EA>D@?B>=A=:A=:C?<EA>D@=B>;A=:C?<D@=C?<C?>B>=B>=D@?EA@GCBEA>EA>B>;@<9=96=96>:7?;8B>;B>;C?<D@=EA>D@=B>;@<9@<9A=:A=:A=:B>;C?<C?<C?<C?<A=:?;8?;8@<9@<9?;8>:7>:7?;8?;8>:7=96=96?;8@<9?;8=96=96?;8>:7;74:65<87=96>:7>:9>:9=98;76:65954;76;76;76=98@<;B>=C?>C?>C?>D@=HDAEA>C?<A@<@?;A@>BA?EDBDCAA@>?><?;:?;:>:9=98A=<B>=@<;=98:65:65<87=98=98>:9?;:?;:?;:@<;A=<B>=?><?><A=<@<;A=<B>=B>=@<;B>=A=<A=<A=<?;:;76764875A=<FBAHDCHDCHDCD@?@<;?;:@<;@<;B>=EA@GCBEA@B>=?;:621843=98B>=@?=@?=A@>@?=A@>@?=@?=BA?GCBIEDHDCFBAB>=@<;>:9>:9>:9?;:@<;B>=B>=C?>D@?D@?FBAIEDIEDGCBFB?EA>EA>EA>EA>D@=C?<B>;A=:A=:@<9?;8A=:D@=GC@HDAJFCKGDMIFMIFIEBD@=B>;C?<C?<EA>FB?EA>C?<B>;A=:?;8@<9@<9?;8>:7?;8A=:EA>GC@D@=D@=C?<B>;@<9?;8?;8@<9@<9A=:@<9@<9A=:?;8<85=96?;8B>;C?<C?<C?<C?<B>=@<;?;8@<9A=:@<9@<9@<9B>;C?<A=:A=:A=<B>=C?>D@?FBAGCBFB?D@=B>;@<9@<9@<9A=:B>;B>;C?<C?<D@=D@=C?<A=:?;8@<9A=:A=:A=:B>;D@=D@=D@=B>;@<9>:7?;8?;8?;8>:7>:7?;8@<9?;8>:7<85<85>:7@<9?;8?;8?;8@<9?;8<85<87=98>:7=96<87;76;76;76;76;76;76;76<87=98?;:B>=B>=B>=B>=D@=GC@D@=C?<A@<?>:A@>@?=DCADCAA@>?><?;<@<=@<=?;<A=<B>=A=<?;:=98>:9?;:@<;A=<A=<A=<A=<A=<A=<B>=B>=A@>@?=A=<A=<A=<B>=B>=A=<A=<?;:>:9?;:?;:=98:97:97@<;EA@GCBGCBGCBD@?A=<@<;A=<@<;B>=EA@GCBEA@B>=@<;843732<87B>=@?=@?=@?==<:=<:=<:>=;@?=D@?GCBHDCHDCFBAB>=?;:@<;@<;>:9>:9A=<B>=C?>D@?EA@FBAGCBHDCHDCHDAHDAHDAHDAHDAGC@EA>C?<C?<C?<B>;A=:A=:C?<EA>FB?GC@IEBKGDKGDHDAEA>C?<C?<C?<EA>GC@FB?D@=C?<B>;A=:@<9@<9@<9@<9?;8A=:D@=FB?EA>C?<B>;A=:@<9?;8@<9A=:@<9A=:@<9A=:A=:>:7<85=96?;8A=:B>;A=:A=:B>;A=<>:9?;8@<9?;8=96=96@<9B>;B>;@<9@<9@<;A=<C?>EA@FBAFBAEA>C?<A=:A=:A=:C?<D@=EA>D@=C?<C?<C?<C?<C?<A=:?;8@<9A=:B>;B>;C?<EA>EA>EA>@<9>:7>:7?;8@<9@<9@<9A=:A=:A=:@<9=96;74;74=96@<9@<9B>;B>;A=:?;8=96=98?;:?;8>:7<85;74=96?;8>:9;76<87<87<87<87?;:B>=B>=@<;B>=A=:D@=A=:A=:@?;?>:A@>@?=BA?CB@BA??><@<=A=>B>?B>?A=<B>=C?>A=<@<;A=<C?>C?>D@?C?>B>=B>=C?>C?>C?>C?>DCACB@C?>B>=B>=C?>C?>B>=>:9<87;76>:9?;:>:9<;9>=;?;:D@?GCBFBAFBAD@?A=<A=<@<;@<;A=<EA@GCBD@?@<;=98:65732;76A=<?><?><?><:97:97;:8<;9=<:A=<D@?GCBIEDJFED@?A=<B>=A=<=98=98?;:C?>C?>C?>EA@FBAFBAGCBIEDJFCJFCIEBHDAHDAHDAGC@FB?EA>EA>D@=B>;B>;C?<EA>EA>B>;D@=FB?FB?EA>EA>C?<A=:D@=FB?GC@GC@EA>D@=C?<C?<?;8@<9A=:A=:A=:B>;EA>GC@GC@D@=B>;A=:A=:@<9A=:A=:@<9A=:A=:A=:@<9=96<85>:7?;8@<9A=:@<9@<9A=:A=<>:9?;8A=:?;8;74<85A=:B>;A=:A=:@<9@<;B>=D@?EA@EA@D@?D@=B>;A=:A=:B>;D@=FB?GC@FB?D@=B>;B>;B>;B>;A=:@<9>:7@<9A=:B>;C?<D@=D@=D@=@<9?;8@<9B>;C?<C?<D@=FB?B>;B>;@<9=96:63:63=96@<9B>;D@=D@=A=:>:7=96>:9?;:@<9?;8=96=96@<9B>;?;::65;76;76;76<87?;:B>=B>=A=<C?>>:7A=:A=:A=:D@=D@=B>;B>;BA?BA?A@>?><?><A@>BA?BA?DCACB@BA?@?=@?=A@>A@>A@>>=;?><A@>CB@DCACB@CB@DCAEA>C?<A=:A=:B>;C?<C?<B>;@<;?;:<87:65;76?;:A=<B>=C?>C?>FBAGCBEA@D@?C?>@<;A=<?;:B>=HDCHDCD@?@<;=98:65843;76>:9@<;@<;@<;=98<87=98=98>:9>=;@?=CB@DCAIEDFBAD@?C?>A=<?;:>:9=98>:9@<;C?>D@?D@?EA@GCBIEDHDCGCBGCBHDCIEDJFEHDCFBAD@=C?<C?<D@=EA>FB?FB?EA>EA>C?<B>;C?<EA>FB?EA>C?<B>;C?<GC@IEBHDAGC@EA>@<9@<9B>;C?<B>;B>;C?<EA>EA>D@=C?<B>;B>;A=:A=:A=:A=:D@=A=:@<9A=:?;8<85<85@<9C?<@<9@<9B>;D@=B>;@<9?;8?;:?;:?;:A=<A=<@<;@<;A=<A=<C?>D@?C?>B>=B>=C?>D@??>:A@<BA=BA=CB@DCADCACB@EA@D@?C?>B>=B>;C?<C?<A=:?;8A=:B>;C?<D@=EA>D@=A=:@<9A=:A=:B>;D@=EA>EA>EA>A=:A=:?;8=96<85<85>:7?;8A=:C?<D@=C?<@<9=96=96>:7?;8@<9@<9@<9@<9?;8>:7<85>:7>:7>:7?;8A=:C?<C?<C?<A@>>:7A=:B>;B>;D@=D@=B>;B>;BA?BA?A@>@?=@?=A@>BA?BA?DCADCACB@BA?BA?BA?A@>@?=?><@?=CB@DCACB@A@>A@>BA?C?<B>;B>;B>;B>;C?<C?<D@=A=<@<;>:9<87=98A=<D@?EA@EA@C?>D@?EA@D@?D@?D@?A=<A=<@<;D@?IEDGCBC?>@<;>:9:65843:65?;:@<;@<;?;:<87=98=98>:9?;:?><A@>CB@EDBHDCFBAEA@C?>A=<>:9=98=98>:9@<;C?>D@?C?>D@?EA@FBAEA@C?>B>=C?>FBAHDCGCBEA@EA>D@=C?<C?<EA>FB?FB?EA>EA>C?<A=:A=:B>;D@=EA>D@=@<9@<9EA>HDAHDAGC@EA>B>;@<9A=:A=:@<9@<9B>;C?<C?<D@=D@=C?<B>;A=:@<9@<9@<9C?<A=:@<9@<9?;8=96>:7@<9C?<A=:A=:D@=D@=B>;@<9@<9A=<A=<B>=D@?EA@C?>B>=B>=A=<C?>C?>B>=B>=B>=C?>C?>A@<BA=CB>CB>DCAEDBEDBDCAEA@EA@EA@D@?C?<C?<A=:@<9A=:C?<EA>EA>D@=D@=C?<B>;>:7?;8@<9B>;C?<C?<C?<C?<A=:A=:@<9?;8>:7>:7?;8@<9A=:C?<D@=C?<?;8=96=96=96?;8A=:C?<B>;B>;A=:A=:@<9?;8?;8@<9@<9A=:A=:A=:A=:?><>:7B>;C?<C?<D@=D@=B>;B>;A@>A@>A@>@?=A@>BA?CB@CB@CB@DCADCADCADCADCABA?@?=?><A@>DCAEDBCB@A@>@?=@?=B>;C?<C?<C?<C?<C?<D@=EA>D@?C?>B>=@<;A=<D@?GCBIEDGC@D@=C?>C?>C?>D@?D@?B>=B>=B>=GCBJFEGCBC?>A=<@<;;76954<87A=<B>=B>=A=<>:9>:9?;:?;:A=<@?=BA?DCADCAFBAFBAEA@D@?B>=@<;?;:@<;?;:A=<B>=C?>C?>B>=C?>C?>B>=?;:=98>:9B>=EA@FBAEA@EA>D@=B>;B>;C?<D@=EA>FB?EA>C?<@<9>:7?;8A=:D@=EA>A=:@<9D@=HDAHDAGC@FB?D@=A=:@<9?;8>:7?;8@<9A=:A=:C?<C?<C?<B>;A=:A=:@<9@<9A=:@<9?;8?;8?;8@<9@<9@<9C?<B>;C?<EA>EA>C?<A=:A=:A=<B>=EA@GCBGCBEA@C?>B>=B>=C?>C?>B>=A=<A=<B>=B>=BA=CB>DC?DC?EDBEDBEDBDCAFBAHDCHDCFBAD@=B>;A=:?;8B>;EA>GC@FB?C?<B>;A=:B>;=96>:7@<9A=:B>;B>;A=:A=:B>;A=:A=:A=:A=:A=:A=:A=:A=:B>;C?<B>;?;8=96<85=96=96@<9B>;C?<C?<C?<C?<B>;B>;B>;B>;A=:A=:@<9@<9@<9>=;?;8C?<D@=D@=D@=C?<B>;B>;@?=A@>A@>A@>BA?BA?CB@CB@BA?CB@DCADCAEDBEDBCB@A@>?><@?=CB@DCACB@A@>?><?><B>;B>;C?<C?<C?<D@=EA>EA>D@?EA@EA@D@?D@?FBAHDCIEDHDAEA>D@?D@?C?>D@?EA@D@?C?>C?>HDCKGFHDCFBAEA@B>==98;76?;:D@?EA@EA@FBAEA@A=<A=<A=<B>=A@>BA?CB@CB@EA@EA@EA@EA@EA@D@?C?>D@?A=<B>=C?>D@?C?>B>=A=<A=<B>=?;:=98=98@<;C?>EA@FBAFB?D@=A=:@<9@<9B>;EA>FB?D@=B>;?;8=96=96?;8C?<EA>D@=@<9C?<HDAHDAEA>EA>D@=B>;A=:?;8>:7>:7?;8@<9A=:A=:A=:B>;B>;A=:A=:A=:@<9?;8@<9?;8>:7?;8B>;B>;A=:B>;B>;D@=FB?EA>C?<B>;B>;A=<B>=EA@GCBGCBFBAEA@D@?C?>C?>B>=A=<@<;A=<B>=B>=BA=BA=CB>DC?DCADCADCACB@GCBIEDIEDGCBD@=B>;A=:@<9A=:D@=EA>D@=B>;@<9@<9A=:>:7?;8@<9A=:B>;B>;B>;B>;C?<C?<C?<C?<C?<C?<A=:@<9@<9A=:B>;A=:>:7<85<85<85;74=96@<9A=:B>;C?<D@=D@=D@=D@=C?<B>;A=:@<9?;8>:7=<:@<9D@=D@=C?<D@=C?<A=:B>;@?=@?=A@>BA?BA?BA?BA?BA?A@>BA?CB@CB@EDBFECDCABA?@?=?><@?=BA?BA?@?==<:<;9?;8?;8?;8A=:B>;C?<C?<C?<C?>D@?FBAGCBFBAFBAFBAGCBHDAFB?GC@FB?C?>D@?FBAEA@C?>D@?HDCJFEJFEJFEHDCD@?>:9=98A=<FBAFBAFBAHDCIEDD@?D@?D@?D@?BA?BA?BA?CB@EA@C?>C?>EA@FBAEA@EA@D@?D@?D@?EA@EA@D@?C?>A=<A=<B>=@<;?;:=98>:9A=<D@?FBAFB?D@=@<9>:7=96?;8C?<FB?B>;A=:@<9>:7=96?;8A=:D@=C?<?;8A=:EA>EA>D@=C?<C?<B>;B>;A=:@<9>:7=96?;8B>;A=:A=:A=:A=:A=:A=:A=:A=:?;8@<9?;8>:7?;8B>;C?<A=:A=:B>;C?<EA>EA>D@=B>;B>;A=:C?<D@=FB?GC@GC@FB?FB?D@=D@=B>;A=:A=:C?<D@=D@=BA=BA=BA=CB>CB@CB@CB@CB@GCBIEDIEDFBAC?<B>;B>;C?<@<9A=:B>;B>;A=:@<9@<9@<9@<9A=:A=:A=:A=:B>;C?<D@=EA>D@=D@=D@=D@=C?<A=:?;8>:7?;8@<9?;8=96;74;74:63;76<87=98>:9@<;C?>D@?D@?D@?C?>B>=B>=A=<@<;>:9<87=98A=:D@=C?<B>;B>;B>;A=:B>;@?=@?=A@>BA?CB@BA?A@>A@>A@>A@>BA?BA?DCAFECFECDCAA@>?><>=;?><@?=>=;;:8:97;74<85<85>:7@<9A=:@<9@<9C?>D@?FBAHDCIEDHDCGCBGCBHDAGC@HDAGC@D@?C?>EA@EA@D@?D@?FBAIEDJFEKGFIEDC?>=98<87@<;EA@EA@EA@GCBIEDGCBFBAFBAEA@BA?BA?BA?BA?D@?B>=A=<C?>D@?D@?C?>C?>FBAFBAFBAFBAEA@D@?B>=A=<A=<A=<@<;>:9>:9?;:B>=EA@EA>C?<?;8=96<85=96A=:D@=A=:A=:A=:@<9?;8@<9A=:B>;B>;?;8@<9C?<D@=D@=EA>D@=B>;B>;B>;A=:?;8=96?;8A=:B>;A=:A=:@<9@<9@<9@<9A=:?;8@<9?;8>:7?;8B>;C?<B>;A=:B>;C?<D@=D@=D@=B>;A=:@<9A=:B>;B>;C?<D@=EA>EA>D@=C?<B>;A=:B>;D@=EA>EA>BA=A@<A@<BA=BA?BA?BA?CB@EA@GCBGCBEA@B>;B>;C?<D@=A=:@<9A=:B>;A=:@<9@<9A=:B>;B>;A=:@<9@<9A=:C?<EA>FB?FB?EA>EA>D@=B>;@<9?;8>:7?;8?;8>:7=96;74952952954954:65;76>:9A=<A=<A=<A=<A=<@<;@<;?;:>:9<87;76;76C?<D@=B>;@<9A=:A=:A=:B>;A@>A@>A@>CB@CB@A@>?><?><A@>A@>BA?BA?EDBGFDFECDCAA@>?><>=;>=;?><=<:<;9;:8<85=96>:7?;8?;8>:7>:7>:7A=<A=<D@?GCBIEDHDCHDCHDCHDAFB?GC@FB?C?<B>;D@=C?<C?>C?>EA@GCBHDCIEDGCB@<;:65843=98D@?FBAFBAGCBGCBHDCGCBFBAEA@BA?A@>BA?BA?C?>B>=A=<B>=C?>C?>C?>C?>FBAFBAFBAFBAFBAD@?B>=@<;A=<A=<@<;?;:?;:@<;B>=D@?B>;A=:?;8=96;74<85>:7@<9A=:A=:B>;B>;A=:A=:A=:B>;B>;?;8@<9B>;B>;EA>FB?D@=A=:B>;B>;B>;?;8=96>:7@<9B>;A=:@<9?;8>:7?;8A=:B>;@<9@<9@<9@<9@<9@<9B>;B>;A=:A=:B>;C?<D@=D@=C?<A=:@<9A=:A=:@<9@<9A=:A=:A=:@<9@<9@<9@<9B>;D@=D@=C?<A@<@?;?>:@?;@?=@?=A@>BA?C?>EA@EA@D@?B>;C?<D@=EA>B>;A=:A=:B>;B>;A=:A=:B>;B>;B>;A=:@<9@<9A=:C?<EA>FB?FB?FB?EA>D@=B>;A=:A=:@<9@<9@<9?;8=96;74952841732843954:65<87>:9>:9=98=98?;:@<;?;:=98;76;76;76:65C?<D@=A=:?;8@<9A=:@<9A=:A@>A@>BA?CB@CB@@?=?><?><A@>BA?BA?CB@EDBGFDFECDCAA@>?><>=;?><?><>=;>=;>=;@<9A=:B>;A=:?;8=96<85<85=98=98?;:C?>FBAFBAFBAGCBHDAFB?EA>D@=B>;B>;C?<A=:C?>C?>EA@EA@FBAGCBEA@>:9843510:65C?>GCBHDCHDCGCBGCBFBAEA@C?>A@>@?=A@>A@>C?>A=<A=<B>=C?>C?>D@?EA@FBAFBAFBAFBAFBAD@?B>=@<;B>=A=<A=<@<;A=<B>=D@?EA@?;8?;8?;8>:7<85;74<85>:7A=:B>;B>;C?<C?<B>;B>;A=:A=:?;8?;8@<9@<9D@=EA>B>;A=:A=:A=:A=:@<9>:7=96>:7B>;@<9?;8>:7>:7@<9B>;C?<A=:@<9@<9@<9@<9?;8A=:B>;B>;A=:A=:B>;D@=EA>C?<A=:A=:B>;A=:@<9?;8@<9@<9?;8<85=96>:7?;8A=:C?<B>;@<9?>:>=9=<8=<8>=;>=;?><A@>B>=D@?D@?C?>B>;C?<D@=D@=B>;B>;B>;B>;B>;@<9A=:B>;B>;B>;B>;A=:@<9A=:C?<EA>EA>FB?FB?EA>D@=C?<C?<C?<B>;B>;B>;@<9>:7<85:63952621843:65;76<87=98=98<87;76>:9A=<?;:<87954:65<87;76C?<D@=B>;@<9?;8=96=96@<9@?=@?=A@>A@>A@>@?=@?=@?=FBAFBAEA@D@?FBAIEDHDCEA@D@?A=<@<;B>=D@?D@?C?>C?>D@?FBAHDCHDCEA@A=<>:9=98=96=96>:7@<9C?<EA>FB?FB?FB?C?<A=:A=:@<9?;8?;8B>;C?<@<9A=<D@?EA@D@?B>=>:9:65843954@<;FBAGCBGCBFBAEA@EA@EA@C?>>=;<;9>=;A@>C?>A=<A=<C?>D@?C?>B>=B>=D@?EA@EA@D@?D@?EA@D@?C?>EA@GCBGCBD@?B>=A=<C?>D@?@<9@<9?;8>:7=96=96=96=96D@=C?<B>;A=:A=:A=:A=:A=:B>;A=:?;8>:7A=:D@=FB?FB?C?<B>;B>;A=:@<9>:7=96<85@<9?;8?;8?;8?;8@<9B>;D@=B>;B>;B>;A=:>:7=96?;8A=:D@=D@=C?<C?<C?<D@=D@=D@=B>;A=:A=:A=:@<9?;8=96=96;74;74<85>:7@<9@<9?;8>:7>:7>:7>:7>:7?;:?;:?;:?;:A@>BA?CB@CB@BA=A@<CB>DC?B>;B>;B>;C?<B>;B>;A=:A=:C?<B>;A=:A=:A=:B>;B>;B>;@<;D@?FBAEA@C?>D@?EA@FBAFBAGCBFBAD@?B>=@<;?;:=98;76:65;76>:9>:9<87<87>:9@<;B>=B>=@<;>:9>:9>:9=98<87C?<D@=B>;@<9A=:?;8>:7@<9@?=A@>BA?BA?A@>@?=@?=@?=C?>D@?C?>C?>EA@GCBFBAD@?C?>A=<@<;C?>EA@FBAEA@D@?GCBHDCIEDJFEHDCEA@B>=?;:>:7=96>:7@<9B>;D@=D@=D@=EA>B>;B>;B>;B>;?;8?;8@<9B>;A=:B>=C?>C?>C?>B>=>:9;76954:65A=<FBAHDCGCBFBAGCBGCBFBAC?><;9986;:8>=;C?>C?>B>=B>=B>=C?>C?>C?>D@?EA@EA@C?>B>=C?>EA@FBAIEDJFEIEDEA@B>=A=<A=<B>=C?<B>;A=:A=:A=:A=:@<9?;8C?<C?<B>;A=:@<9@<9@<9@<9B>;A=:?;8>:7?;8B>;EA>FB?EA>D@=B>;B>;A=:@<9>:7=96@<9@<9?;8?;8?;8A=:C?<D@=C?<B>;A=:@<9>:7<85>:7A=:D@=C?<C?<B>;B>;B>;B>;B>;>:7>:7?;8@<9>:7<85;74;74;74;74<85=96>:7?;8>:7=96=96<85<85<85=98>:9?;:@<;?><@?=A@>A@>A@<A@<BA=BA=B>;B>;B>;B>;B>;A=:A=:A=:@<9A=:A=:A=:A=:A=:@<9?;8?;:A=<D@?EA@EA@EA@EA@FBAHDCIEDIEDHDCGCBFBAD@?B>=?;:>:9?;:@<;@<;=98>:9@<;@<;A=<A=<@<;@<;@<;?;:>:9=98C?<D@=B>;A=:B>;A=:?;8?;8@?=A@>CB@BA?A@>?><@?=A@>C?>D@?C?>A=<B>=D@?EA@D@?A=<A=<A=<D@?EA@FBAEA@EA@FBAFBAGCBHDCHDCGCBD@?B>=@<9?;8?;8@<9A=:B>;B>;B>;C?<B>;B>;C?<B>;?;8=96>:7A=:A=:B>;B>;A=<B>=B>=?;:<87;76<87B>=GCBHDCGCBFBAHDCHDCGCBC?>;:8875986<;9D@?EA@C?>A=<A=<C?>EA@EA@C?>EA@EA@C?>A=<B>=EA@HDCIEDIEDGCBEA@C?>C?>C?>C?>EA>D@=B>;C?<D@=D@=C?<A=:D@=D@=D@=C?<A=:@<9@<9@<9C?<B>;@<9>:7=96@<9C?<FB?GC@EA>D@=C?<D@=B>;@<9=96?;8A=:A=:@<9@<9B>;D@=C?<D@=C?<B>;@<9=96<85>:7A=:A=:A=:A=:@<9?;8>:7>:7>:7;74<85>:7?;8>:7;74:63;74=96=96=96=96=96=96=96=96;74;74;74:63:65<87?;:A=<>=;>=;?><@?=A@<A@<@?;?>:B>;A=:A=:@<9@<9@<9A=:A=:@<9B>;D@=D@=B>;@<9>:7=96=98>:9A=<FBAHDCFBAFBAGCBHDCJFEKGFJFEJFEIEDHDCFBAD@?B>=B>=B>=A=<?;:?;:@<;@<;@<;A=<A=<A=<B>=A=<@<;@<;B>;C?<A=:@<9A=:@<9?;8@<9@?=BA?CB@BA?A@>?><?><@?=D@?D@?A=<>:9=98?;:B>=D@?@<;@<;A=<B>=C?>D@?D@?D@?B>=B>=B>=D@?FBAGCBFBAD@?B>;A=:@<9@<9A=:B>;B>;B>;A=:A=:A=:B>;A=:>:7<85<85>:7@<9C?<B>;@<;B>=C?>?;:=98=98>:9C?>GCBHDCGCBFBAGCBFBAEA@C?><;9:97;:8>=;D@?FBAEA@A=<@<;D@?FBAEA@D@?FBAFBAC?>A=<A=<EA@GCBFBAEA@D@?B>=C?>D@?EA@D@?EA>C?<B>;B>;C?<C?<C?<C?<EA>D@=D@=C?<B>;A=:A=:C?<D@=D@=C?<@<9>:7>:7A=:D@=EA>EA>EA>FB?FB?D@=A=:=96?;8B>;B>;A=:A=:D@=EA>C?<D@=C?<C?<A=:>:7=96>:7@<9?;8?;8?;8>:7=96=96<85;74<85=96?;8@<9?;8>:7=96>:7?;8?;8?;8>:7>:7>:7>:7>:7=96<85<85;74;76=98?;:A=<?><?><@?=A@>A@<A@<?>:>=9B>;A=:@<9?;8?;8@<9A=:A=:B>;D@=FB?FB?C?<@<9=96<85;76;76>:9EA@IEDGCBEA@FBAGCBIEDJFEIEDJFEJFEIEDHDCFBAD@?B>=B>=B>=A=<@<;@<;@<;@<;A=<A=<B>=C?>D@?D@?EA@A=:B>;@<9?;8@<9?;8?;8A=:A@>A@>BA?BA?A@>@?=?><?><B>=B>=?;:<87:65;76=98?;:>:9>:9?;:?;:@<;A=<B>=C?>B>=A=<A=<B>=D@?EA@GCBGCBD@=C?<A=:A=:B>;C?<C?<B>;A=:A=:A=:A=:@<9>:7=96<85<85?;8C?<B>;@<9B>;C?>?;:?;:?;:@<;C?>FBAGCBGCBFBAFBAEA@D@?B>=>=;=<:>=;@?=A@>CB@CB@?><?><BA?DCACB@DCAEDBDCAA@>@?=@?=A@>A@>D@?C?>B>=A=<A=<C?>C?>B>=C?<B>;B>;A=:@<9?;8A=:D@=EA>D@=C?<C?<B>;B>;D@=GC@FB?FB?FB?D@=A=:?;8@<9B>;A=:C?<GC@IEBIEBFB?B>;?;8@<9C?<D@=B>;B>;EA>EA>C?<C?<C?<D@=C?<@<9>:7>:7@<9?;8?;8@<9@<9?;8?;8>:7>:7@<;?;:@<;A=<A=<@<;@<;@<;A=<A=<A=<@<;?;:>:9?;:?;:@<9?;8?;8>:7>:9?;:@<;A=<>=;?><@?=BA?BA=BA=@?;?>:B>;A=:@<9?;8?;8@<9A=:A=:B>;D@=FB?EA>C?<@<9>:7=96954843:65A=<EA@D@?B>=B>=D@?EA@FBAFBAGCBIEDJFEJFEGCBD@?B>=B>=C?>C?>A=<@<;?;:@<;A=<A=<B>=C?>EA@HDCFEC@<9A=:?;8>:7?;8?;8@<9B>;A@>A@>A@>A@>@?=?><>=;=<:?;:@<;@<;>:9<87;76:65:65:65;76<87<87>:9A=<B>=B>=B>=B>=B>=B>=B>=C?>EA@GCBD@=C?<B>;B>;B>;C?<C?<B>;B>;B>;B>;A=:@<9?;8>:7>:7;74>:7B>;C?<A=:B>;C?>@<;@<;@<;A=<C?>EA@FBAFBAFBAGCBEA@D@?C?>@?=?><?><A@>A@>BA?A@>?><?><A@>CB@CB@EDBEDBDCABA?A@>A@>@?=?><B>=B>=@<;@<;A=<B>=B>=A=<C?<B>;B>;A=:>:7<85?;8D@=EA>D@=C?<D@=EA>EA>GC@IEBGC@GC@GC@GC@EA>B>;A=:@<9>:7A=:EA>HDAIEBGC@D@=B>;B>;D@=D@=C?<C?<EA>EA>D@=C?<D@=EA>EA>B>;@<9@<9A=:B>;C?<D@=D@=D@=C?<B>;A=:B>=A=<A=<B>=B>=B>=A=<A=<B>=B>=C?>B>=@<;?;:?;:@<;A=:@<9?;8?;8@<;@<;@<;@<;=<:>=;@?=BA?CB>CB>BA=A@<A=:A=:@<9@<9@<9@<9A=:A=:@<9A=:B>;B>;A=:@<9?;8?;8954732843<87@<;@<;>:9=98>:9?;:@<;A=<C?>FBAIEDIEDHDCEA@B>=B>=D@?D@?B>=@<;>:9>:9@<;A=<B>=C?>FBAIEDHGE?;8?;8>:7=96?;8@<9?;8A=:@?=@?=A@>@?=?><=<:=<:=<:<87>:9@<;A=<?;:=98;76954954:65:65<87>:9A=<B>=A=<A=<A=<A=<A=<B>=B>=C?>D@?D@=C?<A=:A=:A=:B>;B>;A=:B>;B>;B>;A=:A=:@<9?;8>:7<85=96A=:C?<B>;B>;C?>A=<A=<A=<B>=C?>C?>D@?EA@FBAGCBFBAD@?C?>@?=?><@?=BA?BA?A@>?><?><?><A@>BA?CB@DCADCADCABA?A@>A@>@?=?><@<;A=<@<;@<;B>=C?>C?>B>=B>;B>;B>;A=:=96:63=96C?<D@=A=:A=:C?<EA>D@=EA>GC@EA>D@=D@=FB?FB?D@=A=:@<9<85>:7@<9C?<FB?GC@FB?EA>D@=D@=EA>EA>D@=D@=D@=EA>D@=D@=EA>EA>C?<A=:B>;D@=FB?FB?GC@GC@FB?EA>D@=C?<B>=B>=C?>D@?D@?B>=A=<B>=A=<C?>D@?D@?B>=A=<@<;A=<B>;@<9>:7?;8A=<B>=B>=A=<?><?><@?=CB@ED@ED@CB>A@<A=:A=:A=:A=:A=:A=:A=:A=:@<9A=:A=:A=:A=:A=:A=:A=:<87:65843:65<87>:9<87;76:65;76<87=98@<;C?>EA@FBAFBAEA@C?>B>=C?>B>=@<;>:9;76<87>:9A=<B>=C?>EA@GCBGFD=96>:7<85<85?;8@<9>:7?;8?><@?=A@>@?=>=;<;9<;9=<:;76<87>:9@<;?;:=98;76:65954:65;76<87>:9A=<@<;?;:?;:@<;A=<B>=C?>C?>C?>D@?D@=B>;A=:@<9@<9A=:@<9@<9A=:B>;B>;A=:A=:@<9?;8>:7>:7=96@<9B>;B>;A=:C?>B>=A=<B>=B>=B>=C?>D@?EA@FBAFBAFBAEA@D@?@?=?><@?=CB@CB@@?=>=;>=;?><@?=BA?CB@CB@DCACB@BA?A@>A@>A@>@?=A=<B>=B>=B>=C?>D@?D@?B>=A=:A=:A=:@<9<85952;74@<9@<9=96=96@<9B>;A=:@<9A=:B>;A=:A=:D@=FB?EA>A=:?;8;74;74<85?;8C?<FB?FB?FB?EA>D@=EA>FB?EA>D@=D@=EA>D@=EA>EA>EA>C?<B>;C?<FB?GC@GC@HDAHDAGC@EA>C?<B>;C?>D@?EA@FBAEA@B>=B>=B>=B>=D@?EA@EA@C?>B>=A=<B>=D@=B>;@<9A=:D@?FBAFBAD@?BA?A@>A@>CB@FEAFEACB>@?;A=:A=:A=:B>;B>;B>;A=:A=:B>;B>;B>;B>;B>;B>;B>;A=:?;:=98:65954;76>:9=98;76:65<87=98>:9@<;B>=D@?D@?D@?D@?C?>A=<@<;?;:=98<87954:65<87A=<C?>C?>C?>D@?EA@=96=96:63=96A=:@<9@<9@<9?>:?>:?><>=;<;9986986;:8875764986=<:=<:986875;:8986986986:97=<:>=;>=;>=;?=>?=>A=>A=>B>?C?@E??F@@C==C==A=:@<9?;8?;8<;7<;7?;8@<9A=:A=:B>;B>;A=:@<9>:7>:7>:7?;8B>;C?<B>;?;8>=;?><@?=@?=B>=D@?EA@D@?B>=D@?EA@C?>?><?><@?=?><B>=B>=@<;>:9>:9A=<B>=B>=C?>D@?EA@D@?B>=@<;A=<A=<><=?=>A@>BA?BA?A@>@?=@?=@<;B>=A=:?;8>:7<85;74<85;74=96=96;74<85?;8@<9@<9A=:B>;D@?D@?EA@EA@B>=?;:>:7=96;74<85>:7A=:C?<EA>FB?EA>D@=C?<C?<C?<C?<C?<B>=C?>EA@GCBGCBFBAC?>B>=B>=D@?FBAGCBGCBFBAC?>@<;A=<B>=D@?FBAEA@C?>A=<@<;B>=C?>D@?D@?D@?C?>C?>C?>C?>B>=B>=A=<B>=C?>D@?EA@C?>C?>C?>D@?D@?D@?C?>B>=B>;B>;B>;C?<C?<C?<C?<C?<B>;B>;B>;C?<D@?D@?B>=A=<@<9@<9@<9?;8?;:A=<A=<A=<?;:>:9=98<87=98?;:A=<C?>EA@D@?C?>B>=?;:?;:>:9:65:65:65;76=98@<;C?>D@?C?>D@?>:7>:7:63<85?;8>:7?;8?;8@?;@?;A@>@?==<::97:97;:8986875986<;9=<:;:8;:8<;9:97986986;:8?><A@>@?=>=;@>?@>?B>?A=>B>?C?@E??F@@D>>C==A=:?;8>:7>:7;:6;:6=96?;8@<9A=:A=:A=:@<9?;8?;8@<9@<9@<9B>;C?<B>;@<9>=;?><?><?><B>=D@?EA@EA@B>=D@?D@?C?>@?=@?=@?=?><C?>B>=@<;?;:?;:B>=C?>C?>D@?D@?D@?B>=?;:>:9>:9?;:=;<><=@?=BA?BA?A@>A@>A@>@<;A=<@<9?;8?;8=96:63:63=96>:7=96:63952<85?;8@<9B>;C?<D@?FBAHDCHDCEABB>=@<;?;8>:7>:7?;8A=:B>;C?<C?<B>;A=:A=:A=:A=:B>;A=:@<;A=<C?>EA@EA@EA@C?>A=<@<;A=<C?>D@?FBAFBAEA@B>=@<;A=<C?>D@?EA@D@?B>=A=<B>=C?>C?>C?>B>=B>=B>=C?>A=<A=<A=<B>=B>=C?>D@?EA@B>=B>=B>=B>=C?>C?>B>=A=<@<9B>;D@=EA>D@=C?<B>;B>;B>;B>;C?<D@=D@?D@?C?>A=<B>;B>;B>;A=:A=<C?>C?>C?>B>=B>=@<;>:9>:9>:9@<;B>=C?>B>=C?>C?>@<;@<;>:9:65954:65;76>:9B>=D@?D@?C?>C==>:7?;8:63<85?;8>:7@<9@<9A@>A@>A@>@?=>=;<;9<;9=<:?><>=;=<:>=;?><@?=@?=>=;;:8:97:97=<:A@>CB@BA?A@>B@AA?@A?@@>?B>?C?@C?>D@?C?>B>=@<9?;8;:6;:6;:6<;7<85>:7?;8?;8?;8?;8@<9?;8B>;B>;A=:A=:B>;C?<B>;@<9?><?><?><>=;A=<C?>EA@EA@C?>D@?D@?C?>A@>A@>A@>@?=C?>B>=@<;>:9?;:A=<B>=B>=D@?D@?D@?B>=?;:>:9>:9?;:=<:>=;?><@?=A@>A@>BA?BA?C?>C?>@<9?;8@<9>:7<85<85>:7@<9>:7:63841:63>:7A=:B>;C?<EA@GCBIEDJFEHDEEA@C?>B>;A=:A=:A=:A=:B>;B>;C?<B>;A=:@<9@<9A=:A=:A=:?;:?;:@<;B>=B>=B>=A=<?;:?;:@<;A=<C?>EA@GCBFBAEA@A=<A=<B>=B>=C?>C?>B>=A=<B>=B>=B>=A=<A=<A=<B>=B>=@<;@<;A=<B>=C?>C?>D@?D@?A=<A=<A=<A=<A=<A=<A=<@<;A=:C?<EA>EA>C?<B>;B>;B>;A=:B>;D@=FB?EA@D@?C?>B>=B>;C?<D@=D@=C?>EA@FBAFBAGCBFBAEA@B>=?;:?;:@<;A=<A=<A=<C?>D@?B>=@<;?;::65954954;76?;:C?>EA@D@?C?>B>=@<9A=:<85=96@<9@<9C?<D@=CB@A@>@?=@?=?><?><A@>CB@DCAEDBDCABA?BA?CB@BA?@?=>=;<;9<;9>=;BA?DCADCADCADBCCABB@AA?@B>?B>?C?>C?>B>=B>=@<9?;8<;7<;7<;7<;7<85>:7?;8=96<85=96?;8@<9C?<C?<C?<B>;B>;C?<B>;A=:@?=?><>=;>=;@<;B>=D@?EA@D@?D@?D@?C?>A@>A@>A@>@?=D@?B>=?;:>:9?;:@<;A=<A=<C?>C?>D@?C?>A=<@<;@<;A=<@?=?><>=;?><@?=BA?BA?BA?EA@D@?A=:?;8A=:A=:@<9A=:?;8A=:@<9=96;74=96@<9B>;A=:B>;D@?FBAHDCHDCGCDFBAEA>EA>D@=D@=C?<C?<B>;B>;D@=C?<B>;A=:A=:@<9@<9@<9?;:?;:@<;@<;A=<@<;?;:>:9@<;A=<B>=C?>D@?EA@EA@D@?B>=B>=B>=A=<A=<A=<A=<@<;A=<B>=A=<A=<A=<A=<A=<B>=@<;@<;@<;A=<B>=C?>D@?D@?A=<A=<@<;@<;A=<A=<A=<@<;B>;C?<D@=C?<B>;A=:B>;C?<@<9C?<EA>FB?FBAD@?C?>B>=A=:C?<EA>EA>D@?EA@GCBGCBIEDIEDHDCEA@B>=?;:@<;A=<@<;@<;C?>D@?B>=A=<?;:<87:65:65<87?;:C?>D@?D@?D@?D@?C?<EA>@<9@<9B>=B>=FBAGCBEDBCB@BA?BA?B@AB@ADBCECDEDBGFDFECDCACB@DCACB@@?=@?=?><>=;>=;@?=CB@EDBFECECDDBCCABA?@A@>A@>C?>C?>C?>C?>@?=?><>=9=<8=<8<;7=96?;8@<9?;8=96=96?;8@<9C?<D@=C?<B>;B>;B>;B>;A=:B>=A=<@<;@<;>=;?><A@>BA?BA?BA?BA?BA?C?>C?>B>=C?>EA@C?>A=<@<;@<;@<;A=<B>=A=<B>=C?>D@?C?>B>=A=<A=<A@>?><=<:>=;A@>CB@CB@A@>C?>D@?B>=A=<C?<C?<B>;C?<@<;A=<A=:@<9?;8@<9A=:A=:@<9A=:D@?EA@EA@EA@EA@EA@D@=EA>EA>EA>EA>D@=D@=D@=EA>EA>D@=B>;A=:@<9@<9@<9A=<@<;@<;@<;A=<A=<@<;@<;?;:@<;B>=C?>B>=A=<A=<B>=A=<C?>D@?B>=@<;@<;A=<A=<A=<A=<B>=B>=A=<A=<A=<A=<@<;@<;@<;@<;A=<B>=C?>D@?B>=B>=A=<A=<A=<A=<B>=A=<C?<C?<C?<B>;A=:A=:A=:B>;@<9B>;EA>FB?EA@D@?B>=B>=@<9C?<EA>EA>EA@EA@FBAFBAIEDJFEJFEHDCD@?A=<@<;@<;@<;?;:B>=D@?B>=A=<@<;>:9;76;76=98@<;A=<B>=D@?FBAFBAEA>GC@B>;A=:B>=C?>GCBHDCGFDFECEDBFECFDEECDDBCDBCDCAEDBFECDCACB@DCACB@BA?BA?@?=?><>=;?><BA?EDBGFDFDEECDCABB@AA@>A@>C?>C?>EA@EA@CB@BA?A@<?>:>=9=<8?;8A=:C?<B>;@<9?;8?;8?;8C?<D@=D@=C?<B>;B>;B>;A=:B>=A=<@<;@<;?><?><@?=A@>BA?BA?CB@BA?C?>B>=B>=C?>FBAD@?B>=@<;?;:>:9?;:A=<B>=C?>D@?EA@D@?C?>A=<A=<@?=>=;<;9>=;BA?DCADCACB@@<;B>=B>=B>=EA>D@=B>;B>;A=<A=<A=:A=:B>;A=:@<9?;8@<9@<9B>=D@?D@?C?>C?>D@?C?<C?<D@=D@=D@=D@=D@=EA>GC@GC@FB?EA>D@=C?<C?<C?<A=<@<;?;:?;:@<;@<;@<;@<;?;:?;:A=<B>=B>=A=<A=<B>=@<;C?>D@?B>=@<;@<;B>=B>=@<;A=<B>=B>=B>=A=<A=<A=<A=<@<;@<;?;:@<;A=<B>=C?>D@?C?>B>=A=<A=<B>=B>=B>=B>;B>;B>;C?<B>;B>;A=:@<9@<9B>;C?<EA>D@?C?>B>=A=<A=:C?<EA>EA>EA@FBAEA@EA@FBAHDCIEDHDCFBAC?>A=<@<;?;:>:9A=<C?>A=<@<;@<;?;:=98=98>:9@<;A=<A=<D@?GCBGCBEA@GCBB>=@<;A=<B>=FBAGCBGFDFECFDEGEFGEFECDDBCCABDCADCACB@CB@CB@DCADCADCABA?@?=>=;>=;?><BA?EDBFECFECEDBDCABA?BA?BA?BA?BA?EDBDCADCACB@BA?A@>A@<@?;A@<CB>EA>C?<A=:A=:A=:@<9B>;D@=D@=D@=C?<C?<C?<B>;B>=A=<@<;A=<?><?><?><A@>BA?BA?CB@CB@C?>@<;A=<C?>FB?D@=C?<@<9>:7<85>:7@<9B>;C?<D@=EA>D@=C?<B>;A=:A=<@<;?;:A=<D@?FBAFBAFBA@?=@?=?><@?=CB@CB@@?=?><A=<@<;@<;A=<B>;B>;@<9?;8?;8>:7>:7A=:C?>C?>B>=B>=A=:A=:B>;B>;B>;C?<D@=D@=HDAHDAHDAGC@FB?FB?FB?FB?D@=B>;A=:@<9@<9@<9@<9@<9A=:@<9?;8A=:B>;A=:A=:B>;@<;C?>EA@C?>A=<A=<B>=B>=A=<A=<A=<A=<A=<@<;A=<A=<A=<A=<@<;@<;@<;@<;A=<A=<D@?C?>A=<A=<A=<B>=B>=B>=A=:B>;C?<C?<B>;A=:A=:A=:@<9A=:B>;B>;C?>B>=A=<@<;A=:C?<EA>EA>FBAFBAEA@C?>C?>EA@HDCHDCGCBD@?A=<?;:<87<87?;:B>=A=<@<;@<;?;:?;:>:9?;:A=<B>=A=<C?>EA@DBCB>=EA@@<;?;:@<;A=<EA@GCBFECEDBDBCECDECDDBCDBCDBCEDBBA?A@>A@>BA?CB@CB@DCAA@>?><=<:=<:@?=CB@EDBEDBFECEDBDCABA?BA?BA?BA?CB@EDBDCADCACB@CB@CB@DC?DC?FEAFEAFB?B>;@<9A=:B>;C?<B>;C?<EA>D@=D@=C?<C?<B>;A=<@<;@<;A=<@?=?><?><@?=BA?CB@DCACB@B>=?;:@<;C?>GC@FB?D@=B>;>:7<85>:7A=:A=:B>;B>;C?<B>;B>;A=:A=:A=<A=<A=<C?>D@?EA@EA@EA@DCACB@?><?><CB@CB@A@>@?=A=<?;:?;:@<;A=:B>;B>;B>;=96:63:63>:7A=<B>=A=<@<;@<9@<9A=:A=:A=:A=:B>;D@=FB?FB?GC@GC@FB?FB?GC@GC@IEBGC@EA>C?<B>;A=:A=:A=:B>;?;8=96>:7@<9@<9@<9@<9A=<EA@FBAC?>A=<B>=B>=@<;A=<A=<A=<@<;@<;@<;A=<A=<A=<A=<A=<@<;@<;@<;@<;@<;D@?B>=A=<@<;A=<A=<B>=B>=B>;C?<C?<B>;A=:@<9B>;C?<@<9@<9@<9A=:B>=B>=A=<?;:B>;C?<EA>EA>FBAFBAD@?B>=B>=D@?FBAHDCHDCEA@A=<?;::65:65>:9B>=A=<@<;@<;?;:@<;>:9?;:B>=C?>B>=B>=D@?DBCA=<D@??;:>:9?;:@<;D@?EA@EDBEDBDBCCABCABCABB@AB@ABA?BA?BA?BA?CB@CB@DCADCACB@BA?@?=@?=A@>CB@EDBGFDEDBEDBCB@?><=<:?><A@>A@>BA?A@>@?=A@>CB@EDBFECFECFECEDBDCABA?@?=?><A=<A=<B>=D@?FBAEA@FBAGCBGCBEA@C?>A=<@<;B>=BA?BA?A@>A@>BA?CB@CB@BA?B>=A=<B>=C?>EA>EA>EA>D@=A=:>:7>:7?;8A=:A=:B>;B>;B>;B>;A=:A=:?;:B>=B>=A=<C?>D@?C?>C?>EDBA@>>=;>=;@?=BA?A@>@?=A=<@<;?;:?;:A=:C?<@<9=96<85952952<85A=<C?>A=<@<;@<9A=:B>;@<9?;8?;8A=:B>;C?<D@=D@=D@=EA>GC@GC@GC@GC@IEBJFCHDAC?<@<9@<9A=:B>;@<9?;8>:7?;8A=:B>;B>;A=:B>;C?<C?<B>;B>;B>;A=:@<9B>;B>;B>;@<9@<9A=:B>;B>=@<;@<;A=<A=<@<;?;:?;:B>=B>=B>=A=<A=<B>=B>=@<;@<9@<9@<9?;8@<9A=:B>;B>;?;8@<9@<9A=:A=<A=<A=<A=<A=:B>;C?<C?<B>=A=<@<;@<;@<;A=<D@?FBAGCBEA@A=<>:9986875:97?><@?=>=;>=;@?=?><=<:?><@?=@?=@?=?><CB@CAB>:9B>=>:9>:9?;:?;:C?>D@?CB@CB@B@AB@AB@AB@AB@AB@AA@>A@>A@>BA?CB@DCADCADCAFECDCAA@>?><?><A@>CB@DCADCAEDBCB@?><>=;?><@?=@?=A@>@?=?><@?=A@>CB@CB@CB@BA?A@>@?=?><>=;=<:?;:?;:@<;B>=D@?EA@FBAGCBGCBFBAEA@C?>B>=C?>BA?BA?BA?BA?A@>A@>BA?A@>B>=@<;@<;@<;FB?FB?FB?EA>C?<@<9@<9A=:A=:A=:A=:B>;C?<C?<C?<B>;B>=C?>A=<?;:B>=D@?D@?EA@DCABA?@?=?><?><@?=@?=@?=A=<A=<A=<@<;@<9@<9=96;74:63952:63>:7B>=D@?C?>B>=A=:A=:@<9>:7=96>:7?;8?;8A=:B>;B>;B>;B>;C?<C?<C?<C?<EA>GC@GC@EA>C?<B>;B>;@<9@<9@<9?;8?;8@<9@<9A=:A=:B>;C?<B>;B>;B>;B>;A=:A=:A=:B>;B>;A=:@<9?;8?;8B>=@<;@<;A=<A=<@<;?;:@<;A=<B>=B>=A=<A=<B>=B>=@<;A=:A=:@<9@<9@<9@<9A=:A=:B>;A=:@<9A=:B>=B>=A=<?;:?;8@<9A=:B>;B>=A=<@<;?;:?;:@<;B>=EA@FBAEA@C?>A=<;:8986986>=;@?=>=;>=;?><@?==<:?><?><?><?><>=;A@>?=><85@<9>:7=96>:9=98A=<B>=A@>A@>A@>A@>A?@A?@A?@A?@A@>@?=@?=A@>CB@DCAEDBEDBGFDDCA@?=>=;=<:>=;?><@?=C?>C?>@?=>=;>=;@?=?><>=;@?=?><>=;>=;?><@?=B>=B>=<;9;:8986986:97:97986986>:9>:9A=<D@?FBAFBAFBAGCBC?>B>=A=<B>=A@>BA?BA?CB@A@>A@>A@>A@>B>=A=<@<;?;:EA@EA@EA@FBAD@?B>=A=<A=<@<;@<;@<;A=<B>=C?>C?>C?>C?<C?<@<9>:7@<;A=<B>=C?>BA?BA?A@>?><>=;>=;?><@?=@<;B>=B>=A=<?;:=98<85:63952841:63>:7B>;C?<C?>C?>B>;B>;?;8=96<85=96=96=96?;8A=:B>;A=:@<9@<9@<9@<9?;:A=<C?>EA@EA@EA@D@?C?>>:9?;:@<;@<;?;:>:9>:9?;:A=:B>;B>;A=:A=:B>;B>;A=:A=:A=:A=:A=:@<9?;8>:7>:7A=<A=<A=<A=<A=<?;:?;:@<;A=<A=<B>=A=<B>=B>=A=<@<;A=:A=:A=:A=:@<9@<9@<9@<9B>;A=:@<9A=:B>=C?>A=<?;:>:7>:7?;8@<9@<;@<;>:9=98>:9>:9@<;B>=D@?D@?C?>B>=<;9986986=<:@?=?><>=;?><@?=<;9>=;>=;>=;=<:;:8=<:;:8;74@<9>:7=96=98<87>:9?;:@?=@?=@?=@?=?=>?=>?=>?=>?><?><?><?><?><A@>DCAFECEDBBA?>=;<;9;:8<;9=<:=<:=98?;:=<:=<:>=;?><?><<;9?><>=;=<:=<:=<:>=;A=<A=<986875653764875986875764;76:65;76>:9@<;@<;A=<C?>@<;@<;@<;@<;@?=BA?DCAFECCB@CB@BA?A@>B>=A=<@<;@<;B>=C?>EA@FBAFBAD@?B>=A=<?;:?;:?;:>:9>:9?;:A=<C?>B>;B>;@<9?;8A=<A=<?;:@<;A@>A@>@?=?><=<:<;9=<:>=;?;:@<;A=<@<;>:9=98=96=96<85:63:63=96A=:B>;A=<A=<C?<C?<A=:>:7=96=96=96<85=96@<9B>;B>;@<9@<9@<9?;8?;:?;:@<;B>=EA@EA@D@?B>=@<;@<;A=<B>=A=<?;:>:9>:9@<9A=:B>;A=:A=:A=:B>;B>;A=:@<9@<9?;8>:7>:7?;8@<9A=<A=<A=<A=<A=<?;:?;:A=<A=<A=<B>=B>=B>=B>=A=<A=<A=:A=:A=:A=:A=:@<9@<9@<9?;8?;8?;8@<9B>=B>=B>=A=<?;8?;8>:7?;8?;:>:9=98;76=98=98=98>:9@<;B>=B>=A=<<;9:97:97=<:?><@?=@?=A@>>=;;:8=<:<;9<;9;:8875986875=96B>;@<9>:7=96;74<85<85>=;?><?><?><>=;=<:>=;?><>=;>=;=<:;:8;:8=<:A@>DCACB@@?==<:;:8:97;:8;:8;:8<87=98>:9>:9>=;?><>=;;:8=<:=<:=<:<;9?;:?;:@<;A=<=<:;:8:97:97<;9=<:<;9;:8:65843843:65<87;76<87>:9@::@::?;:@<;@?=CB@EECGGEDDBCCAA@>@?=A=<@<;A;;A;;@<;B>=EA@GCBGCBFBAD@?B>=?;:@<;?;:=98;76<87?;:A=<A=:A=:@<9@<9B>;B>;@<;A=<@?=@?=?><>=;=<:<;9<;9=<:@<=@<=@<;@<;?;:>:9?;8?;8@<9=96;74=96A=:B>;B>;A=:A=:C?<C?<A=:?;8>:7>:7=96;74?;8B>;B>;A=:A=:A=:@<9B>=A=<@<;A=<C?>C?>B>=A=<B>=B>=B>=B>=B>=A=<?;:>:9@<9A=:A=:@<9@<9A=:A=:A=:@<9@<9@<9?;8=96=96?;8A=:@<;@<;A=<A=<A=<?;:@<;A=<A=<A=<B>=B>=B>=A=<A=<@<;A=:A=:A=:A=:A=:@<9?;8?;8=96>:7>:7?;8@<;@<;A=<A=<A=:?;8>:7>:7>:9>:9>:9=98>:9=98<87=98>:9@<;A=<A=<=<:=<:=<:>=;?><?><@?=BA?=<::97;:8:97:97;:8764764764A=:EA>A=:?;8>:7;74<85;74;:8=<:>=;>=;=<:=<:>=;@?==<:=<:;:8986986:97>=;A@>BA?@?==<:<;9<;9<;9;:8:97>:9@<;A=<@<;?><?><=<:;:8<;9<;9<;9<;9>:9?;:@<;A=<@?=?><=<:>=;?><@?=?><>=;>:9<87<87=98=98=98=98=98?99?99>:9>:9?><CB@DDBEECDDBBB@A@>>=;?;:>:9@::@::>:9A=<C?>EA@EA@D@?C?>B>=A=<A=<A=<?;:<87;76=98@<;?;8?;8=96>:7B>;B>;B>=C?>?><?><?><>=;>=;=<:=<:=<:B>?A=>A=<A=<A=<@<;@<9A=:@<9<85952;74@<9B>;B>;B>;@<9B>;D@=C?<A=:@<9@<9@<9=96@<9C?<C?<C?<C?<C?<C?<EA@C?>A=<@<;A=<B>=A=<A=<B>=A=<?;:?;:?;:?;:>:9=98@<9A=:A=:@<9@<9A=:A=:@<9@<9A=:A=:@<9>:7=96>:7@<9A=<@<;A=<A=<A=<@<;@<;A=<A=<A=<B>=C?>B>=A=<@<;@<;B>;B>;B>;A=:@<9?;8>:7>:7>:7?;8?;8?;8>:9?;:@<;A=<@<9?;8>:7>:7>:9?;:@<;@<;?;:>:9=98>:9?;:A=<B>=B>=@?=A@>A@>@?=?><?><@?=@?=;:8986;:8:97;:8<;9875875764D@=FB?B>;@<9@<9=96>:7<85:95<;7>=;=<:<;9=<:>=;@?=?><=<:<;9;:8;:8<;9>=;?><@?=?><>=;>=;?><@?=>=;=<:A=<D>>D@?C?>B>=B>=?><=<:<;9=<:?;:?;:?;:@<;B<<C?>A@>@?=?><?><@?=@?=@?=?><?><?><A=<A=<A=<A=<?;:=98>88=77<87<87=<:BA?CCACCACCABB@A@>?><>:9=98?99@::=98@<;B>=A=<A=<A=<B>=A=<B>=B>=B>=A=<?;:>:9>:9>:9@;8?:7<85=96A=:A=:A=<C?>?><@?=@?=@?=?><?><>><?><C?@B>?C?>D@?C?>A=<A=:A=:>:7:63841;74?;8A=:B>;B>;@<9B>;C?<C?<B>;C?<D@=D@=A=:B>;C?<C?<C?<D@=EA>EA>D@?C?>B>=A=<A=<B>=B>=B>=B>=@<;>:9<87;76<87=98>:9@<9A=:B>;A=:@<9@<9@<9?;8@<9A=:A=:@<9?;8?;8@<9A=:A=<@<;@<;A=<A=<A=<@<;A=<A=<A=<B>=C?>B>=@<;?;:@<;A=:A=:A=:A=:@<9@<9?;8?;8@<9@<9?;8?;8?;:?;:@<;A=<?;8?;8@<9@<9@<;@<;A=<A=<A=<@<;?;:@<;A=<C?>D@?D@?CB@DCACB@A@>@?=@?=@?=?><;:8986;:8<;9=<:?><;:8:97986EA>GC@B>;A=:A=:?;8?;8>:7;:6=<8>=;>=;<;9<;9=<:?><@?=?><=<:=<:?><@?=@?=?><>=;>=;>=;@?=BA?CB@BA?B>=B>=EA@FBAD@?C?>C?>A@>?><=<:>=;@<;@<;@<;A=<B>=D@?A@>@?=?><?><@?=@?=@?=@?=>=;@?=C?>B>=B>=B>=?;:;76=77=77;76<87>=;CB@EDBCCADCADCACB@A@>@<;>:9?99@::?;:A=<B>=@<;?;:@<;B>=B>=B>=B>=B>=B>=B>=@<;>:9<87A=:@<9>:7?;8B>;B>;@<;B>=@?=A@>BA?BA?A@>@?=@@>BA?B>?C?@EA@FBAEA@B>=A=:B>;=96;74:63<85?;8A=:B>;C?<@<9B>;C?<C?<D@=FB?FB?FB?B>;B>;B>;A=:A=:C?<EA>EA>C?>C?>B>=B>=A=<B>=C?>D@?D@?B>=?;:<87;76<87?;:A=<@<9A=:B>;A=:@<9@<9?;8>:7B>;A=:?;8>:7>:7@<9B>;C?<A=<@<;@<;A=<B>=A=<@<;@<;B>=A=<B>=C?>B>=@<;?;:?;:@<9@<9@<9@<9A=:A=:A=:A=:B>;A=:?;8?;8@<;A=<B>=B>=?;8@<9A=:A=:@<;@<;@<;@<;A=<@<;@<;A=<C?>EA@FBAFBADCAEDBCB@A@>A@>BA?A@>?><<;9:97<;9=<:?><BA?>=;<;9<;9CB=DC>@?:@?:?>:?>:D@=A=:@<;?;:@<;A=<@<=?;<?;<@<=@?=?><@?=A@>A@>A@>@?=A@>>=;;:8<;9BA?EDBCB@C?>C?>C?>DCAEDBBA?CB@EDBCB@@?=?><?><?><@?=A@>A@>CB@FECEDBEDBCB@@?=>=;?><A@>A@>?><A@>BA?BA?BA?BA??><<;9=96>:7>:9?;:A=<C?>D@?CB@D@?C?>C?>B>=B>;@<9?;8>:7?;8A=:A=:>:7>:9?;:@<;@<;B>=C?>EA@FBAEA>C?<@<9@<9@<9=<8=<8=<8>=9?>:@?;?>:?><BA?BA?A@>A@>CB@EDBDCAD@?D@?EA@EA@EA@C?>B>=B>=@<9@<9?;8>:7?;8@<9B>;C?<A=:@<9@<9A=:C?<D@=D@=EA>B>;B>;A=:@<9A=:B>;A=:@<9<85<85=96?;8A=:B>;A=:@<9C?>C?>A=<>:9:65:65=98?;:C?<B>;A=:B>;B>;C?<B>;A=:B>;B>;@<9>:7>:7@<9A=:A=:C?>C?>A=<@<;A=<B>=B>=@<;C?>C?>C?>C?>B>=A=<@<;@<;A=:A=:@<9@<9@<9A=:A=:A=:C?<A=:@<9A=:A=:@<9A=:B>;@?;@?;@?;@?;@?;?>:?><?><<;9=<:>=;@?=A@>BA?CABDBCCB@BA?CB@DCADCAA@>?><?><:97;:8<;9>=;@?=BA?BA?A@>@?=BC=CD>@?:@?:@?;A@<FB?EA>B>=A=<@<;A=<B>?A=>@<=@<=A@>A@>A@>BA?CB@CB@BA?@?=;:8986;:8A@>EDBCB@C?>C?>BA?CB@DCACB@CB@DCACB@A@>?><?><A@>BA?CB@CB@EDBHGEEDBEDBCB@A@>@?=A@>BA?CB@A@>CB@DCADCADCADCAA@>=<:=96=96>:9@<;A=<C?>D@?EA@C?>C?>C?>B>=B>;A=:@=8?<7?;8@<9@<9?;8>:9?;:@<;@<;EA@EA@EA@FBAD@=A=:?;8?;8@?;?>:>=9>=9>=9?>:?>:?>:>=;@?=A@>@?=A@>CB@EDBEDBEA@EA@EA@EA@D@?C?>B>=B>=B>;B>;B>;@<9?;8?;8A=:C?<A=:@<9>:7?;8A=:B>;C?<D@=C?<B>;@<9>:7>:7?;8>:7=96;74:63:63<85>:7?;8>:7>:7A=<B>=B>=?;:<87;76<87>:9B>;A=:A=:A=:B>;B>;A=:A=:B>;B>;A=:>:7<85>:7@<9A=:B>=B>=B>=A=<B>=D@?C?>B>=C?>C?>C?>C?>B>=A=<@<;@<;A=:A=:@<9@<9@<9A=:A=:A=:B>;?;8>:7?;8@<9?;8?;8?;8>=9>=9?>:@?;?>:?>:>=;=<:>=;?><@?=A@>BA?BA?B@AB@AA@>A@>A@>BA?BA?A@>?><>=;;:8;:8;:8=<:@?=A@>BA?A@>A@>?>9@?:<;6<;6@<9A=:FB?EA>EA@C?>A=<B>=D@AD@A@>??=>BA?CB@CB@CB@DCAEDBCB@?><986764986>=;BA?BA?D@?EA@CB@BA?CB@DCADCADCADCACB@@?=A@>BA?DCACB@CB@DCAFECDCADCACB@A@>A@>BA?CB@CB@CB@DCAFECFECGFDFECCB@@?=?;8@<9A=<B>=C?>D@?D@?D@?B>=B>=B>=B>=B>;B>;A=:A=:@<9@<9@<9@<9?;:>:9?;:@<;GCBEA@EA@D@?B>;@<9?;8@<9C?<C?<B>;B>;?>:?>:?>:?>:=<:?><@?=?><@?=CB@EDBDCAD@?D@?D@?C?>C?>B>=A=<A=<A=:B>;B>;@<9=96<85>:7A=:A=:?;8=96<85>:7A=:B>;B>;C?<B>;@<9>:7=96>:7>:7=96;74:63952952;74<85;74;74>:9@<;C?>B>=?;:<87<87>:9A=:B>;B>;B>;A=:A=:A=:A=:B>;B>;A=:>:7<85<85?;8A=:@<;@<;@<;@<;B>=D@?C?>B>=C?>C?>B>=B>=A=<A=<A=<@<;@<9@<9@<9@<9@<9@<9A=:A=:@<9>:7=96=96?;8?;8>:7=96<;7<;7=<8?>:?>:?>:>=;=<:@?=@?=BA?CB@CB@CB@A@>@?=?><@?=@?=@?=A@>BA?@?==<:=<:;:8:97;:8>=;A@>BA?A@>A@>;:5;:5761872;74=96B>;B>;EA@C?>B>=C?>D@AD@AA?@?=>BA?DCAEDBDCAEDBGFDCB@>=;:97764764:97>=;@?=C?>FBABA?A@>A@>CB@DCACB@CB@DCAA@>BA?CB@BA?@?=@?=@?=BA?A@>BA?CB@A@>@?=@?=A@>BA?CB@DCAEDBGFDHGEGFDDCABA?C?<D@=EA@FBAFBAEA@D@?C?>B>=B>=B>=B>=C?<C?<C?<C?<@<9?;8@<9A=:@<;>:9>:9A=<D@?C?>B>=B>=A=:@<9?;8@<9A=:B>;C?<C?<@?;?>:?>:?>:>=;?><?><>=;?><BA?CB@BA?C?>C?>C?>A=<A=<A=<@<;?;:?;8@<9@<9>:7<85;74=96?;8?;8?;8=96<85=96?;8A=:A=:A=:A=:@<9>:7=96>:7?;8@<9=96<85:63952952952952952;76>:9C?>D@?B>=>:9=98>:9A=:B>;C?<B>;B>;A=:A=:B>;B>;B>;B>;@<9>:7=96?;8@<9?;:?;:?;:@<;A=<B>=B>=A=<B>=B>=A=<@<;@<;@<;@<;@<;>:7>:7>:7?;8?;8?;8?;8@<9?;8>:7>:7>:7>:7>:7>:7>:7;:6;:6<;7=<8>=9?>:?><?><?><@?=A@>BA?CB@BA?A@>@?=>=;?><?><?><A@>CB@A@>=<:>=;;:8986986<;9@?=A@>A@>A@>;:5;:5841952:63:63?;8?;8B>=C?>C?>C?>A@>A@>A?@@>?CB@EDBFECEDBFECGFDDCA?><;:8875954;76=98?;:A=<C?>@?=>=;>=;@?=A@>@?=@?=BA?@?=@?=?><>=;<;9;:8<;9=<:<;9?><A@>@?=?><?><@?=A@>@?=A@>BA?EDBFECFECDCABA?D@=D@=EA@FBAEA@D@?C?>C?>B>=B>=A=:B>;B>;C?<C?<C?<@<9?;8@<9A=:@<;>:9>:9A=<@<;@<;?;:@<;@<9?;8?;8?;8>:7@<9B>;D@=C?<B>;A=:A=:A=<A=<@<;?;:>=;A@>A@>?><A=<B>=A=<@<;?;:@<;@<;?;:@<9?;8?;8>:7<85<85<85=96=96?;8?;8>:7>:7?;8@<9@<9?;8@<9A=:?;8>:7=96?;8B>;@<9@<9>:7<85:63952952:63954=98B>=EA@D@?@<;>:9>:9A=:B>;C?<B>;A=:A=:A=:B>;C?<B>;B>;B>;A=:@<9?;8?;8@<;@<;@<;A=<B>=B>=A=<@<;@<;A=<A=<@<;?;:@<;@<;?;:=96>:7>:7=96=96<85<85=96>:7?;8?;8?;8>:7>:7>:7?;8<85<85;74<85=96?;8@<;A=<@<;A=<B>=C?>B>=B>=A=<@<;>=;?><?><?><@?=BA?A@>=<:?><<;9875875;:8>=;@?=A@>@?=<;6;:5952952952952<85<85?;:A=<C?>C?>A@>@?=A?@@>?DCAEDBEDBEDBEDBFECCB@@?=<;9:97;76<87=98=98=98>:9<;9;:8:97;:8<;9<;9<;9=<:;:8;:8:97875875875986986:97=<:@?=@?=?><?><@?=@?==<:=<:>=;A@>BA?BA?A@>@?=@<9A=:A=<B>=B>=B>=B>=B>=B>=A=<@<9@<9A=:A=:B>;B>;?;8?;8@<9@<9@<;?;:?;:A=<?;:?;:?;:@<;@<9>:7=96=96=96?;8A=:C?<C?<B>;A=:A=:B>=A=<?;:=98=<:@?=?><=<:@<;A=<A=<?;:?;:A=<A=<A=<A=:@<9>:7=96=96<85;74:63<85?;8A=:@<9?;8?;8@<9@<9@<9A=:B>;B>;?;8>:7?;8B>;B>;B>;@<9>:7<85;74;74;74:65<87A=<EA@D@?A=<?;:?;:A=:A=:B>;A=:A=:A=:A=:A=:B>;B>;C?<C?<C?<A=:@<9@<9A=<@<;@<;A=<A=<?;:=98=98?;:A=<A=<@<;@<;A=<@<;>:9>:7>:7>:7=96<85;74:63:63=96?;8@<9?;8=96=96?;8?;8<85;74952952;74=96>:9?;:A=<C?>D@?D@?B>=A=<@<;@<;>=;>=;>=;?><@?=A@>@?=>=;?><<;9986875:97=<:?><@?=@?=>:7=96952:63:63841;74;74=98@<;A@>BA?A@>A@>@@>@@>CB@CB@CB@CB@DCACB@BA?@?=>=;<;9=98<87<87;76:65:65;:8:97986986:97:97:97;:8:97:97986986:97<;9<;9:97<;9?><A@>BA?BA?A@>@?=?><<;9;:8;:8=<:>=;>=;<;9<;9;:8<;9<;9<;9=<:>=;>=;>=;?><>=;=<8<;7=<8=<8=<8=<8>:7@<9@<9@<9?;:@<;@<;@<;@<;?;:?;:@<;@<9>:7=96=96>:7?;8@<9A=:B>;B>;A=:A=:A=<@<;=98<87?;:B>=A=<>:9?;:@<;@<;>:9?;:A=<B>=B>=A=:@<9?;8>:7>:7>:7<85;74=96@<9A=:@<9?;8A=:A=:A=:A=:A=:C?<C?<B>;@<9@<9A=:C?<B>;A=:@<9@<9@<9>:7=96=98=98@<;D@?D@?A=<?;:@<;A=:A=:A=:A=:A=:A=:A=:A=:@<9A=:B>;C?<C?<A=:@<9A=:B>=A=<@<;A=<@<;>:9;76:65=98@<;A=<A=<@<;A=<?;:=98>:7>:7?;8>:7<85;74;74;74>:7?;8?;8>:7=96=96?;8?;8=96;74:63952:63;74<87<87?;:B>=EA@EA@C?>@<;@<;@<;?><?><?><@?=@?=@?=?><?><>=;<;9986875986<;9>=;@?=A@>?;8>:7:63;74;74952;74;74<87@<;A@>BA?BA?BA?AA?@@>BA?A@>A@>BA?BA?@?=@?=@?=A@>>=;=98;76:65954954954<;9<;9:97986986:97;:8:97>=;>=;=<:>=;@?=BA?A@>?><@?=BA?CB@DCADCACB@A@>>=;<;9:97:97;:8<;9:97986986;:8;:8;:8;:8;:8<;9=<:=<:?><>=;<;7;:6;:6;:6;:6;:6=96@<9A=:?;8?;:@<;A=<@<;A=<@<;?;:@<;@<9?;8>:7=96@<9@<9?;8@<9A=:B>;A=:A=:@<;?;:<87;76>:9B>=B>=?;:=98?;:?;:=98>:9A=<C?>B>=B>;A=:@<9@<9A=:A=:@<9>:7>:7@<9A=:?;8@<9B>;B>;A=:?;8?;8@<9B>;B>;@<9?;8?;8C?<B>;@<9A=:C?<D@=A=:?;8?;:>:9@<;C?>C?>A=<?;:@<;B>;B>;A=:A=:B>;B>;A=:A=:?;8@<9B>;C?<A=:?;8@<9B>;D@?B>=A=<B>=A=<>:9;76:65<87?;:A=<@<;@<;A=<?;:;76<85>:7?;8?;8>:7=96=96>:7>:7?;8?;8=96=96>:7?;8?;8>:7=96;74:63:63:63:65:65:65?;:C?>D@?A=<>:9>:9?;:A@>?><@?=A@>A@>?><?><@?==<:<;9:97986986;:8>=;@?=?><@<9B>;=96;74:63730:63<85=98A=<?><>=;BA?BA?@@>BB@?><@?=A@>A@>@?=A@>BA?CB@C?>C?>B>=@<;<87:65:65;76=<:;:8:97:97:97875:97>=;@?=A@>CB@CB@CB@CB@CB@DCAEDBDCADCADCADCACB@A@>?><=<:<;9:97:97;:8:97875764764764764986;:8<;9=<8<;7=<8=<8<;7;:6:95:95:95:95C?<B>;A=:@<9@<;@<;@<;A=<>:9@<;@<;@<;@<9A=:?;8=96<85>:7?;8?;8@<9B>;C?<B>;B>=@<;>:9>:9A=<D@?C?>@<;@<;@<;@<;@<;@<;A=<A=<A=<C?<C?<B>;A=:@<9@<9@<9@<9B>;A=:@<9?;8>:7B>;D@=B>;@<9A=:@<9@<9B>;A=:?;8?;8@<9@<9@<9B>;D@=EA>C?<A=:A=<A=<@<;B>=C?>C?>B>=A=<A=<A=<A=<A=<@<;?;:@<;A=<@<;@<;A=<A=<A=<A=<B>=C?>FBAC?>@<;A=<@<;>:9=98?;:@<;@<;A=<B>=B>=A=<?;:>:9=96@<9A=:@<9?;8@<9@<9@<9@<9@<9@<9?;8?;8?;8?;8?;8?;:?;:>:9=98<87<87:63730841<85?;8@<9?;8@<9@<9@<9?><?><?><?><?><?><?><?><>=;>=;;:8875875764:97?><?><D@=EA>A=:?;8=96:63;74<85?;:C?>@?=?><A@>A@>??=BB@@?=@?=A@>A@>A@>BA?BA?CB@D@?D@?C?>B>=@<;>:9<87;76:97:97;:8=<:=<::97:97<;9?><@?=A@>A@>@?=A@>CB@DCADCADCADCADCACB@BA?@?=?><>=;=<:<;9<;9<;9<;9:97986875875986:97;:8<;9<;7<;7;:6:95:95:95:95;:6<;7=<8A=:@<9@<9@<9@<;@<;@<;?;:?;:@<;@<;@<;@<9A=:@<9?;8;74=96>:7>:7>:7@<9B>;B>;A=<@<;?;:?;:B>=EA@D@?A=<@<;@<;@<;A=<C?>C?>C?>B>=C?<C?<B>;A=:@<9@<9A=:B>;A=:@<9A=:A=:?;8A=:C?<A=:A=:B>;A=:A=:C?<B>;@<9@<9@<9@<9@<9A=:C?<C?<C?<C?<A=<@<;?;:@<;B>=D@?C?>B>=B>=A=<A=<B>=B>=B>=B>=C?>@<;@<;A=<A=<A=<A=<B>=B>=D@?B>=A=<A=<@<;>:9>:9@<;A=<A=<A=<B>=C?>C?>A=<?;:?;8A=:B>;A=:@<9A=:A=:A=:?;8@<9?;8>:7?;8@<9?;8>:7@<;A=<A=<@<;?;:?;:=96;74730;74=96>:7=96>:7?;8@<9@?=?><>=;>=;>=;>=;>=;>=;?><?><=<::97875764986>=;=<:DC?FEAD@=C?<A=:=96=96=96@<;C?>C?>A=<@?=A@>A@>CB@BA?BA?A@>A@>BA?BA?C?>C?>C?>B>=B>=B>=C?>A=<=98:65875986<;9@?=@?==<:;:8:97;:8=<:>=;?><?><@?=BA?CB@CB@BA?BA?BA?A@>@?=?><>=;=<:=<:>=;>=;>=;=<:<;9<;9=98>:9?;:?;:?;:?;:?;8?;8=96=96=96>:7>:7?;8@<;A=<?;8?;8?;8@<9@<;@<;?;:>:9@<;A=<@<;@<;?;8@<9?;8=96:63<85=96=96=96?;8A=:B>;A=<A=<@<;A=<A@>CB@BA?@?=?;:>:9?;:@<;C?>D@?C?>B>=C?<C?<B>;A=:A=:@<9A=:A=:>:7?;8B>;C?<A=:A=:B>;@<9@<9A=:@<9@<9B>;A=:?;8?;8?;8@<9@<9@<9@<9A=:C?<D@=C?>B>=@<;A=<C?>EA@FBAFBAC?>B>=A=<C?>D@?C?>C?>C?>A=<A=<A=<A=<A=<A=<A=<B>=A=<A=<A=<B>=A=<?;:?;:A=<A=<A=<B>=C?>D@?D@?C?>B>=B>;B>;B>;A=:B>;B>;A=:@<9@<9@<9?;8?;8@<9B>;A=:?;8@<;A=<B>=A=<A=<A=<?;8=96952;74<85<85<85>:7@<9A=:?><>=;=<:=<:>=;?><>=;>=;>=;?><>=;;:8986764986>=;<;9BA=FEAFB?EA>EA>A=:?;8=96?;:A=<C?>C?>A@>A@>BA?DCACB@BA?A@>A@>A@>@?=A=<@<;A=<@<;@<;B>=C?>B>=?;:;76764875:97?><BA?A@>=<::97875:97=<:?><@?=@?=A@>A@>CB@A@>@?=?><?><?><>=;=<:;:8=<:>=;?><?><?><?><?><@<;A=<B>=B>=A=<@<;@<9@<9A=:A=:B>;B>;B>;B>;A=<A=<?;8?;8@<9@<9?;:>:9>:9=98@<;@<;@<;?;:>:7=96;74:63;74<85=96>:7>:7?;8@<9A=:A=<B>=C?>D@?BA?BA?A@>@?=>:9>:9?;:@<;B>=C?>B>=@<;A=:B>;B>;A=:@<9?;8>:7>:7=96=96A=:EA>EA>C?<B>;@<9?;8A=:@<9@<9B>;A=:?;8?;8?;8?;8@<9?;8?;8?;8@<9A=:B>=B>=A=<@<;A=<C?>EA@GCBC?>B>=B>=C?>C?>B>=A=<A=<B>=B>=B>=B>=A=<A=<B>=B>=B>=A=<A=<B>=A=<@<;@<;A=<B>=B>=B>=C?>D@?EA@EA@EA@C?<B>;A=:A=:B>;B>;A=:?;8@<9@<9@<9@<9C?<EA>D@=C?<A=<B>=C?>C?>B>=A=<?;8>:7<85<85<85;74;74=96?;8A=:>=;<;9;:8;:8>=;?><?><?><<;9=<:=<:<;9;:8986:97>=;=<:@?;ED@DC?FEAIEBEA>B>;?;8=98?;:C?>D@?C?>C?>BA?CB@A@>@?=B>=A=<A=<A=<?;:>:9?;:?;:?;:A=<B>=B>=@<;>:9764653653:97?><A@>>=;:97764986<;9?><@?=A@>A@>A@>CB@A@>>=;>=;?><?><>=;<;9;:8<;9?><@?=A@>A@>BA?BA?C?>D@?D@?D@?B>;A=:A=:A=:B>;C?<D@=EA>EA>D@=C?>A=<@<9A=:B>;A=:?;:=98=98=98@<;?;:@<;@<;?;8=96;74:63=96=96>:7@<9?>:?>:>=9>=9?><A@>CB@DCABA?@?=?><?><?;:?;:@<;A=<A=<A=<@<;?;:>:7?;8A=:B>;A=:@<9>:7=96=96:63>:7EA>GC@EA>C?<A=:@<9B>;A=:A=:C?<C?<@<9@<9@<9?;8?;8?;8>:7>:7=96=96?;:?;:?;:>:9=98=98@<;B>=A=<A=<B>=B>=B>=@<;@<;A=<B>=B>=B>=B>=B>=A=<B>=B>=C?>B>=A=<A=<A=<A=<@<;A=<B>=B>=B>=C?>D@?FBAFBAFBAD@=B>;A=:B>;C?<C?<A=:@<9@<9@<9@<9A=:D@=GC@GC@EA>D@?D@?D@?D@?C?>A=<@<9?;8=96<85;74:63:63;74=96?;8?;:=98;76;76>:9?;:@<;?;:=98>:9=98=98>:9=98<87?;:>=;?>:ED@DC?FEAJFCHDAFB?B>;>:9?;:D@?FBAB>=@<;@?=@?=>=;>=;@<;@<;@<;@<;?;:>:9=98=98>:9?;:@<;A=<@<;?;:875542320542;:8@?=>=;:97986986;:8=<:?><A@>A@>@?=@?=>=;;:8;:8=<:=<:<;9;:8<;9>=;@?=BA?CB@DCADCAEDBD@?D@?D@?C?>B>;A=:A=:A=:?;8@<9B>;EA>FB?FB?D@?B>=A=:B>;C?<B>;@<;>:9>:9>:9?;:?;:@<;A=<B>;@<9>:7>:7?;8?;8@<9B>;@?;?>:>=9>=9?><A@>DCAEDBCB@@?=>=;>=;?;:?;:?;:?;:?;:>:9=98=98;74=96@<9C?<C?<B>;@<9?;8<85730952A=:D@=C?<A=:@<9@<9B>;A=:A=:C?<C?<A=:A=:A=:@<9?;8?;8?;8>:7<85;74<87=98>:9=98;76;76<87>:9=98>:9?;:A=<@<;?;:@<;A=<A=<A=<A=<A=<A=<A=<A=<A=<C?>B>=@<;@<;@<;A=<A=<A=<B>=A=<A=<B>=D@?EA@EA@EA@EA>C?<B>;C?<EA>D@=C?<B>;@<9@<9@<9A=:C?<FB?FB?EA>D@?D@?D@?C?>B>=@<;?;8?;8@<9>:7<85<85<85<85=96>:7?;:=98:65:65;76<87=98<87>:9>:9=98=98>:9=98<87>:9?><>><CCABA?DCAFECFECGCBC?>?;8@<9D@=FB?@<9>:7@<9?;8=<:>=;@<;@<;@<;?;:?;:>:9=98=98=98>:9?;:@<;?;:?;:986764320320986?><>=;;:8986986986<;9?><A@>@?=>=;;:8;:8:97:97;:8;:8<;9;:8>=;?><A@>CB@EDBEDBFECFECFBCD@AC?>A=<A=:A=:A=:B>;?;8@<9B>;D@=FB?FB?EA@C?>B>;B>;C?<C?<C?>A=<@<;?;:>:9>:9?;:A=<B>;A=:A=:A=:?>:?>:@?;@?;?>:=<8=<8?>:@?=@?=BA?EDBEDBBA??><>=;>:9>:9=98=98=98=98<87;76:63=96@<9B>;C?<C?<B>;A=:<8562/730>:7A=:?;8?;8?;8@<9A=:@<9A=:C?<C?<@<9A=:B>;A=:@<9@<9A=:@<9>:7=96<87=98?;:?;:>:9<87;76;76;76;76<87>:9?;:>:9>:9?;:>:9?;:?;:?;:?;:?;:?;:@<;B>=@<;?;:>:9>:9@<;A=<B>=A=<A=<@<;A=<C?>D@?D@?C?>C?<A=:A=:C?<D@=D@=C?<B>;A=:A=:@<9@<9A=:C?<C?<C?<C?>A=<A=<@<;?;:>:9>:7@<9A=:?;8>:7?;8?;8>:7>;6?;8?;:>:9<87:65:65;76<87=98>:9?;:=98=98>:9=98=98?;:@?=?><CB@@?=@?=CB@DCAFBAC?>@<9@<9D@=EA>?;8<85?;8?;8>=;?><B>=A=<@<;>:9>:9>:9?;:>:9>:9?;:A=<A=<@<;?;::97875542431875>=;?><;:8875764986<;9@?=A@>>=;;:8:97:97;:8;:8;:8<;9=<:>=;?><@?=BA?DCAEDBFECFECEDBGCDEABB>=A=<A=:B>;B>;B>;B>;B>;C?<D@=EA>FB?D@?C?>B>;A=:B>;D@=EA@D@?B>=?;:?;:=98=98?;:@<9@<9@<9B>;@?;A@<A@<@?;=<8;:6=<8A@<@?=?><A@>DCAFECDCAA@>>=;?;:>:9=98=98>:9?;:=98<87;74=96?;8A=:B>;B>;B>;A=:?;8841841?;8A=:?;8?;8A=:A=:B>;B>;B>;D@=D@=B>;B>;B>;B>;A=:A=:B>;A=:A=:@<9<87=98?;:@<;?;:>:9;76954:65954:65<87=98<87<87;76=98=98=98=98=98=98>:9>:9?;:?;:>:9<87<87?;:B>=D@?A=<@<;@<;A=<B>=C?>C?>B>=A=:?;8?;8A=:C?<B>;B>;B>;B>;B>;A=:?;8?;8@<9A=:A=:A=<@<;?;:?;:>:9=98?;8A=:@<9?;8>:7?;8@<9?;8>;6>:7@<9?;:=98<87;76<87>:9?;:>:9?;:>:9=98>:9=98>:9A=<>=;B>;A=:=98A=<FBAEA@FBAEA@C?>A=<@<;@<;?;:=98=96=96?;:A=<B>=A=<@<;?;:>:9=98<87>:9?;:?;:@<;C?>B>=@<;@<;<87:65;76>:9B>=@?=;:8875986=98>:9@<;A=<@<;=98=98@<;A=<A=<A=<A=<?><?><>=;@?=CB@DCADCADCADCACB@FBAEA@C?>B>=B>=B>=A=<A=<B>;C?<C?<C?<D@=EA>D@=C?<A=:B>;C?<EA>EA>D@=A=:>:7?;8=96=96?;8>:7;74=96B>;C?<D@=C?<@<9>:7>:7@<9A=:B>=A=<@<;A=<C?>D@?B>=@<;?;:A=<@<9=96<85=96>:7=96=96@<9@?=@?=@?=A@>BA?BA??><:97<;9BA?CB@BA?A@>A@>A@>?><?><A@>CB@BA?A@>A@>A=<A=<B>=C?>D@=EA>EA>D@=B>;@<9@<9A=:B>;A=:?;8=96;74;74;74:63952:63:63:63952;74=96=96<85=96>:7?;8?;8B>;@<9:63841<85B>;D@=B>;@<9?;8@<9A=:A=:A=:B>;B>=A=<?;:?;:?;:@<;A=<A=<B>=A=<A=<A=<@<;>:9>:9@<;?><>=;?;:>:9=96>:7?;8@<9@;8@;8?;8?;8>:7>:7?;8?;8A=:@<9=96:63;74=96>:7=96>:9=98;76:65:65<87>:9@<;?;:=96>:7;76@<;EA@D@?EA@EA@D@?B>=B>=A=<?;:>:9>:7?;8@<;A=<B>=A=<A=<A=<@<;?;:>:9@<;@<;?;:?;:A=<B>=A=<A=<>:9<87=98?;:C?>BA?>=;>=;>=;@<;?;:@<;A=<?;:=98>:9B>=EA@FBAEA@EA@BA?A@>?><@?=A@>BA?BA?BA?BA?BA?D@?D@?D@?D@?C?>B>=A=<A=<A=:B>;B>;A=:B>;C?<C?<B>;?;8?;8@<9A=:C?<C?<A=:@<9?;8=96=96=96;74:63<85?;8B>;C?<C?<@<9>:7?;8@<9A=:A=<@<;?;:@<;B>=C?>C?>C?>A=<B>=B>;?;8>:7=96>:7>:7?;8@<9?><?><@?=A@>CB@BA??><<;9?><EDBFECCB@BA?A@>A@>?><>=;?><A@>A@>@?=@?=B>=B>=B>=B>=C?<D@=D@=D@=C?<A=:@<9A=:B>;A=:@<9?;8=96=96=96<85<85<85<85;74952;74<85<85<85<85=96=96A=:D@=C?<=96952:63?;8B>;@<9?;8?;8@<9A=:@<9?;8>:7?;:?;:@<;@<;A=<A=<A=<@<;B>=A=<A=<A=<@<;?;:?;:@<;@?=@?=A=<?;:=96=96@<9B>;B=:B=:A=:@<9?;8?;8?;8?;8@<9?;8=96<85=96>:7>:7=96?;:>:9<87;76;76=98?;:@<;@<;<85>:7<87@<;D@?C?>EA@EA@D@?C?>B>=A=<?;:>:9?;8A=:@<;A=<A=<A=<B>=C?>C?>B>=A=<C?>B>=@<;?;:@<;B>=B>=A=<?;:>:9?;:@<;C?>CB@BA?BA?BA?C?>A=<A=<A=<@<;>:9>:9B>=EA@GCBFBAFBACB@BA?@?=@?=@?=@?=@?=@?=A@>BA?C?>C?>D@?D@?C?>B>=C?>C?>B>;B>;B>;A=:A=:B>;B>;A=:=96=96=96>:7?;8A=:A=:A=:>:7>:7=96;74:63952:63;74@<9A=:@<9>:7=96>:7?;8@<9A=<@<;?;:?;:@<;B>=D@?EA@B>=B>=A=:A=:?;8<85<85<85A=:A=:A=:@<9B>=D@?CB@CB@@?==<:A@>GFDGFDDCACB@CB@BA?@?=>=;?><@?=@?=?><?><A=<A=<A=<@<;@<9@<9A=:B>;D@=B>;A=:A=:A=:@<9@<9A=:@<9?;8>:7>:7?;8?;8>:7>:7;74;74<85<85;74;74<85<85B>;D@=D@=@<9:63730:63>:7>:7>:7?;8@<9@<9>:7=96<85>:9>:9@<;A=<B>=B>=A=<@<;B>=A=<A=<A=<A=<?;:?;:@<;A@>A@>B>=@<;=96=96?;8B>;C>;C>;B>;A=:A=:A=:@<9?;8?;8?;8?;8?;8@<9A=:@<9?;8@<;@<;?;:>:9=98=98?;:@<;A=<?;8C?<A=<B>=C?>B>=D@?EA@D@?C?>B>=A=<@<;?;:@<9A=:A=<A=<A=<A=<B>=D@?D@?D@?D@?EA@D@?B>=A=<B>=B>=B>=A=<>:9>:9@<;A=<C?>DCACB@BA?BA?D@?B>=B>=B>=@<;?;:@<;A=<B>=C?>C?>D@?BA?BA?A@>@?=?><>=;?><?><A@>BA?C?>C?>C?>B>=B>=C?>D@?EA@C?<B>;B>;A=:A=:B>;@<9>:7<85;74:63;74=96?;8A=:A=:>:7?;8>:7;74:63:63952730=96?;8?;8=96;74<85>:7?;8C?>C?>A=<@<;@<;A=<C?>EA@C?>A=<B>;C?<A=:=96;74;74?;8@<9@<9@<9A=<C?>BA?BA?@?==<:@?=EDBDCABA?CB@DCABA?@?=?><?><@?=@?=?><>=;?;:?;:?;:>:9=96=96=96?;8C?<B>;B>;A=:?;8>:7>:7?;8B>;@<9>:7=96?;8@<9A=:B>;?;8>:7=96<85;74:63;74=96B>;C?<D@=B>;<85730730:63<85>:7A=:B>;@<9>:7=96>:7@<;@<;@<;@<;@<;A=<B>=B>=B>=A=<A=<A=<A=<@<;@<;@<;@?=A@>D@?A=<=96<85>:7A=:C>;C>;B>;B>;B>;A=:@<9>:7@<9@<9A=:B>;B>;C?<B>;B>;A=<A=<A=<@<;>:9>:9?;:@<;@<;A@<ED@BA?A@>@?=>=;A@>CB@CB@CB@A@>A@>A@>@?=@?;?>:B>=A=<A=<A=<B>=C?>D@?D@?EA@EA@D@?C?>C?>C?>C?>B>=@<;=98>:9A=<A=<C?>CB@CB@A@>A@>B>=@<;?;:@<;@<;@<;A=<@<;?;:@<;@?=A@>A@>A@>BA?A@>?><>=;>=;?><A@>BA?EA@D@?C?>B>=B>=C?>C?>C?>A=:@<9@<9@<9B>;B>;@<9<85;74:63:63<85>:7@<9A=:A=:@<9A=:?;8;74:63;74;74952<85?;8A=:>:7<85<85>:7@<9C?>C?>B>=A=<@<;@<;A=<C?>A@>A@>D@=FB?EA>A=:=96<85=96?;8A=:A=:A=<B>=B>=B>=?><<;9>=;BA?A@>?><@?=A@>>=;=<:=<:>=;@?=@?=?><=<:=98=98>:9>:9=96;74;74<85A=:A=:B>;B>;@<9>:7=96>:7A=:?;8=96>:7?;8@<9A=:C?<C?<A=:?;8=96;74:63;74>:7C?<C?<C?<D@=@<9;74841:63;74?;8C?<C?<A=:?;8@<9B>;B>=B>=A=<@<;@<;@<;A=<B>=A=<A=<A=<A=<A=<A=<A=<A=<?><BA?FBAD@??;8<85=96?;8C>;C>;B>;C?<C?<B>;@<9>:7A=:A=:B>;B>;B>;B>;C?<D@=B>=B>=B>=@<;>:9>:9>:9?;:>:9BA=FEABA?@?=?><=<:A@>CB@EDBDCACB@BA?CB@CB@BA=@?;B>=B>=A=<A=<A=<A=<B>=C?>D@?C?>C?>C?>C?>C?>B>=@<;A=<=98>:9A=<A=<A=<@?=A@>A@>A@>A=<=98<87=98>:9?;:>:9=98=98?;:?><?><?><?><A@>@?=>=;=<:>=;?><A@>CB@EA@D@?C?>C?>C?>B>=@<;?;:>:7>:7>:7?;8A=:C?<A=:>:7<85<85<85>:7@<9B>;B>;B>;C?<C?<@<9<85;74=96>:7?;8>:7@<9B>;?;8<85<85?;8A=:A=<A=<B>=A=<@<;@<;A=<B>=@?=A@>EA>GC@GC@D@=@<9>:7;74>:7A=:A=:A=<A=<A=<A=<>=;;:8<;9?><>=;<;9<;9;:8;:8;:8<;9>=;A@>BA?A@>?><;76;76;76<87<85:63952:63=96?;8A=:B>;A=:?;8>:7>:7?;8>:7>:7@<9A=:@<9@<9A=:D@=C?<A=:?;8;74952<85@<9C?<B>;B>;D@=B>;>:7:63952<85@<9D@=D@=B>;A=:B>;D@=B>=B>=B>=A=<A=<@<;@<;A=<A=<A=<A=<A=<A=<B>=B>=A=<@?=CB@GCBEA@@<9=96=96>:7A<9B=:B>;C?<C?<B>;A=:@<9B>;A=:A=:A=:A=:A=:B>;D@=B>=B>=B>=@<;>:9=98=98>:9<87BA=FEACB@@?=>=;=<:@?=A@>DCADCACB@A@>A@>BA?BA=@?;B>=B>=B>=A=<?;:>:9?;:A=<A=<A=<A=<A=<@<;@<;?;:?;:A=<>:9@<;B>=@<;=98>:9@<;A=<A=<@<;=98;76;76<87<87875875:97<;9=<:<;9<;9=<:?><>=;<;9<;9=<:?><A@>BA?D@?D@?C?>B>=A=<@<;?;:>:9?;8@<9@<9@<9B>;C?<C?<A=:@<9@<9@<9@<9B>;C?<C?<B>;C?<C?<B>;@<9>:7?;8A=:C?<@<9B>;B>;@<9?;8?;8@<9@<9A=<A=<A=<@<;@<;@<;@<;A=<>=;@?=BA=CB>DC?DC?C?<@<9<85>:7@<9A=:A=<B>=A=<@<;=<::97:97=<:<;9;:8;:8:97:97;:8<;9=<:@?=BA?BA?@?=;76954954:65;74952841:63;74<85?;8B>;A=:?;8>:7>:7?;8>:7@<9B>;A=:?;8?;8@<9C?<B>;B>;@<9<85952;74@<9B>;B>;B>;C?<C?<@<9<85841=96@<9C?<C?<C?<B>;B>;B>;@<9A=:A=:A=:A=:@<9@<9A=:A=:B>;A=:A=:A=:C?<C?<A=:A@>CB@EDBCB@@<9=96<85=96?:7A<9A=:B>;B>;B>;A=:@<9@?;?>:?>:?>:>=9=<8?>:BA=A@>@?=>=;=<:;:8:97:97:97;76CB>GFBDCAA@>?><=<:?><@?=BA?BA?A@>?><>=;@?=@?;@?;B>=B>=B>=A=<>:9<87=98?;:@<;@<;@<;?;:>:9=98=98>:9@<;>:9A=<C?>>:9:65;76>:9>:9@<;A=<?;:=98<87;76:65653764986;:8;:8:97;:8>=;>=;<;9;:8;:8<;9>=;@?=A@>C?>C?>B>=A=<@<;?;:@<;A=<C?<D@=D@=C?<B>;C?<D@=EA>EA>D@=C?<B>;B>;C?<B>;A=:A=:B>;C?<D@=B>;A=:B>;D@=D@=EA>D@=B>;B>;B>;B>;A=:B>=B>=A=<@<;@<;@<;@<;@<;>=;@?=A@<BA=CB>ED@EA>B>;=96?;8@<9A=:B>=C?>B>=A=<>=;986875:97:97;:8=<:<;9;:8;:8;:8<;9>=;@?=?><=<:<87:65954:65;74:63:63;74:63<85>:7A=:@<9>:7<85<85@<9@<9A=:B>;@<9>:7>:7A=:@<9A=:B>;A=:=96952;74@<9B>;C?<D@=D@=D@=B>;>:7:63>:7@<9B>;C?<C?<C?<A=:>:7?;8?;8@<9@<9@<9@<9A=:B>;A=:B>;A=:A=:B>;C?<C?<A=:A@>CB@DCABA??;8<85<85=96=85?:7@<9A=:A=:A=:@<9A=:@?;?>:?>:?>:>=9=<8?>:A@<A@>?><>=;<;9;:8:97986875;76ED@FEACB@@?=>=;=<:=<:A@>A@>BA?CB@A@>>=;=<:>=9@?;A@>@?=@?=@?=?><=<:;:8<;9>=;=<:<;9;:8:97:97986986?;:@<;B>=C?>@<;;76:65=98>:9?;:A=<C?>B>=@<;=98<87875653764<;9=<:;:8:97<;9>=;<;9:97;:8=<:?><@?=@?=B>=B>=C?>B>=@<;>:9?;:B>=D@=C?<B>;C?<D@=EA>C?<B>;A=<C?>C?>A=<@<;B>=B>=A=<C?>B>=B>=C?>D@?C?>A=<A=<D@=D@=C?<C?<C?<C?<B>;B>;A=<D@?D@?A=<?;:@<;A=<A=<=<:>=;?>:@?;DC?HGCIEBFB??;8@<9@<9A=:B>=C?>B>=@<;@<9=96;74:63<85>:7?;8?;8?;8=96;74<85>:7@<9@<9@<9?;:=98<87;76:63952:63;74;74<85>:7A=:@<9>:7>:7?;8@<9A=:A=:@<9A=:@<9>:7;74>:7@<9A=:A=:=96;74<85>:7C?<D@=C?<C?<D@=B>;>:7=96=96@<9B>;C?<B>;A=:@<9>:7?;8>:7=96>:7@<9B>;B>;B>;B>;A=:B>;C?<D@=C?<C?<D@=A@>@?=@?=@?=@<9<85;74<85>96?:7@<9A=:@<9?;8?;8?;8>=9>=9>=9?>:@?;@?;@?;?>:@?=?><<;9986764764764875;76BA=DC?CB@A@>@?=>=;>=;A@>@?=A@>A@>@?=>=;=<:?>:@?;@?=@?=A@>@?=@?=@?=@?=?><>=;=<:<;9<;9;:8:97986875@<;B>=D@?D@?@<;;76:65<87>:9@<;C?>D@?C?>B>=@<;?;:;:8;:8<;9>=;?><=<:<;9<;9=<:=<:<;9<;9=<:>=;?><?><A=<@<;@<;@<;?;:=98>:9@<;A=:A=:B>;B>;C?<B>;B>;A=:B>=C?>C?>B>=A=<A=<A=<@<;C?>B>=B>=C?>C?>B>=A=<@<;A=:B>;B>;B>;@<9?;8@<9@<9A=<D@?D@?A=<>:9=98?;:@<;=<:>=;>=9?>:CB>FEAHDAEA>A=:B>;A=:A=:A=<B>=A=<?;:@<9>:7<85;74=96>:7?;8@<9?;8=96;74952;74>:7@<9@<9B>=A=<A=<@<;>:7;74:63:63:63;74=96?;8?;8>:7=96=96@<9A=:A=:A=:A=:A=:?;8=96?;8?;8@<9?;8=96:63;74<85A=:B>;B>;B>;D@=A=:>:7=96=96@<9B>;B>;A=:@<9?;8=96>:7=96=96>:7@<9A=:A=:@<9A=:A=:B>;C?<D@=C?<C?<D@=A@>?><>=;?><@<9=96;74<85=85>96?;8@<9A=:A=:@<9A=:=<8=<8=<8=<8>=9?>:?>:?>:>=;>=;<;9986653542653875<87?>:CB>CB@BA?A@>@?=?><A@>A@>A@>A@>@?=?><?><@?;A@<@?=BA?CB@BA?BA?DCAEDBCB@@?=@?=?><>=;=<:<;9:97875=<:@?=EA@D@?@<;<87;76<87@<;C?>FBAFBAEA@EA@BA?A@>@?=A@>BA?BA?A@>@?=?><?><=<:=<:=<:>=;@<;?;:?;:?;:>:9>:9=98>:9=98<87<87>:9=96?;8A=:A=:A=:@<9@<9@<9A=<A=<B>=B>=B>=@<;?;:@<;B>=A=<A=<C?>C?>B>=@<;?;:?;8A=:B>;@<9=96<85=96?;8@<;B>=C?>A=<=98954<87@<;>=;?><A=:@<9C?<FB?FB?EA>C?<C?<B>;A=:A=<B>=B>=A=<A=:?;8=96=96=96>:7?;8?;8B>;A=:=96841841=96@<9@<9B>=C?>D@?D@?A=:=96952841:63;74=96@<9@<9?;8=96=96@<9@<9@<9A=:B>;B>;A=:@<9A=:@<9?;8>:7<85:63:63;74?;8B>;B>;B>;C?<A=:?;8?;8?;8A=:A=:@<9?;8?;8>:7<85>:9=98=98>:9@<;@<;@<;>:9A=<A=<B>=C?>D@?C?>C?>D@?A@>>=;>:9?;:@<9>:7<85;74<74=85=96>:7@<9A=:@<9@<9@<9?;8?;8?;8@<9A=:A=:A=:?;:?;:>:9;76843843954;76@<;@?;CB>BA?A@>BA?A@>@?=@?=BA?BA?A@>A@>@?=A@>A@<BA=BA?DCAEDBCB@CB@FECGFDEDBBA?BA?BA?A@>@?=?><;:8875;:8?><EA@D@?@<;=98<87=98B>=FBAIEDGCBFBAFBADCACB@CB@EDBFECDCACB@DCADCABA??><?><>=;>=;@<;@<;?;:>:9=98<87;76;76;76;76;76<87;74=96?;8A=:@<9@<9@<9@<9?;:?;:@<;B>=C?>@<;?;:@<;A=<@<;@<;B>=C?>B>=?;:>:9>:7@<9A=:?;8;74:63<85?;8?;:>:9@<;@<;<87954:65>:9>=;?><B>;A=:A=:C?<EA>FB?D@=D@=B>;A=:B>=D@?EA@EA@D@=B>;A=:?;8?;8?;8?;8?;8FB?FB?A=:952730=96A=:@<9A=<B>=D@?D@?C?<?;8:63730;74=96?;8B>;B>;B>;@<9?;8?;8?;8?;8@<9A=:B>;B>;B>;B>;A=:@<9?;8<85;74;74<85?;8C?<C?<C?<C?<A=:A=:C?<B>;B>;A=:?;8=96=96=96=96>:9=98=98?;:A=<A=<@<;>:9A=<A=<B>=C?>D@?D@?D@?D@?BA??><>:9?;:?;8=96;74;74=85>96=96=96>:7?;8>:7=96?;8?;8?;8@<9@<9A=:@<9@<9?;:?;:?;:=98;76;76<87>:9B>=A@<CB>A@>@?=BA?CB@A@>A@>EDBDCADCACB@BA?BA?BA=BA=BA?DCADCABA?CB@GFDHGEFECCB@CB@CB@CB@BA?A@><;9875:97>=;D@?D@?@<;=98=98>:9C?>GCBIEDGCBFBAFBAEDBDCADCAFECGFDEDBEDBGFDGFDEDBBA?@?=@<;@<;A=<B>=A=<?;:=98<87;76;76;76:65:65;76;74<85>:7@<9A=:A=:A=:A=:?;:>:9@<;B>=B>=@<;?;:@<;@<;?;:>:9A=<C?>B>=?;:<87>:7?;8>:7=96;74;74<85>:7>:9;76;76>:9=98:65954<87?;:A=<C?<B>;A=:B>;EA>GC@EA>D@=C?<B>;C?>EA@EDBEDBGC@FB?EA>C?<A=:@<9@<9@<9EA>GC@C?<:63841=96A=:@<9@<;@<;A=<C?>C?<A=:=96952<85=96?;8B>;D@=D@=C?<B>;>:7>:7>:7?;8?;8@<9B>;C?<B>;B>;A=:?;8<85:63:63;74@<9C?<D@=C?<C?<A=:A=:D@=D@=D@=A=:>:7<85=96>:7>:7=98=98<87>:9@<;A=<@<;>:9@<;A=<B>=C?>D@?D@?D@?D@?CB@@?=@<;?;:=96;74:63;74@;8@;8>:7=96>:7?;8>:7<85>:7>:7?;8@<9@<9@<9?;8>:7@<;?;:>:9=98=98=98?;:@<;?><A@<CB>A@>@?=BA?DCADCADCAHGEHGEGFDFECEDBDCACB>CB>@?=BA?BA?A@>CB@FECHGEGFDDCAEDBEDBEDBEDBDCA?><986:97<;9B>=C?>A=<=98<87?;:C?>D@?FBAFBAFBAEA@DCAEDBDCAEDBEDBDCAEDBGFDGFDFECDCAA@>A=<A=<C?>D@?C?>A=<>:9>:9=98<87;76:65:65;76<85<85>:7@<9A=:B>;B>;A=:A=<@<;@<;A=<A=<?;:>:9>:9?;:>:9>:9A=<C?>B>=?;:<87>:7=96<85;74;74<85=96=96=98:65:65=98>:9<87:65:65>:9@<;B>;B>;A=:A=:D@=FB?EA>EA>D@=B>;B>=D@?DCADCAGC@FB?EA>C?<A=:@<9?;8@<9D@=GC@EA>>:7;74>:7B>;B>;>:9?;:?;:@<;@<9@<9=96:63;74<85=96?;8B>;EA>D@=C?<?;8?;8>:7>:7>:7?;8@<9C?<A=:A=:@<9?;8<85952952:63?;8B>;C?<B>;B>;@<9@<9C?<D@=D@=B>;@<9>:7?;8@<9@<9>:9<87;76<87?;:@<;?;:>:9@<;A=<B>=C?>D@?EA@EA@EA@CB@A@>A=<?;:=96:63;74=96A<9B=:@<9?;8?;8@<9@<9>:7?;8?;8@<9@<9A=:A=:?;8?;8@<;?;:>:9>:9>:9?;:@<;@<;@?=A@<DC?CB@@?=BA?DCADCAEDBGFDHGEHGEGFDEDBCB@BA=A@<?><?><?><@?=A@>CB@EDBGFDFECGFDGFDGFDGFDGFDA@>;:8:97986<;9@?=A=<=98<87@<;C?>B>=C?>EA@BA?A@>BA?DCACB@CB@BA?CB@DCAFECEDBEDBCB@@?=@<;A=<C?>D@?D@?C?>A=<@<;@<;>:9<87:65:65<87=96=96>:7?;8A=:A=:A=:@<9A=<A=<A=<@<;@<;@<;?;:=98=98=98>:9A=<C?>A=<?;:>:9>:7<85:63:63<85>:7>:7>:7=98<87<87>:9>:9<87:65:65=98=98?;8@<9A=:B>;C?<D@=C?<D@=A@<?>:?><A@>BA?BA?D@=D@=D@=C?<A=:@<9@<9A=:EA>HDAFB?@<9<85>:7A=:B>;?;:@<;@<;?;:>:7=96;74952:63:63;74=96A=:EA>FB?EA>B>;A=:@<9?;8>:7>:7@<9C?<B>;B>;A=:A=:?;8<85:63952=96A=:B>;A=:A=:?;8>:7?;8B>;C?<D@=C?<B>;B>;B>;A=:@<;>:9<87<87?;:@<;@<;?;:?;:A=<B>=B>=C?>EA@EA@EA@CB@@?=A=<@<;=96;74<85?;8A<9C>;B>;@<9?;8A=:B>;A=:A=:A=:@<9A=:A=:A=:A=:@<9A=<A=<@<;@<;?;:?;:@<;B>=A@>BA=FEAEDBBA?A@>BA?CB@DCACB@DCAEDBDCABA??>:>=9>=9?><>=;=<:?><@?=A@>CB@EDBEDBFECFECFECGFDGFDBA?<;9875764:97@?=B>==98=98B>=D@?A=<A=<D@?A@>?><?><BA?DCAA@>@?=A@>CB@DCADCACB@@?=?><@<;@<;B>=C?>C?>B>=B>=B>=B>=@<;=98:65;76=98=96>:7>:7?;8@<9@<9@<9?;8A=<B>=A=<?;:?;:A=<@<;>:9;76=98?;:B>=B>=@<;?;:?;:>:7<85:63:63=96?;8?;8?;8=98>:9?;:?;:=98;76:65;76<87;76<85?;8A=:B>;B>;A=:A=:B>;?>:>=9>=;@?=A@>A@>C?<D@=D@=C?<B>;B>;B>;C?<EA>GC@FB?@<9;74<85>:7@<9A=<C?>D@?A=<>:7<85;74:63:63:63:63<85@<9EA>GC@FB?D@=B>;A=:@<9>:7>:7@<9C?<D@=C?<B>;B>;B>;?;8;74:63;74?;8A=:B>;B>;?;8<85<85@<9B>;D@=EA>EA>EA>D@=B>;C?>@<;=98=98@<;A=<A=<@<;?;:A=<B>=B>=C?>EA@FBAEA@BA?@?=@<;?;:>:7<85>:7A=:B=:D?<C?<@<9?;8A=:B>;A=:A=:A=:@<9?;8@<9@<9A=:A=:C?>D@?C?>B>=@<;@<;B>=C?>A@>D@?IEDGCBFBAEA@C?>C?<C?<C?<B>;A=:@<9>:7=96>:7?;8@<;>:9=98=98?;:A=<B>=C?>D@?FBAFBAFBAGCBGCBEA@D@?A=<>:9=98@<;A=<>:9>:9@<;?;:>:9>:9?;:@<;A=<A=<@<;C?>?;:A=<B>=@<;B>=BA??><=<:;:8<87>:9@<;A=<B>=C?>?><?><?><>=;@<;@<;@<;@<;?;:=98;76<87<;9<;9;:8:97=<:=<:<;9<;9<;9>=;A=<@<;?;:?;:@::A;;B<<B<<A;;@::=96<85<85>:7@<9@<9?;8?;8:95<;7@?;A@<>=9:95873873<85;74;74<85>:7?;8B>;D@=A=:@<9?;8@<9B>;D@=B>;@<9C?<C?<C?<C?<D@=EA>C?<@<9A=:C?<D@=C?<@<9>:7=96=96C?<D@=C?<@<9=96;74:63:63:63952952;74?;8C?<FB?GC@D@=EA>D@=B>;?;8:63;74A=:A=:C?<D@=C?<B>;@<9=96;74;74=96?;8A=:@<9?;8=96<85?;8A=:C?<EA>D@=C?<D@=GC@C?<A=:@<9@<9@<9@<9?;8?;8A=:A=:A=:B>;C?>D@?FBAGCBB>;@<9@<9A=:?;8=96>:7A=:B>;B>;B>;B>;A=:B>;B>;C?<C?>B>=A=<@<;@<;A=<B>=C?>B>=C?>C?>B>=A=<A=<A=<A=<A@>B>=FBAD@?D@?EA@C?>C?<B>;B>;@<9?;8>:7=96<85=:5?;8@<;>:9<87;76<87=98>:9>:9A=<C?>D@?D@?D@?EA@EA@D@?D@?@<;?;:A=<@<;=98<87>:9>:9>:9>:9>:9?;:?;:?;:?;:@<;=98>:9@<;?;:A=<A@>>=;=<:;:8<87=98?;:@<;A=<B>=@?=@?=?><>=;?;:?;:@<;A=<?;:=98<87<87;:8;:8;:8;:8=<:>=;?><>=;>=;>=;@<;?;:=98=98>88@::C==D>>D>>C==>:7=96=96>:7?;8?;8?;8?;8=<8>=9A@<BA=@?;=<8;:6;:6>:7=96<85<85=96>:7@<9B>;@<9>:7=96>:7A=:D@=C?<A=:>:7@<9A=:A=:A=:A=:@<9?;8A=:B>;C?<B>;?;8=96=96=96A=:B>;B>;@<9>:7=96<85;74;74;74:63;74<85>:7A=:B>;B>;C?<C?<B>;>:7841841?;8D@=EA>D@=B>;@<9>:7<85:63;74=96?;8@<9?;8=96;74;74>:7?;8B>;C?<D@=C?<EA>GC@FB?C?<@<9?;8?;8?;8?;8=96@<9@<9A=:B>;C?>D@?EA@FBAC?<@<9?;8?;8>:7<85?;8B>;B>;B>;B>;B>;B>;A=:A=:A=:B>=B>=A=<A=<A=<A=<A=<B>=C?>C?>B>=A=<@<;@<;A=<B>=?><@<9D@=A=:C?<EA>D@=C?<B>;A=:>:7<85<85;74<85=96>:7A=<@<;>:9=98<87<87<87<87>:9A=<B>=B>=@<;A=<B>=C?>D@?A=<@<;@<;?;:;76:65;76<87=98>:9>:9=98>:9>:9?;:=98;76<87>:9=98?;:?><=<:=<:;:8;76;76<87>:9?;:A=<@?=?><>=;<;9;:8<;9?;:@<;>:9=98:97:97;:8:97:97:97=<:?><A@>A@>@?=?><?;:>:9<87;76<87>:9C==E??E??E???;:>:9=98>:9?;:?;:?;:@<;>=;?><@?=A@>@?=>=;=<:<;9@<9>:7=96<85=96=96?;8A=:A=:?;8<85<85@<9D@=C?<A=::63<85>:7>:7=96=96=96>:7A=:B>;B>;A=:?;8=96=96>:7?;8@<9@<9?;8=96=96<85<85:63:63:63952952;74>:7@<9?;8@<9@<9@<9=9662/730>:7EA>D@=C?<?;8<85:63952841952;74=96>:7=96<85:63:63<85<85>:7A=:C?<C?<EA>FB?IEBEA>A=:?;8?;8?;8>:7=96?;8@<9A=:B>;C?>C?>D@?D@?B>;@<9?;8>:7=96=96>:7A=:A=:B>;C?<C?<B>;A=:@<9@<9A=:A=:A=<A=<A=<A=<@<;@<;A=<A=<@<;>:9=98=98?;:A=<>=;>:7B>;@<9A=:C?<B>;B>;A=:@<9=96;74;74<85<85=96>:7A=<A=<A=<@<;?;:>:9<87<87=98@<;B>=@<;=98=98?;:@<;B>=@<;?;:?;:>:9:65954954:65;76=98=98=98=98>:9@<;=98<87<87=98=98?;:=<:=<:=<:<;9<87;76;76<87>:9@<;?><?><>=;<;9;:8;:8>:9@<;=98<87986:97986986986:97<;9?><BA?CB@BA??><?;:>:9<87;76;76=98A;;C==D>>C==>:9=98=98>:9?;:?;:@<;@<;?><>=;>=;?><?><>=;=<:<;9?;8>:7=96=96=96>:7@<9B>;C?<B>;?;8>:7@<9C?<B>;?;8952;74<85<85;74;74<85=96A=:B>;B>;B>;@<9>:7=96=96>:7>:7>:7<85;74;74<85<85952952952841841952<85?;8<85<85<85>:7=96841730=96B>;B>;@<9=96:63:63:63952841841:63<85=96=96;74952952952;74>:7A=:B>;C?<D@=HDAFB?B>;@<9?;8>:7=96<85>:7?;8@<9A=:B>=B>=B>=B>=B>;@<9?;8?;8>:7=96>:7?;8B>;B>;C?<C?<B>;@<9@<9@<9@<9@<9@<;@<;@<;?;:>:9?;:=98=98<87;76:65954;76=98<;9<85@<9>:7?;8A=:A=:C?<B>;@<9>:7=96>:7>:7>:7>:7>:7A=<B>=C?>C?>B>=?;:<87:65=98@<;B>=@<;=98<87>:9@<;?><?><>=;=<:;:8986764653653875:97986875875:97;:8=98=98=98=98>:9?;:=<:>=;>=;=<:=98<87;76=98?;:@<;?><@?=@?=?><>=;=<:?;:@<;=98<87986986875875875986:97=<:BA?DCABA?@?==<:<;9;:8986;76<87?;:B>=B>=A=<<87<87=98?;:@<;@<;@<;@<;A@>@?=?><?><@?=@?=?><=<:>:7=96=96>:7?;8?;8@<9A=:D@=D@=B>;@<9@<9B>;A=:>:7:63:63:63952952952;74<85@<9A=:B>;C?<A=:?;8=96<85:63;74;74;74;74<85<85<85;74:63952730730841:63<85=96<85;74>:7?;8;74841;74@<9A=:@<9>:7=96>:7>:7?;8:63952952;74>:7>:7<85952952841952<85@<9A=:B>;C?<D@=D@=B>;@<9>:7=96<85<85=96>:7?;8@<9A=<A=<A=<A=<B>;A=:@<9@<9?;8>:7>:7>:7B>;B>;C?<B>;A=:@<9@<9@<9@<9?;8?;8?;8?;:=98=98>:9;76:65:65:65843732843:65986=96A=:?;8?;8B>;B>;EA>FB?@<9?;8?;8@<9@<9?;8?;8?;8C?>C?>D@?EA@D@?A=<=98:65>:9@<;B>=@<;?;:?;:@<;A=<@?=A@>A@>?><=<:;:8986764764875986875653542542764;76<87<87<87?;:@<;>=;@?=?><?><@<;>:9=98>:9@<;A=<?><@?=A@>A@>@?=?><A=<A=<?;:=98986986986875986:97:97<;9@?=BA?BA?@?=>=;>=;<;9:97;76=98@<;B>=C?>B>=<87<87=98?;:@<;?;:?;:?;:A@>A@>@?=@?=A@>A@>@?=>=;>:7=96>:7?;8@<9?;8?;8@<9B>;C?<B>;@<9?;8A=:A=:?;8<85:63952841841841952;74>:7?;8A=:B>;B>;@<9=96;74841:63<85=96=96>:7=96<85;74:63952841841952<85=96?;8?;8=96?;8A=:>:7:63952>:7?;8A=:@<9?;8@<9B>;B>;?;8=96<85=96@<9@<9=96952:63952:63=96?;8A=:A=:B>;A=:B>;B>;A=:>:7<85;74;74=96=96>:7?;8?;:@<;@<;@<;C?<A=:?;8>:7>:7>:7>:7>:7A=:B>;B>;B>;@<9?;8@<9A=:A=:?;8?;8?;8?;:=98<87=98;76:65:65:65954732843;76;:8@=8C@;>;6>;6A>9B?:EA>EA>B>;A=:@<9@<9@<9?;8?;8@<9D@?D@?D@?EA@EA@C?>?;:<87>:9@<;@<;@<;@<;A=<B>=B>=A@>CB@CB@A@>?><=<:;:8986:97:97:97875653542431542:65=98<87<87?;:@<;?;:B>=C?>D@?D@?B>=@<;@<;A=<A=<?><A@>BA?BA?A@>@?=@?=A@>@?==<::97986:97:97;:8;:8;:8<;9>=;A@>A@>@?=?><?><=<:;:8986;:8>=;A@>BA?A@>?;:>:9>:9?;:?;:>:9>:9?;:>=;?><?><?><@?=A@>?><>=;>:7=96>:7?;8@<9?;8@<9A=:A=:B>;A=:>:7?;8B>;B>;@<9>:7<85;74;74:63952952:63=96>:7?;8A=:B>;A=:?;8=96<85=96>:7?;8?;8@<9?;8>:7<85=96=96<85:63;74>:7A=:A=:B>;A=:A=:C?<B>;<85952=96?;8@<9@<9?;8@<9B>;C?<A=:@<9?;8?;8@<9@<9=96;74<85;74;74=96?;8?;8@<9A=:B>;B>;B>;A=:?;8=96<85;74=96=96=96=96>:9>:9?;:?;:A=:@<9?;8>:7?;8?;8?;8>:7?;8A=:B>;B>;A=:@<9@<9A=:A=:@<9@<9A=:A=:>:7=96>:7<87;76:65:65954732954<87?><A>9B?:<94;83=:5>;6A=:A=:C?<B>;A=:@<9?;8>:7?;8A=:D@?B>=B>=C?>EA@D@?A=<>:9>:9?;:?;:?;:@<;A=<A=<@<;A@>CB@DCABA?@?=?><=<:;:8<;9<;9;:8:97875653653653;76>:9<87<87?;:?;:>:9B>=EA@FBAFBAD@?B>=A=<B>=A=<A@>CB@DCADCABA?A@>BA?CB@BA?>=;;:8:97;:8<;9<;9=<:<;9<;9=<:@?=A@>@?=?><@?==<:;:8:97;:8?><A@>BA?A@>A=<@<;@<;?;:>:9=98=98>:9=<:>=;?><?><@?=A@>@?=>=;=96=96=96>:7?;8@<9A=:C?<B>;C?<@<9=96>:7B>;C?<A=:@<9?;8>:7>:7=96:63:63:63<85=96?;8A=:B>;B>;A=:?;8B>;B>;A=:?;8?;8@<9A=:@<9@<9A=:A=:?;8<85;74>:7A=:@<9D@=C?<B>;D@=D@=?;8;74?;8A=:A=:@<9?;8@<9B>;C?<@<9@<9@<9@<9@<9?;8>:7=96<85<85<85=96>:7>:7?;8?;8D@=D@=C?<A=:@<9>:7<85<85=96=96=96<85=98>:9?;:?;:>:7>:7>:7?;8@<9@<9>:7<85=96@<9B>;C?<B>;@<9@<9A=:B>;A=:A=:C?<C?<?;8=96>:7=98:65954954843732954<87?><?<7?<7961:72=:5=:5@<9A=:A=:B>;B>;@<9>:7=96>:7@<9B>;A=:@<9B>;FB?FB?C?<?;8?;8?;8?;8@<9A=:B>;A=:A=:?><@?=A@>CB@BA?@?=@?=@?=?><?><=<:<;9;:8:97:97;:8?;:?;:?;:A=<A=<@<;A=<B>=EA@EA@EA@FBAEA@D@?B>=A=<A@>BA?DCAFECEDBCB@BA?CB@CB@BA??><<;9;:8;:8;:8:97:97<;9=<:=<:?><BA?BA?@?=?><;:8986:97>=;A@>BA?BA?<:;=;<><=?=>?=>><=<:;;9:=9:?;<A=>A=>?;<>:;@<=A=<?;8>:7>:7?;8B>;B>;A=:@<9@<9@<9@<9@<9@<9A=:B>;C?<C?<D@=D@=C?<>:7:63:63<85<85=96?;8A=:B>;B>;B>;C?<EA>EA>B>;?;8@<9C?<EA>D@=D@=C?<D@=EA>B>;?;8>:7A=:C?<C?<D@=FB?FB?EA>C?<B>;C?<B>;@<9=96;74<85?;8A=:?;8@<9A=:B>;C?<B>;A=:@<9?;8<85;74<85=96=96>:7@<9A=:A=:@<9A=:A=:A=:?;8>:7A=:@<9@<9A=:B>=@<;?;:>:9?;8>:7@<9A=:?;8>:7>:7;74>:7B>;D@=B>;?;8@<9A=:@<9B>;C?<D@=C?<A=:?;8?;8?;8=96<85:65954;76=98>:9?;:>=;<94=:5961:72=:5=:5?;8?;8A=:B>;C?<B>;?;8>:7?;8@<9B>;@<9?;8A=:EA>EA>B>;?;8>:7>:7>:7?;8@<9A=:A=:A=:=<:>=;A@>CB@CB@A@>@?=@?=@?=@?=?><?><>=;>=;>=;>=;@<;@<;B>=B>=@<;?;:@<;B>=D@?D@?EA@FBAFBAD@?B>=@<;@?=@?=BA?DCADCABA?A@>A@>DCACB@A@>=<::97:97:97986;:8=<:=<:=<:>=;@?=@?=>=;=<::97875:97=<:?><@?=@?=><=><=?=>?=>?=>><=<:;;9:<89>:;?;<?;<>:;>:;?;<@<;?;8>:7=96?;8A=:A=:@<9@<9@<9@<9@<9@<9@<9A=:B>;C?<D@=D@=D@=B>;>:7;74:63;74<85<85=96@<9B>;C?<C?<C?<D@=D@=C?<B>;B>;D@=EA>D@=D@=C?<D@=EA>D@=A=:A=:C?<B>;A=:B>;D@=D@=C?<B>;B>;B>;@<9>:7;74952:63<85>:7@<9@<9@<9A=:B>;B>;A=:@<9?;8=96;74;74<85<85<85>:7>:7>:7?;8A=:B>;B>;A=:@<9B>;A=:A=:B>;B>=A=<?;:>:9?;8?;8@<9@<9>:7>:7>:7:63;74?;8A=:?;8?;8@<9@<9@<9A=:B>;C?<B>;B>;A=:A=:A=:?;8=96<87<87=98?;:A=<A=<?><<94>;6;83<94>;6<94>:7>:7@<9B>;C?<C?<A=:@<9@<9A=:@<9?;8>:7@<9C?<C?<A=:>:7>:7>:7?;8?;8@<9A=:B>;C?<=<:=<:>=;@?=?><>=;>=;>=;@?=?><@?=@?=A@>BA?A@>@?=?><A@>D@?D@?@<;>:9?;:B>=B>=C?>EA@FBAFBAD@??><=<:@<;@<;?><BA?CB@A@>@?=?><DCADCACB@?><;:8986:65;76;:8=<:=<:<;9=<:?><>=;<;9=<::97986:97<;9=<:?><?><>=;>=;=<:>=;>=;=<:;:8986;76=98>:9>:9=98=98>:9?;:@<9=96<85>:7?;8>:7>:7@<9@<9@<9@<9@<9@<9A=:B>;C?<C?<B>;B>;A=:?;8<85;74;74=96<85<85>:7A=:D@=D@=C?<B>;B>;C?<C?<B>;B>;C?<D@=D@=C?<C?<EA>EA>D@=D@=D@=?;8=96>:7A=:B>;A=:A=:C?<A=:@<9=96:63841841:63<85@<9@<9?;8@<9@<9@<9@<9@<9?;8=96;74;74:63:63:63:63<85=96?;8A=:C?<D@=C?<B>;C?<B>;B>;C?<C?>A=<?;:?;:@<9?;8@<9?;8>:7?;8>:7952952<85=96=96=96?;8?;8?;8@<9?;8@<9@<9A=:B>;B>;A=:@<9?;8>:7>:7?;:A=<A=<B>=@?=>;6A>9>;6=:5>;6<94>:7>:7@<9A=:B>;B>;@<9@<9@<9A=:?;8=96<85>:7@<9B>;@<9>:7>:7?;8?;8?;8?;8@<9B>;C?<?><=<:<;9;:8:97986:97<;9>=;>=;>=;?><A@>CB@BA?A@>A@>CB@FBAEA@A=<>:9>:9A=<A=<B>=C?>EA@EA@C?>?><=<:=98<87:97<;9>=;>=;>=;>=;DCAEDBDCA@?=<;9986:65;76;:8<;9<;9<;9<;9>=;=<:<;9;:8:97986:97;:8<;9=<:?><?><>=;=<:=<:?><?><=<:;:8>:9?;:?;:?;:=98=98=98=98?;8<85;74=96=96;74<85?;8?;8@<9@<9@<9@<9@<9A=:B>;?;8?;8?;8?;8>:7=96=96>:7>:7=96<85=96@<9B>;C?<A=:A=:@<9@<9@<9?;8=96?;8B>;A=:A=:A=:C?<D@=D@=D@=D@==96:63:63>:7A=:A=:A=:B>;B>;A=:>:7;74952952:63<85@<9?;8>:7>:7>:7?;8?;8@<9>:7=96;74:63952841841730;74=96?;8B>;D@=D@=B>;A=:B>;A=:A=:C?<C?>A=<@<;?;:@<9@<9?;8>:7=96@<9>:7841841;74=96=96<85=96>:7>:7>:7=96<85=96?;8@<9@<9?;8A=:@<9@<9A=:A=<A=<@<;@<;@?=@<9C?<?;8=96>:7=96?;8?;8A>9A>9A>9@=8?<7?<7@=8@=8>:7=96;74<85>:7@<9?;8>:7=96>:7>:7>:7>:7?;8@<9A=:B>=@<;=98;76;76:65;76=98@<;?;:?;:@<;B>=D@?D@?D@?CB@CB@EA@D@?B>=?;:>:9?;:@<;A=<A=<B>=C?>C?>?><>=;;76954653764:97;:8<;9=<:BA?CB@DCABA?=<:986;76=98=98>:9>:9=98>:9>:9>:9=98;76;76;76<87:97:97<;9=<:A@>?><>=;?><@?=A@>A@>@?=A=<B>=B>=A=<?;:>:9=98=98?;8<85;74<85<85:63;74>:7>:7>:7?;8?;8>:7>:7>:7?;8=96=96>:7>:7>:7=96>:7@<9?;8?;8>:7=96>:7@<9@<9?;8?;8?;8?;8?;8=96:63;74>:7?;8?;8@<9A=:B>;C?<C?<B>;=96:63952>:7C?<D@=C?<B>;A=:A=:?;8=96;74:63;74<85@<9?;8=96=96=96>:7?;8?;8>:7>:7=96;74:63952841730;74<85?;8B>;D@=D@=B>;A=:@<9@<9@<9B>;B>=A=<@<;@<;A=:?;8>:7=96=96@<9?;8841952<85?;8>:7<85<85=96>:7>:7<85;74<85=96>:7>:7=96A=:@<9A=:C?<D@=B>;@<;?;:>=;A=:EA>@<9?;8@<9@<9C?<C?<B?:B?:A>9?<7?<7?<7?<7?<7>:7<85;74;74=96?;8?;8?;8>:7?;8?;8?;8?;8@<9A=:A=:B>=@<;>:9>:9>:9=98>:9?;:A=<@<;?;:@<;B>=C?>D@?D@?CB@BA?C?>D@?C?>A=<?;:?;:@<;@<;@<;A=<B>=B>=@?=?><=98;76653764986;:8>=;@?=A@>CB@DCACB@?><;:8<87>:9?;:?;:>:9>:9=98=98<87<87<87;76<87=98<;9<;9=<:?><A@>@?=>=;?><@?=BA?BA?BA?D@?D@?D@?C?>A=<@<;?;:>:9?;8=96<85=96>:7>:7>:7?;8?;8?;8@<9?;8?;8>:7>:7>:7=96=96>:7?;8>:7=96>:7@<9?;8@<9@<9=96<85>:7>:7>:7=96?;8@<9A=:>:7;74:63:63>:7?;8?;8?;8A=:C?<B>;A=:=96<85;74>:7D@=GC@FB?C?<A=:@<9>:7<85:63:63;74<85@<9?;8>:7=96=96>:7?;8?;8?;8?;8?;8>:7<85;74:63952952;74>:7A=:D@=D@=C?<A=:?;8>:7?;8A=:B>=B>=A=<A=<A=:>:7=96=96>:7@<9?;8:63;74>:7@<9?;8=96;74<85>:7?;8>:7=96=96>:7>:7>:7=96=96=96?;8B>;C?<B>;@<;?;:=<:C?<FB?B>;@<9B>;C?<FB?EA>C@;C@;B?:A>9@=8?<7?<7>;6>:7<85:63:63<85>:7?;8?;8@<9@<9@<9A=:B>;B>;C?<C?<B>=@<;?;:?;:?;:?;:@<;@<;@<;@<;@<;A=<A=<B>=C?>C?>BA?A@>@?=A@>C?>A=<@<;?;:?;:?;:?;:@<;?><@?=@?=?><@<;=98;76;76:97<;9>=;A@>A@>BA?DCADCAB>==98<87>:9@<;?;:>:9>:9>:9=98<87<87=98=98=98?;:A=<A=<B>=D@?A@>@?=>=;>=;?><@?=A@>BA?EA@D@?D@?C?>C?>B>=A=<@<;?;8?;8?;8?;8@<9B>;A=:?;8A=:A=:B>;A=:@<9?;8>:7>:7>:7=96=96>:7>:7>:7?;8@<9?;8A=:@<9=96<85=96>:7=96<85>:7@<9@<9>:7=96;74:63<85>:7?;8?;8@<9B>;B>;@<9=96>:7>:7>:7B>;HDAHDAD@=A=:@<9=96;74952:63<85>:7A=:@<9?;8>:7>:7?;8?;8?;8?;8A=:A=:?;8=96<85;74952841:63=96A=:C?<D@=C?<A=:?;8>:7?;8B>;C?>C?>B>=B>=@<9<85;74=96>:7?;8?;8=96<85>:7@<9?;8=96<85<85=96?;8>:7>:7>:7>:7?;8?;8>:7<85;74<85?;8A=:@<9?;:?;:=<: